davideferrari95/blind_handover_controller/data/Test 262 - [2024-02-08 -- 12-49-07]/joint_states_data.csv
shoulder_pan_joint,shoulder_lift_joint,elbow_joint,wrist_1_joint,wrist_2_joint,wrist_3_joint
0.0030335092451423407,0.009003741666674614,-0.009691044688224792,0.0019273784710094333,-8.233554399339482e-05,0.0032477297354489565
0.0030335092451423407,0.009003741666674614,-0.009691044688224792,0.0019273784710094333,-8.233554399339482e-05,0.0032477297354489565
0.0028227935545146465,0.008925359696149826,-0.009530051611363888,0.0019261352717876434,-8.109940245049074e-05,0.0035981370601803064
0.002597377635538578,0.008809956721961498,-0.009557328186929226,0.002151333959773183,-7.989948790054768e-05,0.0034568493720144033
0.002909253118559718,0.00846957229077816,-0.00985474418848753,0.0019592668395489454,-7.873452705098316e-05,0.0032998169772326946
0.0034400487784296274,0.008531270548701286,-0.009911238215863705,0.0018438344122841954,-8.968004112830386e-05,0.0031923982314765453
0.003293270245194435,0.008619691245257854,-0.009907064959406853,0.0018269518623128533,-8.9198314526584e-05,0.003437311388552189
0.0029722522012889385,0.008630144409835339,-0.00945750717073679,0.002031503012403846,-8.8003660493996e-05,0.0036417352966964245
0.0026982042472809553,0.008658794686198235,-0.009657643735408783,0.0021237044129520655,-8.679470920469612e-05,0.0036629626993089914
0.002893403870984912,0.009055259637534618,-0.010071108117699623,0.002333888551220298,-8.561539289075881e-05,0.0036709862761199474
0.0029753746930509806,0.008810648694634438,-0.009500764310359955,0.002269954886287451,-8.446756692137569e-05,0.003684625495225191
0.0034406601916998625,0.00859485100954771,-0.009975430555641651,0.002159418072551489,-8.335003076354042e-05,0.0034554582089185715
0.0032756810542196035,0.008572257123887539,-0.01013227365911007,0.0020366020034998655,-8.226172940339893e-05,0.003338842187076807
0.0032756810542196035,0.008572257123887539,-0.01013227365911007,0.0020366020034998655,-8.226172940339893e-05,0.003338842187076807
0.0030219838954508305,0.008849631994962692,-0.009549115784466267,0.0019816155545413494,-8.120139682432637e-05,0.003168551716953516
0.0029685001354664564,0.008572389371693134,-0.010504061356186867,0.0019478065660223365,-8.016811625566334e-05,0.003424049122259021
0.0032187134493142366,0.008482039906084538,-0.010278133675456047,0.001932786195538938,-8.473475463688374e-05,0.003201304469257593
0.0031894161365926266,0.008778788149356842,-0.010161020793020725,0.001992529956623912,-8.897241787053645e-05,0.0033504136372357607
0.003490322967991233,0.00876538921147585,-0.010304927825927734,0.001982086570933461,-8.822722884360701e-05,0.0035301214084029198
0.003236772958189249,0.00854573491960764,-0.010132106021046638,0.0017881195526570082,-8.718149911146611e-05,0.003682731883600354
0.003430055221542716,0.008109871298074722,-0.009480370208621025,0.0017744358628988266,-8.613998943474144e-05,0.003584335558116436
0.003209550864994526,0.008307359181344509,-0.01006054412573576,0.0017575501697137952,-8.51217337185517e-05,0.0031833983957767487
0.0032112286426126957,0.00878212321549654,-0.009730905294418335,0.0017451787134632468,-8.412716124439612e-05,0.0029351015109568834
0.0031990199349820614,0.008626841008663177,-0.010292909108102322,0.001658353372476995,-8.315552258864045e-05,0.002938099903985858
0.0035431557334959507,0.00857616774737835,-0.010416080243885517,0.0016477954341098666,-8.22061556391418e-05,0.003090690355747938
0.0037902498152107,0.008363603614270687,-0.010364566929638386,0.0016890991246327758,-8.127814362524077e-05,0.0034071330446749926
0.0034795969258993864,0.008708911947906017,-0.009796681813895702,0.0018454700475558639,-8.037090447032824e-05,0.0035511793103069067
0.0033289510756731033,0.0084159467369318,-0.010088718496263027,0.002149321837350726,-5.1897159210057e-06,0.003484489396214485
0.003347029210999608,0.007794060278683901,-0.009877927601337433,0.0019249377073720098,-3.388514073776605e-07,0.0034557462204247713
0.003616368630900979,0.007503401022404432,-0.010566888377070427,0.0018413937650620937,-2.2124575949078462e-08,0.0034100967459380627
0.0037186299450695515,0.008864440955221653,-0.009954641573131084,0.0018338317750021815,-8.225045166909695e-05,0.003649054793640971
0.003165079280734062,0.008425473235547543,-0.009639154188334942,0.0017710626125335693,-9.47784646996297e-05,0.0038378334138542414
0.0030795997008681297,0.007876135408878326,-0.0104470644146204,0.0017898271325975657,-9.373547800350934e-05,0.0034872260875999928
0.0030531608499586582,0.007924764417111874,-0.010126117616891861,0.0018657499458640814,-9.188231342704967e-05,0.0034590144641697407
0.003417000873014331,0.00895952433347702,-0.009760098531842232,0.001885412959381938,-9.004773892229423e-05,0.003094978164881468
0.00334594096057117,0.008058296516537666,-0.010358371771872044,0.0020607165060937405,-8.828131103655323e-05,0.0031024347990751266
0.0033784457482397556,0.007955947890877724,-0.00958562083542347,0.0020216000266373158,-8.658270962769166e-05,0.003325558500364423
0.0030143670737743378,0.008254952728748322,-0.009392902255058289,0.002014955272898078,-8.494816574966535e-05,0.003715520491823554
0.0029969753231853247,0.008921650238335133,-0.00974690355360508,0.0019727260805666447,-8.337431791005656e-05,0.0034562537912279367
0.0029974677599966526,0.008046855218708515,-0.009134739637374878,0.0019815985579043627,-8.185769547708333e-05,0.003559642005711794
0.002907246584072709,0.008095137774944305,-0.009702864103019238,0.0019094088347628713,-8.039521344471723e-05,0.0037438534200191498
0.0027663004584610462,0.008549816906452179,-0.010618837550282478,0.001854246249422431,-7.898408512119204e-05,0.0033966845367103815
0.00287406868301332,0.008781216107308865,-0.009113860316574574,0.0018456261605024338,-7.762167660985142e-05,0.0031952408608049154
0.0029941066168248653,0.008075368590652943,-0.00988898053765297,0.0018730142619460821,-7.630542677361518e-05,0.0032106242142617702
0.0029941066168248653,0.008075368590652943,-0.00988898053765297,0.0018730142619460821,-7.630542677361518e-05,0.0032106242142617702
0.003273717826232314,0.008409732952713966,-0.009876963682472706,0.0019096953328698874,-8.904325659386814e-05,0.0034623853862285614
0.003178682643920183,0.00862707756459713,-0.009196019731462002,0.0020911891479045153,-8.849797450238839e-05,0.0036864301655441523
0.003032736014574766,0.008388681337237358,-0.009103277698159218,0.001914725755341351,-8.712970156921074e-05,0.0037268572486937046
0.0030731314327567816,0.008170349523425102,-0.010200625285506248,0.001828062697313726,-8.575008541811258e-05,0.0036055499222129583
0.0032037454657256603,0.00858438853174448,-0.010084073059260845,0.0018231493886560202,-8.44098613015376e-05,0.003443858353421092
0.003158073639497161,0.008069862611591816,-0.008920496329665184,0.0018383387941867113,-8.311074634548277e-05,0.0034945253282785416
0.0030699099879711866,0.008116820827126503,-0.009567667730152607,0.001843267004005611,-8.18510161479935e-05,0.0032787953969091177
0.0029484021943062544,0.008323963731527328,-0.009824652224779129,0.0019614649936556816,-8.062885899562389e-05,0.003475075587630272
0.0031239886302500963,0.00838989857584238,-0.009469578042626381,0.0019458136521279812,-7.944270328152925e-05,0.003715590573847294
0.003344090888276696,0.008049734868109226,-0.009725849144160748,0.001965166302397847,-7.829090463928878e-05,0.0038081032689660788
0.0033884525764733553,0.008221403695642948,-0.00982791930437088,0.0019390212837606668,-7.717206608504057e-05,0.0038284501060843468
0.003633161075413227,0.00821652077138424,-0.008785977959632874,0.0019479218171909451,-7.608473242726177e-05,0.003853030037134886
0.003584305290132761,0.008290872909128666,-0.009674440138041973,0.0019531146390363574,-7.399941387120634e-05,0.003548769047483802
0.003694805083796382,0.00844918005168438,-0.008924024179577827,0.0019325277535244823,-7.299907156266272e-05,0.0037171479780226946
0.0037066724617034197,0.008465329185128212,-0.009652565233409405,0.002164100296795368,-7.202547567430884e-05,0.0037619248032569885
0.0038137328810989857,0.008178911171853542,-0.009435548447072506,0.0020703489426523447,-7.107742567313835e-05,0.0034038450103253126
0.0038562696427106857,0.008244880475103855,-0.009693358093500137,0.0022188553120940924,-7.591645407956094e-05,0.003377379849553108
0.0035578375682234764,0.008559031412005424,-0.01007386390119791,0.0020620450377464294,-8.040949614951387e-05,0.003504263935610652
0.003464921610429883,0.008168795146048069,-0.009184576570987701,0.0020300978794693947,-7.974839536473155e-05,0.003749777562916279
0.0036685126833617687,0.008051709271967411,-0.009232944808900356,0.0021954141557216644,-7.877449388615787e-05,0.003733692690730095
0.0037551068235188723,0.007817552424967289,-0.009375948458909988,0.0022263082209974527,-7.780314626870677e-05,0.003525237087160349
0.004316369537264109,0.008846602402627468,-0.010000108741223812,0.0023849818389862776,-7.685418677283451e-05,0.003541146172210574
0.003710593096911907,0.008061890490353107,-0.00954546220600605,0.0020831532310694456,-7.592795736854896e-05,0.003465078305453062
0.00349817774258554,0.007859224453568459,-0.0095524862408638,0.0017879803199321032,-7.502378866774961e-05,0.0035218200646340847
0.0036659901961684227,0.00797153078019619,-0.009516897611320019,0.0016199309611693025,-7.414089486701414e-05,0.004105080384761095
0.003865259699523449,0.008144944906234741,-0.009035659953951836,0.001604225137270987,-7.327848288696259e-05,0.004223788157105446
0.003865259699523449,0.008144944906234741,-0.009035659953951836,0.001604225137270987,-7.327848288696259e-05,0.004223788157105446
0.003392715472728014,0.008117469027638435,-0.009291734546422958,0.001779459766112268,-7.161257963161916e-05,0.003822569502517581
0.00356497336179018,0.008258217945694923,-0.009588509798049927,0.0018252346199005842,-7.080776413204148e-05,0.0038536079227924347
0.00356497336179018,0.008258217945694923,-0.009588509798049927,0.0018252346199005842,-7.080776413204148e-05,0.0038536079227924347
0.0037491770926862955,0.007723895832896233,-0.00940831657499075,0.001742126070894301,-7.002073107287288e-05,0.0034507017116993666
0.0036847323644906282,0.0078333280980587,-0.00964009016752243,0.0018627014942467213,-1.779315607564058e-05,0.003546455642208457
0.0035462400410324335,0.007615190930664539,-0.0090347183868289,0.0017828168347477913,-1.161765908364032e-06,0.0036761779338121414
0.0035938420332968235,0.008137392811477184,-0.008985349908471107,0.0019706902094185352,-7.585502004303635e-08,0.004151611588895321
0.003701054258272052,0.008243340998888016,-0.009372528642416,0.0020236505661159754,-4.952790622070324e-09,0.004196730442345142
0.003750127973034978,0.007747602183371782,-0.00908259954303503,0.002059664111584425,-3.233818490766538e-10,0.003674193751066923
0.003791199065744877,0.007636519148945808,-0.008914211764931679,0.0019500270718708634,-2.1114525058929523e-11,0.0035135746002197266
0.0038850910495966673,0.008041981607675552,-0.00957438163459301,0.0019494050648063421,-1.3786275723445818e-12,0.003242339240387082
0.004271659068763256,0.007806952577084303,-0.009876344352960587,0.0018847198225557804,-9.001452334162982e-14,0.003509333124384284
0.003935540094971657,0.0076167699880898,-0.008377301506698132,0.002046868670731783,-5.877305393531046e-15,0.004263133741915226
0.003712831065058708,0.008460618555545807,-0.009115640074014664,0.00214556185528636,-3.8374605329207423e-16,0.004466239828616381
0.004033360630273819,0.007797108963131905,-0.00927030947059393,0.002171559492126107,-2.505587481757632e-17,0.004340813495218754
0.0035812382120639086,0.007954428903758526,-0.009067420847713947,0.0020682704634964466,-1.0681712183437707e-19,0.004140201956033707
0.0035756807774305344,0.007803098764270544,-0.008989238180220127,0.0018756608478724957,-6.97439514516716e-21,0.003881102195009589
0.004242165945470333,0.007505740039050579,-0.008851531893014908,0.0017343194922432303,-4.553781743140178e-22,0.0034978389739990234
0.004154569935053587,0.006922189611941576,-0.009108317084610462,0.0016788255888968706,-2.973294060146705e-23,0.003565389895811677
0.00385840330272913,0.0071789780631661415,-0.009089869447052479,0.0019002630142495036,-6.300034146988764e-05,0.0038266037590801716
0.0037541009951382875,0.007854776456952095,-0.00880475528538227,0.002059818711131811,-7.151869795052335e-05,0.003764842404052615
0.004174210596829653,0.006948387250304222,-0.009413918480277061,0.0021206738892942667,-7.10117383277975e-05,0.00412035221233964
0.004169052932411432,0.0065698157995939255,-0.009262905456125736,0.002116417046636343,-6.994857540121302e-05,0.004072988871484995
0.004030073992908001,0.0068556033074855804,-0.009555092081427574,0.0020454127807170153,-6.88805230311118e-05,0.003908164333552122
0.003984041512012482,0.007295798975974321,-0.008524561300873756,0.0019323771120980382,-6.784225843148306e-05,0.004036712925881147
0.003981426358222961,0.007275519426912069,-0.009398296475410461,0.0019006263464689255,-6.683461833745241e-05,0.0039162966422736645
0.004269266966730356,0.007092519663274288,-0.008988738059997559,0.0019023745553568006,-6.585651863133535e-05,0.003848322434350848
0.004007246345281601,0.006880642846226692,-0.008594196289777756,0.0018899788847193122,-6.490670784842223e-05,0.0037684685084968805
0.0038420946802943945,0.007626309059560299,-0.009335491806268692,0.0019367679487913847,-6.398380355676636e-05,0.003504600841552019
0.004273291677236557,0.006966324057430029,-0.009605614468455315,0.0019195610657334328,-6.93033798597753e-05,0.0035617901012301445
0.004273291677236557,0.006966324057430029,-0.009605614468455315,0.0019195610657334328,-6.93033798597753e-05,0.0035617901012301445
0.0044665089808404446,0.0064696972258389,-0.008714273571968079,0.0019219077657908201,-7.423958595609292e-05,0.004126647487282753
0.004338416736572981,0.006561621557921171,-0.009171215817332268,0.0019061879720538855,-7.361214375123382e-05,0.004495983012020588
0.004053113516420126,0.006689988076686859,-0.00977320410311222,0.0018883380107581615,-7.264696614583954e-05,0.0041146306321024895
0.004396968521177769,0.006745076272636652,-0.009517677128314972,0.001865840284153819,-7.16842187102884e-05,0.004117743577808142
0.004110653884708881,0.00668474892154336,-0.009585009887814522,0.0018674657912924886,-7.07451908965595e-05,0.004231387749314308
0.004275612998753786,0.006455406080931425,-0.009807662107050419,0.001937010558322072,-6.983036291785538e-05,0.004057061858475208
0.004517372697591782,0.006775612942874432,-0.009598555974662304,0.0022555349860340357,-6.893886893521994e-05,0.004146397113800049
0.004146061837673187,0.006895685102790594,-0.009451151825487614,0.0021542890463024378,-6.806982128182426e-05,0.004289574921131134
0.004491348285228014,0.0067811389453709126,-0.009339618496596813,0.0022702005226165056,-6.722255056956783e-05,0.0041184695437550545
0.004669786896556616,0.006604068912565708,-0.009140211157500744,0.0020770905539393425,-6.639598723268136e-05,0.0038800088223069906
0.004651471972465515,0.00727958744391799,-0.009876799769699574,0.0018996717408299446,-6.480246520368382e-05,0.004025285132229328
0.00469371909275651,0.007499264553189278,-0.00959959626197815,0.0020301262848079205,-6.403400766430423e-05,0.00392500264570117
0.004835824947804213,0.007001285441219807,-0.009941686876118183,0.0021245258394628763,-6.328360177576542e-05,0.0037766839377582073
0.004664245061576366,0.007176504470407963,-0.009849438443779945,0.0021948448847979307,-6.255054904613644e-05,0.003769256640225649
0.004793365020304918,0.007482632994651794,-0.009278029203414917,0.0026762704364955425,-6.183436926221475e-05,0.0041936421766877174
0.004886326380074024,0.0076755015179514885,-0.009073903784155846,0.00269298511557281,-7.065045792842284e-05,0.004522733390331268
0.004708539694547653,0.007499064318835735,-0.009930645115673542,0.002533344551920891,-7.04810008755885e-05,0.0042359610088169575
0.005064191296696663,0.007277335040271282,-0.009719029068946838,0.002351948292925954,-6.974134157644585e-05,0.003993535414338112
0.004913982003927231,0.007264477666467428,-0.009581701830029488,0.0021045487374067307,-8.983702173281927e-06,0.003914093133062124
0.0048683262430131435,0.007513721473515034,-0.010399100370705128,0.0021085499320179224,-5.865716161679302e-07,0.004364174325019121
0.004793819971382618,0.007340709678828716,-0.00959105510264635,0.0024007007014006376,-3.829893557849573e-08,0.004173864144831896
0.005268692970275879,0.007406067568808794,-0.010365528985857964,0.0024029880296438932,-2.5006465786958643e-09,0.004341173451393843
0.005035154987126589,0.007509834598749876,-0.010334298945963383,0.002464178716763854,-1.6327436624941072e-10,0.005081901326775551
0.004837271757423878,0.007663414813578129,-0.010074424557387829,0.0022388678044080734,-1.0660649446547765e-11,0.004404861945658922
0.004705027677118778,0.007573353126645088,-0.009692293591797352,0.002207225188612938,-6.960641915285115e-13,0.003888846607878804
0.004640069790184498,0.006922711152583361,-0.010530215688049793,0.002304743742570281,-4.544802034711637e-14,0.004263758659362793
0.004640069790184498,0.006922711152583361,-0.010530215688049793,0.002304743742570281,-4.544802034711637e-14,0.004263758659362793
0.005663454532623291,0.007669397629797459,-0.009406336583197117,0.002468066057190299,-1.9375205012551257e-16,0.00463986536487937
0.005663454532623291,0.007669397629797459,-0.009406336583197117,0.002468066057190299,-1.9375205012551257e-16,0.00463986536487937
0.00535241374745965,0.007479204796254635,-0.01057681255042553,0.0025702491402626038,-1.2650624010061413e-17,0.0048450203612446785
0.004549146164208651,0.006813699845224619,-0.009563487023115158,0.0024199606850743294,-8.259953144340275e-19,0.004864004906266928
0.00500750495120883,0.006900835316628218,-0.00946847628802061,0.0024872717913240194,-5.3931591095914935e-20,0.004780042450875044
0.00488672498613596,0.007284270133823156,-0.01098705269396305,0.0022971443831920624,-3.521347449523019e-21,0.004862673580646515
0.005093230400234461,0.007334099616855383,-0.009882930666208267,0.0024671226274222136,-2.2991884983727043e-22,0.0050993412733078
0.005716249346733093,0.006682876963168383,-0.009382566437125206,0.0027018235996365547,-1.5012056158513874e-23,0.00454752566292882
0.0052016619592905045,0.0067452616058290005,-0.009735850617289543,0.002548209624364972,-9.801799879054166e-25,0.004564238712191582
0.004841824062168598,0.007264815270900726,-0.009577144868671894,0.002680211327970028,-6.3998750659601e-26,0.004613681696355343
0.005083772353827953,0.007487200666218996,-0.009832835756242275,0.002586648566648364,-4.17866131138782e-27,0.004674108233302832
0.00498260697349906,0.006972713861614466,-0.009695583954453468,0.002402439946308732,-2.7283672112687194e-28,0.004735549446195364
0.005676276981830597,0.007092694751918316,-0.009688863530755043,0.0024534473195672035,-1.1631457356471253e-30,0.004487137775868177
0.005157722160220146,0.00747285969555378,-0.010361871682107449,0.002405193168669939,-7.594510474885799e-32,0.004348480608314276
0.005248910281807184,0.007139638066291809,-0.009655608795583248,0.0024281598161906004,-4.958672308730121e-33,0.004781724419444799
0.005120718851685524,0.007084231358021498,-0.009597993455827236,0.0023871639277786016,-3.2376588099287974e-34,0.00491308281198144
0.004984455648809671,0.007327485829591751,-0.010476477444171906,0.0022596349008381367,-2.113959994624135e-35,0.004682077560573816
0.005717324558645487,0.0074679674580693245,-0.00988655537366867,0.0022162741515785456,-1.3802649071129753e-36,0.004737012088298798
0.005431936588138342,0.006844311486929655,-0.009897503070533276,0.0022434191778302193,-9.01214278764291e-38,0.004811373073607683
0.005302141420543194,0.0065744356252253056,-0.010316380299627781,0.0027346427086740732,-5.884284867244985e-39,0.004799815360456705
0.005023926962167025,0.007151080761104822,-0.010111350566148758,0.0031216167844831944,-3.8420240775472105e-40,0.004449718166142702
0.005306287202984095,0.007727393880486488,-0.009717989712953568,0.0030980422161519527,-2.5086045108342875e-41,0.0044408878311514854
0.005533935502171516,0.007065256126224995,-0.00970480591058731,0.0029910083394497633,-1.638117904795711e-42,0.004478278569877148
0.005760967265814543,0.0066332523711025715,-0.009526651352643967,0.0027897069230675697,-1.064986832886861e-43,0.00445128558203578
0.005831544287502766,0.006592107471078634,-0.00948377326130867,0.002924497239291668,-7.006492321624085e-45,0.004785988479852676
0.005643490701913834,0.006999313365668058,-0.010234620422124863,0.0027355109341442585,-0.0,0.004929760470986366
0.005643490701913834,0.006999313365668058,-0.010234620422124863,0.0027355109341442585,-0.0,0.004929760470986366
0.005148472264409065,0.006953245494514704,-0.009942346252501011,0.0027732725720852613,-4.75800916319713e-05,0.004992334172129631
0.005148472264409065,0.006953245494514704,-0.009942346252501011,0.0027732725720852613,-4.75800916319713e-05,0.004992334172129631
0.005349832586944103,0.006823160219937563,-0.009926202706992626,0.003064581658691168,-6.552759441547096e-05,0.004979095421731472
0.005556304939091206,0.007355555426329374,-0.009917334653437138,0.0031021314207464457,-6.57866257824935e-05,0.004789016675204039
0.0056084985844790936,0.007796829100698233,-0.009906160645186901,0.002675318857654929,-6.491707608802244e-05,0.004803500138223171
0.005476772785186768,0.007074078544974327,-0.010160448960959911,0.002602222142741084,-6.399902486009523e-05,0.004671473987400532
0.0055813174694776535,0.006391191389411688,-0.010157032869756222,0.0026321352925151587,-6.310192839009687e-05,0.005428850185126066
0.005322986748069525,0.006511196028441191,-0.010335594415664673,0.002760079223662615,-6.222933006938547e-05,0.005380379036068916
0.006081918720155954,0.007247042376548052,-0.010580500587821007,0.002941977232694626,-6.138053140603006e-05,0.005024344194680452
0.005495056044310331,0.0070197866298258305,-0.00963250920176506,0.0030137193389236927,-6.055454650777392e-05,0.005049204919487238
0.005385965574532747,0.0067762709222733974,-0.009817996993660927,0.0029382023494690657,-5.975051681161858e-05,0.004892715718597174
0.005587797146290541,0.006321537774056196,-0.010210164822638035,0.002850542077794671,-5.896756556467153e-05,0.004818279761821032
0.005751524120569229,0.006855723913758993,-0.00944715179502964,0.0026488385628908873,-5.746163515141234e-05,0.005405467469245195
0.005620128475129604,0.006625502370297909,-0.009892272762954235,0.00285085360519588,-5.6737142585916445e-05,0.005349155515432358
0.005818985868245363,0.006404075771570206,-0.009917019866406918,0.002681186655536294,-5.603069075732492e-05,0.005297778639942408
0.005493407137691975,0.0063378349877893925,-0.010045789182186127,0.002808754798024893,-5.5341635743388906e-05,0.005103384144604206
0.005834782961755991,0.007029332220554352,-0.010117894038558006,0.003043262753635645,-5.466931906994432e-05,0.0054041538387537
0.005513699259608984,0.006920645013451576,-0.009634426794946194,0.0034685952123254538,-5.401313319453038e-05,0.005361645482480526
0.005935584660619497,0.0065769930370152,-0.010035748593509197,0.00352030573412776,-5.337250331649557e-05,0.005187469068914652
0.005632375832647085,0.0063419826328754425,-0.009938487783074379,0.0034145014360547066,-5.274689829093404e-05,0.00504396203905344
0.005986456759274006,0.00674993684515357,-0.00979374349117279,0.0031764949671924114,-5.213579788687639e-05,0.004972164984792471
0.006068693473935127,0.0068218642845749855,-0.009947970509529114,0.003074785228818655,-5.15386818733532e-05,0.005185930989682674
0.005787977017462254,0.006865581497550011,-0.00968958716839552,0.003198553342372179,-5.0955091865034774e-05,0.005545531865209341
0.006338810082525015,0.00701533630490303,-0.009641771204769611,0.003282525110989809,-5.0384580390527844e-05,0.006021511275321245
0.006723760161548853,0.006908826529979706,-0.010436827316880226,0.0034112376160919666,-4.9826689064502716e-05,0.005635709036141634
0.006723760161548853,0.006908826529979706,-0.010436827316880226,0.0034112376160919666,-4.9826689064502716e-05,0.005635709036141634
0.006011011078953743,0.007187414914369583,-0.009889301843941212,0.00323312496766448,-6.4182681853708345e-06,0.005117887165397406
0.006379264406859875,0.006675046402961016,-0.009827611036598682,0.003068589372560382,-4.1906702108462923e-07,0.005224394146353006
0.006164990831166506,0.006359986029565334,-0.010055468417704105,0.003340757917612791,-2.736208060127865e-08,0.0052917273715138435
0.006081221159547567,0.00680576404556632,-0.010064033791422844,0.0031735908705741167,-1.7865484647217045e-09,0.0055289966985583305
0.006501926574856043,0.007117646746337414,-0.009761258028447628,0.003358423011377454,-1.166488433623769e-10,0.0053465827368199825
0.006765870843082666,0.007351444568485022,-0.010412768460810184,0.0034977528266608715,-7.616336381022215e-12,0.005356892477720976
0.006262078881263733,0.006974759511649609,-0.00974205881357193,0.0034265073481947184,-4.972923114965333e-13,0.005276723764836788
0.0064368159510195255,0.006401684135198593,-0.00950255524367094,0.003503062529489398,-3.246963583961905e-14,0.00509746465831995
0.006362228188663721,0.0066657355055212975,-0.010249252431094646,0.0036895691882818937,-2.1200351637927625e-15,0.005289256572723389
0.006472704000771046,0.006893358658999205,-0.010442039929330349,0.0038028378039598465,-1.3842314332681243e-16,0.005396505817770958
0.006499354727566242,0.0069624073803424835,-0.009496357291936874,0.0036163763143122196,-9.038041724911622e-18,0.005832496099174023
0.00635028351098299,0.006804108619689941,-0.009677947498857975,0.0034676252398639917,-5.901195411869149e-19,0.005688927602022886
0.0066628167405724525,0.007496384903788567,-0.009439889341592789,0.0036020809784531593,-3.8530589920602875e-20,0.0055860369466245174
0.006661010440438986,0.006923998240381479,-0.009433506056666374,0.0037949795369058847,-2.5157718881100414e-21,0.0052901930175721645
0.006524927914142609,0.006660100072622299,-0.01004899013787508,0.0031950061675161123,-1.072513119747051e-23,0.0061524054035544395
0.006684664636850357,0.0069251107051968575,-0.009681235067546368,0.003114948747679591,-7.002744386664407e-25,0.0060696848668158054
0.0067664822563529015,0.007557816803455353,-0.010202426463365555,0.003182539250701666,-4.572291732699427e-26,0.0055905417539179325
0.006751400418579578,0.0070889899507164955,-0.009946783073246479,0.0034544779919087887,-2.9853795771557822e-27,0.0055084070190787315
0.006694369949400425,0.006670758128166199,-0.010200157761573792,0.0037124783266335726,-1.9492394745041546e-28,0.00550602562725544
0.006755741313099861,0.0067726909182965755,-0.01011890359222889,0.0036093469243496656,-1.2727142411720168e-29,0.006068925838917494
0.00688996072858572,0.006921448744833469,-0.010036948136985302,0.0034189713187515736,-8.309913750708671e-31,0.006236723158508539
0.006929970812052488,0.007009195629507303,-0.010325480252504349,0.0031558871269226074,-5.425780409094693e-32,0.005992596503347158
0.006891267839819193,0.00674542086198926,-0.010424436070024967,0.0034549874253571033,-3.542646834474638e-33,0.005567642860114574
0.007271384354680777,0.007187327370047569,-0.010265677236020565,0.003310941159725189,-2.3130955392198647e-34,0.005698960740119219
0.007873105816543102,0.007016314659267664,-0.009940973483026028,0.003435156075283885,-1.510285961305866e-35,0.006096515338867903
0.006826248485594988,0.007309407461434603,-0.010624314658343792,0.003496193327009678,-9.861087512649113e-37,0.006225752178579569
0.0065358965657651424,0.006724695209413767,-0.009765996597707272,0.0035505269188433886,-6.438584729870852e-38,0.005640522111207247
0.0066721634939312935,0.006651585455983877,-0.01024587918072939,0.003449134062975645,-4.2039360306299166e-39,0.0058645871467888355
0.007153666112571955,0.006676384713500738,-0.01094877440482378,0.003570890985429287,-2.7448634319194517e-40,0.0055856965482234955
0.007271019741892815,0.007112313061952591,-0.009895562194287777,0.0034886091016232967,-1.792260735871441e-41,0.005866446066647768
0.00690365768969059,0.007329933345317841,-0.010086951777338982,0.0034455261193215847,-1.1700842177112223e-42,0.00605801260098815
0.00690365768969059,0.007329933345317841,-0.010086951777338982,0.0034455261193215847,-1.1700842177112223e-42,0.00605801260098815
0.006592666730284691,0.006868696305900812,-0.010095905512571335,0.0036036246456205845,-7.707141553786494e-44,0.0060597974807024
0.006679821759462357,0.007396541070193052,-0.010068146511912346,0.004242598544806242,-5.605193857299268e-45,0.006135519128292799
0.0072486684657633305,0.007133543957024813,-0.010907260701060295,0.0036597352009266615,-0.0,0.005973740015178919
0.0068964227102696896,0.006791388615965843,-0.010487762279808521,0.0035820964258164167,-0.0,0.006329453084617853
0.006840026006102562,0.006449646316468716,-0.009656217880547047,0.0037655800115317106,-0.0,0.0065038008615374565
0.007064234931021929,0.00683063268661499,-0.01056698989123106,0.0039013659115880728,-0.0,0.0064559211023151875
0.007640725467354059,0.006841769441962242,-0.010764699429273605,0.0038925528060644865,-0.0,0.007205824833363295
0.0075555420480668545,0.006905990187078714,-0.01060427539050579,0.0034841711167246103,-0.0,0.0070983488112688065
0.0073780482634902,0.0066480254754424095,-0.010710296221077442,0.003470087656751275,-0.0,0.006063349079340696
0.007243834435939789,0.006577842403203249,-0.01048570591956377,0.003715322818607092,-0.0,0.0057268934324383736
0.007697456981986761,0.006887523457407951,-0.010443379171192646,0.003865860402584076,-0.0,0.006055181380361319
0.00742390425875783,0.006976855918765068,-0.010778347961604595,0.0035505827981978655,-0.0,0.0065083554945886135
0.007231306284666061,0.00738265598192811,-0.010703837499022484,0.0033824138808995485,-0.0,0.006841795053333044
0.007881419733166695,0.006529834121465683,-0.011324618011713028,0.0037393339443951845,-0.0,0.006416022311896086
0.00766123179346323,0.006919006817042828,-0.011302811093628407,0.004264085087925196,-0.0,0.006588553544133902
0.007703719194978476,0.007311027962714434,-0.011600847356021404,0.0042270878329873085,-0.0,0.006504371762275696
0.007618970237672329,0.006343744229525328,-0.010553054511547089,0.003635631874203682,-0.0,0.007230611052364111
0.008329559117555618,0.006039555184543133,-0.01075685117393732,0.0033341115340590477,-0.0,0.007199883460998535
0.007895912043750286,0.0066305361688137054,-0.011800263077020645,0.003153557889163494,-0.0,0.006594291888177395
0.008120069280266762,0.006949547678232193,-0.010493450798094273,0.003524955827742815,-0.0,0.0062599484808743
0.007941734977066517,0.0063040778040885925,-0.010740643367171288,0.0040756831876933575,-0.0,0.006230411119759083
0.007824706844985485,0.0063417269848287106,-0.010608918964862823,0.004384082276374102,-0.0,0.0068541779182851315
0.008124619722366333,0.006579156965017319,-0.010313072241842747,0.004229639656841755,-0.0,0.006752640474587679
0.007848869077861309,0.0062717776745557785,-0.011570882983505726,0.003969983197748661,-0.0,0.006812854669988155
0.009025229141116142,0.006755446549504995,-0.010889637283980846,0.0038163166027516127,-0.0,0.007171740755438805
0.008093265816569328,0.006811088416725397,-0.010378144681453705,0.004345630295574665,-0.0,0.0075711035169661045
0.008093265816569328,0.006811088416725397,-0.010378144681453705,0.004345630295574665,-0.0,0.0075711035169661045
0.00826529785990715,0.0064424192532896996,-0.010972858406603336,0.004178301431238651,-0.0,0.007507335860282183
0.007913936860859394,0.006220306269824505,-0.010374522767961025,0.003965802025049925,-0.0,0.007341133896261454
0.008378388360142708,0.006769273430109024,-0.010765316896140575,0.004344161134213209,-0.0,0.007399256806820631
0.008758398704230785,0.006755189038813114,-0.010870605707168579,0.004167512059211731,-0.0,0.007450470235198736
0.008498524315655231,0.0067099216394126415,-0.01029890961945057,0.00407011155039072,-0.0,0.007340379059314728
0.007905135862529278,0.006718124262988567,-0.010762710124254227,0.004116801545023918,-0.0,0.0073627810925245285
0.008291656151413918,0.006392824929207563,-0.010528724640607834,0.004465548787266016,-0.0,0.007024988066405058
0.008144024759531021,0.006891393568366766,-0.0097673824056983,0.004755116533488035,-0.0,0.0072040557861328125
0.008736821822822094,0.00671149417757988,-0.011034756898880005,0.004786461126059294,-0.0,0.007502156775444746
0.008824360556900501,0.006747362669557333,-0.011003873310983181,0.004316074773669243,-0.0,0.00758475111797452
0.008894521743059158,0.006772802677005529,-0.010743905790150166,0.004238139372318983,-0.0,0.007004673592746258
0.008485352620482445,0.006734203081578016,-0.010437050834298134,0.004170517902821302,-0.0,0.006870668847113848
0.008615012280642986,0.0067390757612884045,-0.010054893791675568,0.004451933316886425,-0.0,0.006815521977841854
0.00866757333278656,0.006432262249290943,-0.011322291567921638,0.004728496074676514,-0.0,0.007355184759944677
0.008278106339275837,0.007301558740437031,-0.011142090894281864,0.004323763307183981,-0.0,0.00766143249347806
0.009063584730029106,0.007037955801934004,-0.011259973980486393,0.004477872047573328,-0.0,0.007460448890924454
0.00910928100347519,0.0066039906814694405,-0.010582111775875092,0.004951223731040955,-0.0,0.007261891383677721
0.009095895104110241,0.0066381520591676235,-0.010129391215741634,0.005057220347225666,-0.0,0.007203147746622562
0.008441293612122536,0.0070327348075807095,-0.010760116390883923,0.00450070109218359,-0.0,0.007779899053275585
0.008674885146319866,0.006970543880015612,-0.01078939437866211,0.004203976597636938,-0.0,0.007587192114442587
0.008959278464317322,0.007188983261585236,-0.01118524745106697,0.003985388670116663,-0.0,0.007441981695592403
0.008818545378744602,0.006571406964212656,-0.011257334612309933,0.003925283905118704,-0.0,0.006949775852262974
0.009796826168894768,0.006432636175304651,-0.010500541888177395,0.00449284166097641,-0.0,0.007399890571832657
0.00861817505210638,0.0069371904246509075,-0.011241449043154716,0.004898030776530504,-0.0,0.0077341655269265175
0.008505132980644703,0.007074415218085051,-0.010438437573611736,0.0048134056851267815,-0.0,0.007834305986762047
0.009036073461174965,0.0068070366978645325,-0.010340046137571335,0.004335531033575535,-0.0,0.008113199844956398
0.009274053387343884,0.006335691548883915,-0.011271665804088116,0.004310960415750742,-0.0,0.008239466696977615
0.00923844613134861,0.006445030216127634,-0.01101808063685894,0.0045982408337295055,-0.0,0.00800243578851223
0.00923844613134861,0.006445030216127634,-0.01101808063685894,0.0045982408337295055,-0.0,0.00800243578851223
0.008721286430954933,0.006909355521202087,-0.011163954623043537,0.0048421635292470455,-0.0,0.00770861329510808
0.008934516459703445,0.006311450153589249,-0.01020400132983923,0.005044669844210148,-0.0,0.008141224272549152
0.008934516459703445,0.006311450153589249,-0.01020400132983923,0.005044669844210148,-0.0,0.008141224272549152
0.010075277648866177,0.006403638515621424,-0.010834874585270882,0.0048874844796955585,-0.0,0.00824461318552494
0.009803112596273422,0.006922587752342224,-0.01094906311482191,0.00470582814887166,-0.0,0.00796718429774046
0.009216740727424622,0.006961561739444733,-0.011302382685244083,0.004529754631221294,-0.0,0.00829204823821783
0.009100241586565971,0.006582996807992458,-0.0115610770881176,0.004666476044803858,-0.0,0.008006199263036251
0.00957702286541462,0.006518700160086155,-0.011597985401749611,0.00484020821750164,-0.0,0.008432023227214813
0.009617066942155361,0.00672899279743433,-0.011500712484121323,0.004912360105663538,-0.0,0.008471108041703701
0.009156106039881706,0.007242685649544001,-0.011110112071037292,0.00502939336001873,-0.0,0.008608825504779816
0.00932210125029087,0.0067394752986729145,-0.011145366355776787,0.004905651789158583,-0.0,0.007995999418199062
0.009738152846693993,0.00714941555634141,-0.011028573848307133,0.004847564734518528,-0.0,0.008718827739357948
0.00971443671733141,0.007066707592457533,-0.01075625792145729,0.004931689705699682,-0.0,0.008645802736282349
0.009430077858269215,0.006751012057065964,-0.01088453084230423,0.005050310865044594,-0.0,0.008754073642194271
0.009224021807312965,0.006496762856841087,-0.010863426141440868,0.005157759878784418,-0.0,0.008598467335104942
0.00988207757472992,0.0065759457647800446,-0.011371143162250519,0.0050423042848706245,-0.0,0.008664706721901894
0.009783389046788216,0.006503883749246597,-0.011505112051963806,0.0051476117223501205,-0.0,0.009788503870368004
0.009553151205182076,0.006583648733794689,-0.01059261430054903,0.005552247632294893,-0.0,0.008605596609413624
0.009711472317576408,0.0062415506690740585,-0.011985035613179207,0.0051923166029155254,-0.0,0.008526436053216457
0.00967455841600895,0.006529519334435463,-0.011213765479624271,0.004989580251276493,-0.0,0.008727679960429668
0.009229120798408985,0.00659387931227684,-0.010760948061943054,0.005498340819031,-0.0,0.009511523880064487
0.009909886866807938,0.007263563107699156,-0.011191259138286114,0.005764045286923647,-0.0,0.008856142871081829
0.01006243098527193,0.006696874741464853,-0.01086539775133133,0.0051200492307543755,-0.0,0.009164231829345226
0.010135263204574585,0.006430845241993666,-0.011484247632324696,0.006075678393244743,-0.0,0.009005846455693245
0.00989337358623743,0.00659810658544302,-0.011503919959068298,0.005957555025815964,-0.0,0.009289595298469067
0.009641645476222038,0.007208343129605055,-0.010812582448124886,0.005603694822639227,-0.0,0.00907862838357687
0.010057680308818817,0.007038211915642023,-0.011714396998286247,0.005185484420508146,-0.0,0.009188825264573097
0.010317604057490826,0.006435622461140156,-0.010927658528089523,0.00505842687562108,-0.0,0.009118808433413506
0.010317604057490826,0.006435622461140156,-0.010927658528089523,0.00505842687562108,-0.0,0.009118808433413506
0.010146520100533962,0.006198014132678509,-0.010861804708838463,0.00577242998406291,-0.0,0.009888137690722942
0.009566783905029297,0.006583511363714933,-0.011908854357898235,0.0054589202627539635,-0.0,0.009791779331862926
0.010552221909165382,0.0068521020002663136,-0.011175058782100677,0.0049658468924462795,-0.0,0.009497599676251411
0.009936523623764515,0.006679443642497063,-0.01163816824555397,0.005231075920164585,-0.0,0.010177312418818474
0.009695041924715042,0.006497700233012438,-0.011130663566291332,0.005170650314539671,-1.6764679457992315e-05,0.009299228899180889
0.01008208654820919,0.00659556221216917,-0.011018742807209492,0.005730034317821264,-1.0946138218059787e-06,0.009542417712509632
0.010537086054682732,0.006527392193675041,-0.011462175287306309,0.005647021811455488,-7.147045977262678e-08,0.009269136935472488
0.009947998449206352,0.006425214931368828,-0.011395882815122604,0.005822581239044666,-4.666510289297321e-09,0.009540684521198273
0.01024739071726799,0.006580116227269173,-0.011383607052266598,0.0050228009931743145,-1.9894062092129516e-11,0.009648296050727367
0.009941881522536278,0.006685529835522175,-0.011395745910704136,0.005405115429311991,-1.2989400137095042e-12,0.010111960582435131
0.009755287319421768,0.006627475842833519,-0.011333904229104519,0.006009240169078112,-8.481149810224409e-14,0.009466624818742275
0.010234438814222813,0.0066231791861355305,-0.01095367968082428,0.005539282690733671,-5.537585042342816e-15,0.009558712132275105
0.010022958740592003,0.006403155624866486,-0.01203886792063713,0.00571593688800931,-3.6156474856276666e-16,0.009798589162528515
0.010034679435193539,0.006554607301950455,-0.011931642889976501,0.0053972904570400715,-2.3607594061559276e-17,0.010162247344851494
0.009930364787578583,0.006156254094094038,-0.011431807652115822,0.004988277330994606,-1.5414072309201018e-18,0.009881514124572277
0.009844782762229443,0.006312591023743153,-0.011802616529166698,0.0056174201890826225,-1.0064288418356788e-19,0.01005062647163868
0.01048247143626213,0.00614128727465868,-0.011445734649896622,0.005849027540534735,-6.5712609188212e-21,0.009329648688435555
0.00967973843216896,0.006144081708043814,-0.012533963657915592,0.006016456056386232,-4.290564228834639e-22,0.009642764925956726
0.010390517301857471,0.006353106815367937,-0.011745044961571693,0.005480867810547352,-2.801431561157807e-23,0.010577933862805367
0.010168055072426796,0.0067821890115737915,-0.011607488617300987,0.0056048547849059105,-1.8291347391643547e-24,0.009590616449713707
0.010285559110343456,0.006472187582403421,-0.01232097391039133,0.005803462117910385,-1.1942942418261207e-25,0.009693148545920849
0.010583337396383286,0.006230314262211323,-0.011737660504877567,0.006357982754707336,-7.797887736993768e-27,0.010364030487835407
0.010474306531250477,0.006318711210042238,-0.01182710099965334,0.006265014875680208,-5.091463512249928e-28,0.010170204564929008
0.009971389546990395,0.006566004361957312,-0.011399301700294018,0.005862546619027853,-3.324361820554837e-29,0.010592668317258358
0.010585302487015724,0.0072323172353208065,-0.011658038012683392,0.005749985110014677,-0.00018898892449215055,0.00983021967113018
0.010673681274056435,0.0063240136951208115,-0.01249005738645792,0.005670081824064255,-0.00020352825231384486,0.009930792264640331
0.010673681274056435,0.0063240136951208115,-0.01249005738645792,0.005670081824064255,-0.00020352825231384486,0.009930792264640331
0.010009076446294785,0.0058587039820849895,-0.011966048739850521,0.006022102665156126,-0.00019616434292402118,0.009873115457594395
0.010271106846630573,0.005318034440279007,-0.013101729564368725,0.006464129779487848,-0.00018806327716447413,0.00997024867683649
0.010523911565542221,0.005293217487633228,-0.012091676704585552,0.00651008915156126,-0.00018052388622891158,0.009817673824727535
0.01044507697224617,0.005233230069279671,-0.012210953049361706,0.005878113210201263,-0.0001735604600980878,0.010397269390523434
0.01040809415280819,0.006014102604240179,-0.012104449793696404,0.006338773760944605,-0.00019826980133075267,0.010956424288451672
0.010195652022957802,0.005565407685935497,-0.011821641586720943,0.006646598689258099,-0.00019320723367854953,0.010473720729351044
0.009931890293955803,0.005917049944400787,-0.012927169911563396,0.006170769687741995,-0.00018666031246539205,0.010671678930521011
0.010849847458302975,0.005553910508751869,-0.012059482745826244,0.00611229008063674,-0.00019517219334375113,0.010086885653436184
0.010561197996139526,0.005418057553470135,-0.01216974575072527,0.005787194240838289,-0.00019725099264178425,0.010545818135142326
0.010856072418391705,0.005437060259282589,-0.012430134229362011,0.006608298979699612,-0.00019131966109853238,0.010708906687796116
0.012000421062111855,0.0054511502385139465,-0.012565801851451397,0.0064170784316957,-0.00018568384984973818,0.010465883649885654
0.013173766434192657,0.005673675332218409,-0.012565789744257927,0.0063131703063845634,-0.00018036770052276552,0.010740773752331734
0.013072150759398937,0.005418775137513876,-0.012859499081969261,0.005737641826272011,-0.00017534698417875916,0.009768904186785221
0.012743586674332619,0.005799713544547558,-0.012485279701650143,0.006047515664249659,-0.000170598563272506,0.010091028176248074
0.012650886550545692,0.0051702591590583324,-0.013019725680351257,0.006392957177013159,-0.0001661003625486046,0.010648873634636402
0.0126038221642375,0.005249672569334507,-0.0127514423802495,0.006244148127734661,-0.00018190724949818105,0.010192377492785454
0.013043601997196674,0.0055036768317222595,-0.012716559693217278,0.00610847445204854,-0.00018012122018262744,0.01035443414002657
0.012630568817257881,0.005459644366055727,-0.012299180030822754,0.005749651696532965,-0.00017590112111065537,0.010676144622266293
0.01305348053574562,0.005933999549597502,-0.012602254748344421,0.006300817243754864,-0.0001717176055535674,0.010757654905319214
0.012378723360598087,0.005299100652337074,-0.01293143816292286,0.006577615160495043,-0.0001677183754509315,0.011032662354409695
0.01288864016532898,0.005123041104525328,-0.012772224843502045,0.006355911027640104,-0.00016390015662182122,0.010443043895065784
0.01277095265686512,0.0053961146622896194,-0.013522275723516941,0.006140086334198713,-0.00016025218064896762,0.010323217138648033
0.01299302838742733,0.005650072358548641,-0.012661936692893505,0.006211176980286837,-0.00015676283510401845,0.010686678811907768
0.012917019426822662,0.005559061653912067,-0.012608063407242298,0.006717178039252758,-0.00016721745487302542,0.010612459853291512
0.01322215050458908,0.005689497105777264,-0.012138848192989826,0.007318646181374788,-0.0001632638304727152,0.010850934311747551
0.01322215050458908,0.005689497105777264,-0.012138848192989826,0.007318646181374788,-0.0001632638304727152,0.010850934311747551
0.011558855883777142,0.005536106415092945,-0.012591791339218616,0.007030970882624388,-0.0001576806971570477,0.010723087005317211
0.013316145166754723,0.005545956548303366,-0.012694703415036201,0.006328744348138571,-0.00015235059254337102,0.010763099417090416
0.013625374995172024,0.005280000623315573,-0.012636646628379822,0.006457960233092308,-0.0001473614975111559,0.01062405202537775
0.012774290516972542,0.005823193583637476,-0.012576964683830738,0.0064835986122488976,-0.00016381675959564745,0.011583111248910427
0.012911655008792877,0.006069481372833252,-0.012160129845142365,0.006976987235248089,-0.0001654791849432513,0.011540806852281094
0.012619548477232456,0.005899622105062008,-0.012395679019391537,0.006848383694887161,-0.0001609826722415164,0.011279098689556122
0.012995592318475246,0.005151496734470129,-0.01208599004894495,0.006789764389395714,-0.00015634973533451557,0.011022288352251053
0.013028616085648537,0.005563435144722462,-0.012844088487327099,0.006792015861719847,-0.00015195150626823306,0.010980207473039627
0.01330245565623045,0.005385952536016703,-0.012711266055703163,0.00670939264819026,-0.0001707715418888256,0.010757953859865665
0.013584847562015057,0.005965129937976599,-0.012734559364616871,0.0063208951614797115,-0.00016346905613318086,0.011276152916252613
0.013584847562015057,0.005965129937976599,-0.012734559364616871,0.0063208951614797115,-0.00016346905613318086,0.011276152916252613
0.013457514345645905,0.005328441504389048,-0.012493390589952469,0.006518875248730183,-0.00015541007451247424,0.011465475894510746
0.01386974100023508,0.006058852653950453,-0.012885790318250656,0.006587882060557604,-0.00015166873345151544,0.01143475528806448
0.013454356230795383,0.00585724413394928,-0.012952675111591816,0.006620002444833517,-0.00014810303400736302,0.011157317087054253
0.013812670484185219,0.00607624277472496,-0.012666985392570496,0.006853376515209675,-0.00016265574959106743,0.011874399147927761
0.013515251688659191,0.005971631035208702,-0.012409882619976997,0.007255158852785826,-0.0001614820066606626,0.011542514897882938
0.013573757372796535,0.0053157503716647625,-0.012566075660288334,0.007040026132017374,-0.00015809800243005157,0.011472940444946289
0.013107585720717907,0.00533407973125577,-0.011918391101062298,0.007064097095280886,-0.0001547109568491578,0.011243914254009724
0.013415691442787647,0.005698250140994787,-0.012303214520215988,0.006975631695240736,-0.00017833990568760782,0.011500779539346695
0.01279138121753931,0.006079430691897869,-0.012000299990177155,0.0072294920682907104,-0.0001964309485629201,0.011868498288094997
0.013395140878856182,0.0059684026055037975,-0.012697587721049786,0.007459789048880339,-0.00018983511836268008,0.011643683537840843
0.013303332030773163,0.00586260762065649,-0.012549650855362415,0.007397593930363655,-0.00018225629173684865,0.012119345366954803
0.013303332030773163,0.00586260762065649,-0.012549650855362415,0.007397593930363655,-0.00018225629173684865,0.012119345366954803
0.013629874214529991,0.005606680642813444,-0.01235554926097393,0.006831528153270483,-0.0001923154923133552,0.01227363757789135
0.013526678085327148,0.006085253786295652,-0.012417648918926716,0.007318617310374975,-0.0002011563628911972,0.011937174014747143
0.01361415721476078,0.006666095461696386,-0.012684750370681286,0.008079302497208118,-0.0001949403085745871,0.012193155474960804
0.013564775697886944,0.006610275711864233,-0.012904830276966095,0.008128933608531952,-0.00018821313278749585,0.012013214640319347
0.013614633120596409,0.006194327026605606,-0.012715279124677181,0.008021465502679348,-0.00020426709670573473,0.011923792771995068
0.013614633120596409,0.006194327026605606,-0.012715279124677181,0.008021465502679348,-0.00020426709670573473,0.011923792771995068
0.013654784299433231,0.00663600442931056,-0.012461400590837002,0.008180001750588417,-0.00019873239216394722,0.011554161086678505
0.014007859863340855,0.006460087839514017,-0.012716964818537235,0.007671215105801821,-0.0001927117700688541,0.013400731608271599
0.013720722869038582,0.006287305615842342,-0.012707152403891087,0.007336420007050037,-0.0002001026732614264,0.011870778165757656
0.014149138703942299,0.006279232446104288,-0.012722272425889969,0.007295435760170221,-0.0002066599699901417,0.011622197926044464
0.014288817532360554,0.006501914467662573,-0.012138728983700275,0.0072969249449670315,-0.00019680782861541957,0.012229707092046738
0.014059534296393394,0.0067976671271026134,-0.012729114852845669,0.007420462090522051,-0.000274626916507259,0.012244858779013157
0.01409307774156332,0.006495497189462185,-0.012286185286939144,0.007960784249007702,-0.00029015299514867365,0.012035176157951355
0.013306679204106331,0.006103288847953081,-0.013097858987748623,0.007844838313758373,-0.00029829921550117433,0.012820854783058167
0.013978341594338417,0.0061591556295752525,-0.012515400536358356,0.007545168977230787,-0.0003191256255377084,0.012809529900550842
0.013660440221428871,0.006570357363671064,-0.012648331001400948,0.007813017815351486,-0.000314265867928043,0.01280863769352436
0.014255311340093613,0.006455207709223032,-0.01267812866717577,0.0077878497540950775,-0.0003399481938686222,0.013244003057479858
0.013853805139660835,0.006031983066350222,-0.012410617433488369,0.0076744044199585915,-0.00047540856758132577,0.013056781142950058
0.014131096191704273,0.006054545287042856,-0.012539338320493698,0.006931163836270571,-0.0005551350768655539,0.012705148197710514
0.014231270179152489,0.006415592506527901,-0.012297417968511581,0.0073448242619633675,-0.0005504947621375322,0.012677078135311604
0.015058680437505245,0.006678084842860699,-0.013152948580682278,0.007651259191334248,-0.0005393261089920998,0.012928640469908714
0.014411152340471745,0.006456984207034111,-0.013238093815743923,0.007813338190317154,-0.0004929275019094348,0.012637409381568432
0.014718501828610897,0.0068081337958574295,-0.012702642008662224,0.007447604555636644,-0.0004518278583418578,0.012689446099102497
0.014434471726417542,0.006189330480992794,-0.01312342844903469,0.006948950234800577,-0.0004768804647028446,0.012624425813555717
0.01480894535779953,0.006441129837185144,-0.012833983637392521,0.007616941351443529,-0.0004509013087954372,0.012967634946107864
0.014464219100773335,0.006555452942848206,-0.013286364264786243,0.007717067841440439,-0.00042126700282096863,0.012949681840837002
0.014464219100773335,0.006555452942848206,-0.013286364264786243,0.007717067841440439,-0.00042126700282096863,0.012949681840837002
0.014756494201719761,0.006213936023414135,-0.012852893210947514,0.00739245256409049,-0.0004223183204885572,0.013300989754498005
0.014890993945300579,0.006116173230111599,-0.013325830921530724,0.007541202008724213,-0.00042277295142412186,0.013415176421403885
0.01554589718580246,0.006072906777262688,-0.012582323513925076,0.008163880556821823,-0.00040088064270094037,0.013348407112061977
0.015121228992938995,0.0067793321795761585,-0.013336630538105965,0.007843327708542347,-0.0003747744485735893,0.013398393988609314
0.015240948647260666,0.006279586348682642,-0.011995765380561352,0.00820214208215475,-0.0003463476023171097,0.013276850804686546
0.01481014583259821,0.005923129618167877,-0.013721452094614506,0.008398828096687794,-0.0003688817087095231,0.013419220224022865
0.01505333837121725,0.006045244634151459,-0.01356983557343483,0.008389257825911045,-0.000359057798050344,0.012985526584088802
0.014834421686828136,0.00608180882409215,-0.013507057912647724,0.008268223144114017,-0.0003375680244062096,0.013318022713065147
0.015320196747779846,0.0062887161038815975,-0.01317968126386404,0.008663388900458813,-0.00036355751217342913,0.01296602189540863
0.015579735860228539,0.006077410187572241,-0.013705910183489323,0.008592591620981693,-0.0003316397196613252,0.013422797434031963
0.015374615788459778,0.005902039352804422,-0.012983442284166813,0.007869893684983253,-0.0003540456818882376,0.013087183237075806
0.015075174160301685,0.005837786477059126,-0.01354284305125475,0.008030891418457031,-0.0003425379691179842,0.013017694465816021
0.015818268060684204,0.005326139274984598,-0.013474858365952969,0.008148717693984509,-0.00037342493305914104,0.013130995444953442
0.0155155835673213,0.00520616490393877,-0.013554171659052372,0.007757470943033695,-0.0003854729002341628,0.013076690956950188
0.016166917979717255,0.005396089516580105,-0.01304091326892376,0.007997107692062855,-0.00042421117541380227,0.012971335090696812
0.015640955418348312,0.005173999350517988,-0.013700281269848347,0.008490344509482384,-0.0003974962164647877,0.013240309432148933
0.01612221635878086,0.005660847760736942,-0.01328255608677864,0.008394359610974789,-0.0004279263084754348,0.013139620423316956
0.015699388459324837,0.005874047055840492,-0.013803765177726746,0.008246936835348606,-0.00043231481686234474,0.013525469228625298
0.016177590936422348,0.005734627600759268,-0.013160829432308674,0.008610287681221962,-0.00043242861283943057,0.013761243782937527
0.015766557306051254,0.005105964839458466,-0.013508736155927181,0.008658695966005325,-0.0005910128238610923,0.014625050127506256
0.015791617333889008,0.0051825870759785175,-0.013177395798265934,0.008348589763045311,-0.0006412866059690714,0.013078686781227589
0.01623203232884407,0.005166338291019201,-0.013910085894167423,0.008564598858356476,-0.0005861836252734065,0.013345816172659397
0.01623203232884407,0.005166338291019201,-0.013910085894167423,0.008564598858356476,-0.0005861836252734065,0.013345816172659397
0.01654781587421894,0.005723337177187204,-0.013774660415947437,0.00825528148561716,-0.0006114540155977011,0.013772213831543922
0.016840655356645584,0.005393411964178085,-0.013799729757010937,0.008068875409662724,-0.0006010479410178959,0.014257838018238544
0.01581498421728611,0.00536130229011178,-0.014108780771493912,0.007921546697616577,-0.000587526592426002,0.014274670742452145
0.016500843688845634,0.005046459846198559,-0.013673045672476292,0.007833616808056831,-0.0006036692066118121,0.01453287061303854
0.01650487631559372,0.004945038352161646,-0.01381843350827694,0.008619903586804867,-0.0005855307681486011,0.01441559661179781
0.016683276742696762,0.005131471436470747,-0.013761966489255428,0.008798167109489441,-0.0006111406837590039,0.014468185603618622
0.01678348146378994,0.005429700016975403,-0.014108720235526562,0.008745905943214893,-0.0005600686999969184,0.014239374548196793
0.016559859737753868,0.0050998106598854065,-0.013421006500720978,0.008692966774106026,-0.0005810341099277139,0.01427345722913742
0.017195671796798706,0.005221828818321228,-0.013906463980674744,0.00880827009677887,-0.0006077588768675923,0.014239673502743244
0.01707352139055729,0.004994560033082962,-0.013454207219183445,0.008352240547537804,-0.0005740906926803291,0.014390582218766212
0.0170173030346632,0.0054565719328820705,-0.013424687087535858,0.009124848060309887,-0.0005625892663374543,0.01430485025048256
0.016650304198265076,0.005214853677898645,-0.014045861549675465,0.009197160601615906,-0.0005005003768019378,0.01409839652478695
0.017139224335551262,0.005323889199644327,-0.013470517471432686,0.008486579172313213,-0.0004503645177464932,0.014430733397603035
0.01714353822171688,0.00524138705804944,-0.013899937272071838,0.008901278488337994,-0.0004093438619747758,0.014214102178812027
0.017582321539521217,0.005559336394071579,-0.013459286652505398,0.008856266736984253,-0.0004114642215427011,0.014205321669578552
0.01774940825998783,0.005288465414196253,-0.013920677825808525,0.008393440395593643,-0.00041300716111436486,0.014106722548604012
0.017060719430446625,0.005446567200124264,-0.013411108404397964,0.008743229322135448,-0.00038565933937206864,0.014314481988549232
0.017701752483844757,0.005613037385046482,-0.014027823694050312,0.008567647077143192,-0.0003600688942242414,0.01466703787446022
0.01744828373193741,0.005333814769983292,-0.013837729580700397,0.00869846437126398,-0.00033755708136595786,0.014720633625984192
0.017728343605995178,0.005244126543402672,-0.014411907643079758,0.009132950566709042,-0.0003176888858433813,0.014649844728410244
0.01803683303296566,0.004999721422791481,-0.013969740830361843,0.009273320436477661,-0.0003000310680363327,0.01491240132600069
0.017579611390829086,0.005269103683531284,-0.013999289833009243,0.00912883598357439,-0.0002842327521648258,0.014826505444943905
0.01781458966434002,0.005528831388801336,-0.013904125429689884,0.009298451244831085,-0.00027001494891010225,0.015072910115122795
0.017891690135002136,0.005414512939751148,-0.01423108484596014,0.009378591552376747,-0.0002571523655205965,0.015029575675725937
0.017891690135002136,0.005414512939751148,-0.01423108484596014,0.009378591552376747,-0.0002571523655205965,0.015029575675725937
0.018118057399988174,0.00515324342995882,-0.014124291948974133,0.00929486658424139,-0.00028090362320654094,0.015413874760270119
0.01824893057346344,0.004916957579553127,-0.01434238813817501,0.009022919461131096,-0.00027355982456356287,0.015271737240254879
0.01801585592329502,0.00525997718796134,-0.013821717351675034,0.009297349490225315,-0.00026247749337926507,0.015749966725707054
0.01822373829782009,0.005411826074123383,-0.014071897603571415,0.009123132564127445,-0.00025200058007612824,0.015229027718305588
0.01852831058204174,0.005250799935311079,-0.014126884751021862,0.00984907429665327,-0.00024230804410763085,0.015030093491077423
0.018074166029691696,0.005238195415586233,-0.014219239354133606,0.009853437542915344,-0.00023332968703471124,0.014847123064100742
0.018445132300257683,0.0050056506879627705,-0.014159777201712132,0.00933766644448042,-0.00022499513579532504,0.015278499573469162
0.0181258674710989,0.005288273561745882,-0.013634182512760162,0.009246060624718666,-0.00021723928512074053,0.015144440345466137
0.01805095560848713,0.0054869381710886955,-0.01426976639777422,0.00940895825624466,-0.00020999465778004378,0.01543465442955494
0.018488116562366486,0.005493371747434139,-0.014025277458131313,0.009159340523183346,-0.00020321927149780095,0.01611638255417347
0.018561556935310364,0.0053269690833985806,-0.014161303639411926,0.009477486833930016,-0.0001909047132357955,0.014958929270505905
0.019345398992300034,0.0057666366919875145,-0.01442001387476921,0.009722781367599964,-0.00018528920190874487,0.015817096456885338
0.018555959686636925,0.005517286714166403,-0.014391849748790264,0.009476953186094761,-0.00017999355623032898,0.015865463763475418
0.018906762823462486,0.005778533406555653,-0.014520484954118729,0.010600372217595577,-0.00017499286332167685,0.015836572274565697
0.018338551744818687,0.005578370299190283,-0.014038898050785065,0.010200939141213894,-0.0001929565769387409,0.01621044985949993
0.01680118963122368,0.005829694215208292,-0.0145003292709589,0.009529177099466324,-0.00018936142441816628,0.016133978962898254
0.019910503178834915,0.0054603200405836105,-0.01395608764141798,0.009235786274075508,-0.00018460277351550758,0.016403205692768097
0.01960783079266548,0.005690951365977526,-0.014304359443485737,0.01002754271030426,-0.0001799939782358706,0.01635788194835186
0.019057538360357285,0.005786113906651735,-0.014224739745259285,0.009944788180291653,-0.00017560443666297942,0.016309991478919983
0.018691644072532654,0.005741388536989689,-0.014485924504697323,0.009930499829351902,-0.00017142163414973766,0.015724847093224525
0.019501229748129845,0.005529852584004402,-0.01455089170485735,0.00980644766241312,-0.00013353701797313988,0.015441885218024254
0.019317712634801865,0.005664174910634756,-0.014357859268784523,0.009492252953350544,-0.00011933426139876246,0.01587466523051262
0.019483938813209534,0.0055754599161446095,-0.014022227376699448,0.009983949363231659,-0.00011557239486137405,0.01598699390888214
0.019354116171598434,0.005594947375357151,-0.014651664532721043,0.009962827898561954,-0.0001126341157942079,0.01635332591831684
0.019328847527503967,0.005862180143594742,-0.014043513685464859,0.009242497384548187,-0.00013038575707469136,0.01638561300933361
0.019302507862448692,0.005888163577765226,-0.014486322179436684,0.009838991798460484,-0.0001286175538552925,0.016030294820666313
0.019376927986741066,0.005488054361194372,-0.014334176667034626,0.00971211027354002,-0.0001452625438105315,0.01609845831990242
0.019242096692323685,0.00562551012262702,-0.014872413128614426,0.009556981734931469,-0.00014324075891636312,0.01681201532483101
0.019242096692323685,0.00562551012262702,-0.014872413128614426,0.009556981734931469,-0.00014324075891636312,0.01681201532483101
0.019670646637678146,0.005600124131888151,-0.014719812199473381,0.010295606218278408,-0.000149979954585433,0.016985584050416946
0.020126307383179665,0.0056760855950415134,-0.015437452122569084,0.010204517282545567,-0.0001560142554808408,0.016871578991413116
0.020037395879626274,0.006191179156303406,-0.015306977555155754,0.010303996503353119,-0.000360192934749648,0.01701582595705986
0.01993337646126747,0.005858205258846283,-0.015091737732291222,0.01087109837681055,-0.00043288865708746016,0.016396012157201767
0.019925575703382492,0.005675638094544411,-0.015496992506086826,0.010234377346932888,-0.00043717079097405076,0.016359616070985794
0.01989065483212471,0.005340891424566507,-0.015352672897279263,0.009826100431382656,-0.0004067963163834065,0.016115667298436165
0.019809000194072723,0.00579172745347023,-0.01581454463303089,0.010843345895409584,-0.00043708240264095366,0.01650521531701088
0.020508810877799988,0.005902017466723919,-0.015814898535609245,0.010465512983500957,-0.000455668632639572,0.016758548095822334
0.020566362887620926,0.005983461160212755,-0.01631915010511875,0.010571670718491077,-0.0004414977738633752,0.016392996534705162
0.020127499476075172,0.005507547874003649,-0.015515027567744255,0.01030799187719822,-0.0005886233993805945,0.01691327430307865
0.020011184737086296,0.005905824713408947,-0.016353869810700417,0.009874185547232628,-0.0006235178443603218,0.01655389927327633
0.020643260329961777,0.005833737552165985,-0.0159202478826046,0.011001470498740673,-0.0005913237109780312,0.01717430353164673
0.020485205575823784,0.005616271868348122,-0.015542621724307537,0.010233508422970772,-0.0005587451159954071,0.017388558015227318
0.0211021825671196,0.005616805516183376,-0.015765992924571037,0.009887227788567543,-0.0005499401013366878,0.017550744116306305
0.02130906470119953,0.005598198622465134,-0.0165611170232296,0.010080583393573761,-0.0005410778103396297,0.017120415344834328
0.020708931609988213,0.005786511115729809,-0.015954915434122086,0.010522236116230488,-0.0005072089843451977,0.018177872523665428
0.020779283717274666,0.00571703864261508,-0.016559956595301628,0.011092936620116234,-0.0005177607527002692,0.016945527866482735
0.0212889164686203,0.005662256386131048,-0.015616224147379398,0.011175569146871567,-0.0004683497245423496,0.017174065113067627
0.021259944885969162,0.005234750919044018,-0.01632116362452507,0.011009815149009228,-0.00042441723053343594,0.017496315762400627
0.02080027014017105,0.0052572027780115604,-0.015967469662427902,0.01110540609806776,-0.00045465913717634976,0.017388222739100456
0.021318035200238228,0.0051701865158975124,-0.016243010759353638,0.010369976051151752,-0.000462278607301414,0.01769273355603218
0.021354345604777336,0.005824241787195206,-0.015989743173122406,0.010642899200320244,-0.0004606057773344219,0.017764508724212646
0.021484553813934326,0.00583243602886796,-0.01607028767466545,0.010898809880018234,-0.00043117065797559917,0.017844408750534058
0.021185992285609245,0.005661695264279842,-0.016504978761076927,0.010723304934799671,-0.0004573117766994983,0.018159104511141777
0.021629180759191513,0.005194630473852158,-0.016220584511756897,0.010382432490587234,-0.00048510104534216225,0.017888301983475685
0.021669387817382812,0.005709324963390827,-0.01670963130891323,0.010572993196547031,-0.00045552171650342643,0.01789078675210476
0.021845491603016853,0.005548650864511728,-0.016141030937433243,0.010194594040513039,-0.0004862266650889069,0.018077950924634933
0.021615276113152504,0.005814481992274523,-0.016778001561760902,0.011462577618658543,-0.00045502057764679193,0.01799788884818554
0.021710796281695366,0.0059963008388876915,-0.01648363098502159,0.011154524981975555,-0.0004853115533478558,0.017985787242650986
0.021710796281695366,0.0059963008388876915,-0.01648363098502159,0.011154524981975555,-0.0004853115533478558,0.017985787242650986
0.022316480055451393,0.005765808746218681,-0.01641877181828022,0.011215373873710632,-0.00045456006773747504,0.01796705089509487
0.022168094292283058,0.0053934380412101746,-0.016393445432186127,0.011776955798268318,-0.0004765730700455606,0.01797429285943508
0.021759891882538795,0.005716313142329454,-0.015962133184075356,0.011312253773212433,-0.00045369495637714863,0.01833472214639187
0.02175801433622837,0.005910239648073912,-0.016755614429712296,0.011403598822653294,-0.000427231629146263,0.017977746203541756
0.021235734224319458,0.006254927720874548,-0.015801221132278442,0.01105356216430664,-0.00044144390267319977,0.018068727105855942
0.022295605391263962,0.005787041038274765,-0.016719425097107887,0.011176262982189655,-0.00043545622611418366,0.01837673783302307
0.022713996469974518,0.00513576390221715,-0.016960158944129944,0.011731050908565521,-0.00046802873839624226,0.01892205700278282
0.022567834705114365,0.005221060011535883,-0.016729874536395073,0.01127639040350914,-0.0004394313436932862,0.019149547442793846
0.022757485508918762,0.004963600542396307,-0.016419271007180214,0.011992388404905796,-0.00046995296725071967,0.01884290762245655
0.023342981934547424,0.005200005602091551,-0.016162507236003876,0.012039786204695702,-0.00044117728248238564,0.01821344904601574
0.021822821348905563,0.005043232813477516,-0.016478070989251137,0.011961757205426693,-0.0004414882860146463,0.018517380580306053
0.022313028573989868,0.004802454262971878,-0.01651235669851303,0.011824163608253002,-0.0005264605861157179,0.018914036452770233
0.023318970575928688,0.005019503179937601,-0.01634524203836918,0.012210218235850334,-0.00048713386058807373,0.019523972645401955
0.023030031472444534,0.005224687047302723,-0.01689835824072361,0.012014967389404774,-0.0005163762252777815,0.019874747842550278
0.022340519353747368,0.005179136525839567,-0.016752103343605995,0.01107510644942522,-0.0004807417863048613,0.018976952880620956
0.023016169667243958,0.005307352170348167,-0.015980925410985947,0.011630778200924397,-0.00044202967546880245,0.0191471129655838
0.023654907941818237,0.005016438663005829,-0.016689034178853035,0.010763857513666153,-0.0004673699731938541,0.01915036328136921
0.02336972951889038,0.004748211707919836,-0.016661688685417175,0.011782796122133732,-0.00044253491796553135,0.019628718495368958
0.02327427826821804,0.004799240734428167,-0.016996975988149643,0.011620743200182915,-0.00046507202205248177,0.01960132084786892
0.022909536957740784,0.005155402235686779,-0.016992157325148582,0.011727356351912022,-0.0004434304137248546,0.019416259601712227
0.022708212956786156,0.0051942504942417145,-0.016661817207932472,0.012146946974098682,-0.00044328521471470594,0.018521694466471672
0.022934066131711006,0.005248778034001589,-0.01731153018772602,0.011852264404296875,-0.00042691369890235364,0.018929535523056984
0.023393819108605385,0.00496702641248703,-0.016598744317889214,0.011840352788567543,-0.0003914308617822826,0.01827295497059822
0.023569194599986076,0.0046957447193562984,-0.016976650804281235,0.012125639244914055,-0.0004130410961806774,0.018382349982857704
0.02360803261399269,0.004781294148415327,-0.016679177060723305,0.01256684958934784,-0.0003989168908447027,0.019584445282816887
0.02324840985238552,0.005179193802177906,-0.016723111271858215,0.012129757553339005,-0.0004026064998470247,0.019983839243650436
0.023128030821681023,0.0050192102789878845,-0.017183324322104454,0.011649143882095814,-0.0004044786037411541,0.019927354529500008
0.023879367858171463,0.005008630454540253,-0.016798166558146477,0.012083081528544426,-0.0003817727556452155,0.019982239231467247
0.023879367858171463,0.005008630454540253,-0.016798166558146477,0.012083081528544426,-0.0003817727556452155,0.019982239231467247
0.024242160841822624,0.0047323377802968025,-0.01708422787487507,0.01206276472657919,-0.00036006205482408404,0.020122863352298737
0.023963993415236473,0.004641976673156023,-0.01686791703104973,0.0124840522184968,-0.00034059511381201446,0.019597047939896584
0.0237698033452034,0.004573725163936615,-0.017133671790361404,0.012222228571772575,-0.0003231216105632484,0.019701147451996803
0.023389065638184547,0.004633151926100254,-0.016981733962893486,0.012199838645756245,-0.00034824528847821057,0.01962205208837986
0.023393064737319946,0.005211170297116041,-0.01637258194386959,0.012427511624991894,-0.0003347192541696131,0.01952175982296467
0.02400018274784088,0.005077064502984285,-0.01676858589053154,0.012063222005963326,-0.0003200141654815525,0.019715936854481697
0.024001669138669968,0.00485233822837472,-0.0166328027844429,0.012464377097785473,-0.00030640338081866503,0.020330021157860756
0.02404041402041912,0.004732052329927683,-0.0173178743571043,0.011992688290774822,-0.0002938942052423954,0.02036942169070244
0.02417333982884884,0.004806982818990946,-0.017971472814679146,0.01194054540246725,-0.00027896289248019457,0.020215779542922974
0.024072961881756783,0.005118089262396097,-0.016994748264551163,0.012702057138085365,-0.00026274265837855637,0.020544415339827538
0.025420136749744415,0.00535399466753006,-0.017325978726148605,0.012591970153152943,-0.00023526375298388302,0.020011693239212036
0.02491110935807228,0.005227295681834221,-0.017582286149263382,0.01219866331666708,-0.00026521284598857164,0.020331399515271187
0.024320142343640327,0.005062247160822153,-0.017344534397125244,0.012111359275877476,-0.00025538256159052253,0.02067459188401699
0.02467408962547779,0.0046812137588858604,-0.0168140921741724,0.011987784877419472,-0.0002440173557261005,0.020377079024910927
0.024379992857575417,0.004917281214147806,-0.017758389934897423,0.01239082869142294,-0.0002671935362741351,0.0204622820019722
0.023850902915000916,0.005046526435762644,-0.017583107575774193,0.012826318852603436,-0.00026075902860611677,0.020856840535998344
0.025150274857878685,0.005244109779596329,-0.01747976429760456,0.012678763829171658,-0.0002840634260792285,0.020657174289226532
0.02548113837838173,0.005530071910470724,-0.01792696863412857,0.013179576955735683,-0.0002753934822976589,0.0206892229616642
0.025638341903686523,0.005251958966255188,-0.017364025115966797,0.01273176446557045,-0.0003676276537589729,0.020951692014932632
0.02446599304676056,0.004804251249879599,-0.01838594116270542,0.013104747049510479,-0.000415128655731678,0.02097717672586441
0.02463938482105732,0.0048812385648489,-0.017822185531258583,0.012759288772940636,-0.0003941548930015415,0.020533956587314606
0.024952761828899384,0.005243637599050999,-0.017697006464004517,0.012907318770885468,-0.00042086950270459056,0.020631562918424606
0.025404565036296844,0.005180130712687969,-0.018104061484336853,0.013009513728320599,-0.00040131970308721066,0.020482879132032394
0.0244811549782753,0.005236910656094551,-0.01709837093949318,0.01274820975959301,-0.00041747145587578416,0.020539935678243637
0.02514627017080784,0.005049768835306168,-0.017800088971853256,0.012802662327885628,-0.00040636028279550374,0.020680047571659088
0.026080334559082985,0.004802207928150892,-0.01768900826573372,0.012776981107890606,-0.0005284174112603068,0.021139487624168396
0.026080334559082985,0.004802207928150892,-0.01768900826573372,0.012776981107890606,-0.0005284174112603068,0.021139487624168396
0.02607213333249092,0.005318853538483381,-0.01800346188247204,0.01292711403220892,-0.0006013824022375047,0.02155090495944023
0.02607213333249092,0.005318853538483381,-0.01800346188247204,0.01292711403220892,-0.0006013824022375047,0.02155090495944023
0.025308381766080856,0.005055623594671488,-0.017602812498807907,0.01355081144720316,-0.000587321410421282,0.02111150696873665
0.025630682706832886,0.005224334076046944,-0.018074415624141693,0.013465836644172668,-0.0006062033935450017,0.02113526500761509
0.026023058220744133,0.005177455488592386,-0.01792791113257408,0.013768736273050308,-0.0005727809038944542,0.0215944554656744
0.026569275185465813,0.004912511445581913,-0.017549043521285057,0.013227099552750587,-0.000686010520439595,0.02126889117062092
0.026117471978068352,0.004868001211434603,-0.018003931269049644,0.013563217595219612,-0.0007107316632755101,0.02153204008936882
0.026283632963895798,0.00513490941375494,-0.017721781507134438,0.013442832976579666,-0.0006411337526515126,0.02185637690126896
0.026508193463087082,0.005181196145713329,-0.01806217059493065,0.013526895083487034,-0.0006560851470567286,0.022210441529750824
0.02657231315970421,0.004991327878087759,-0.017669325694441795,0.013638203963637352,-0.0006199831841513515,0.02120649628341198
0.02657231315970421,0.004991327878087759,-0.017669325694441795,0.013638203963637352,-0.0006199831841513515,0.02120649628341198
0.026844840496778488,0.004951190203428268,-0.0180528424680233,0.014019817113876343,-0.0005607912316918373,0.023012464866042137
0.02713254652917385,0.004984937142580748,-0.017357366159558296,0.014076878316700459,-0.0005497941165231168,0.022045914083719254
0.02704489976167679,0.004838289227336645,-0.018062617629766464,0.013812577351927757,-0.0005383357056416571,0.020762834697961807
0.027624601498246193,0.004600081127136946,-0.018499089404940605,0.01363347563892603,-0.000562747532967478,0.021258467808365822
0.027400681748986244,0.0045837052166461945,-0.0181045513600111,0.013209366239607334,-0.0005619219737127423,0.022147631272673607
0.027380624786019325,0.005030103027820587,-0.018024222925305367,0.013388006016612053,-0.0005525053129531443,0.022748809307813644
0.027196863666176796,0.004637223202735186,-0.017483677715063095,0.012993009760975838,-0.0006175855523906648,0.022148840129375458
0.027451641857624054,0.00451114634051919,-0.018142029643058777,0.01343243382871151,-0.0006736528594046831,0.022387316450476646
0.027762729674577713,0.005121947731822729,-0.018248168751597404,0.013188542798161507,-0.0007007436943240464,0.023220302537083626
0.027355406433343887,0.004976391792297363,-0.017508545890450478,0.013450674712657928,-0.0007093021995387971,0.02360794134438038
0.027726149186491966,0.004553609061986208,-0.01817903108894825,0.013457744382321835,-0.0006652111187577248,0.022290796041488647
0.028024999424815178,0.004639483988285065,-0.01779422163963318,0.014035720378160477,-0.0007864398648962379,0.02167106419801712
0.027225567027926445,0.004950089380145073,-0.018218033015727997,0.013558466918766499,-0.000694677815772593,0.02167678065598011
0.02781052328646183,0.004884493071585894,-0.018672211095690727,0.013534635305404663,-0.0006032540113665164,0.022602543234825134
0.02807561866939068,0.005314227193593979,-0.017808670178055763,0.013653216883540154,-0.0006304054986685514,0.023643989115953445
0.02820759080350399,0.005048444494605064,-0.018176814541220665,0.013618266209959984,-0.0006159035838209093,0.023368244990706444
0.028583763167262077,0.004886634647846222,-0.018047235906124115,0.013552727177739143,-0.0005988399498164654,0.023374054580926895
0.02844969369471073,0.005040362942963839,-0.01805110275745392,0.013516572304069996,-0.0006169483531266451,0.02359560877084732
0.02851307950913906,0.005403045564889908,-0.01849835179746151,0.013899501413106918,-0.0005768619594164193,0.023337626829743385
0.02851307950913906,0.005403045564889908,-0.01849835179746151,0.013899501413106918,-0.0005768619594164193,0.023337626829743385
0.028614912182092667,0.004998054355382919,-0.01896609365940094,0.014233951456844807,-0.000523944094311446,0.023216500878334045
0.028623254969716072,0.004812235478311777,-0.018436281010508537,0.014333847910165787,-0.0005382081144489348,0.023275544866919518
0.028677290305495262,0.00469420850276947,-0.01886855438351631,0.013331090100109577,-0.0005085892626084387,0.023264219984412193
0.029182296246290207,0.004684535786509514,-0.018514255061745644,0.01396085973829031,-0.0005381723749451339,0.023592760786414146
0.030205538496375084,0.004547884687781334,-0.017885351553559303,0.013909546658396721,-0.0005618950235657394,0.023339493200182915
0.029676729813218117,0.004894393030554056,-0.01871557906270027,0.013837249018251896,-0.0006463243043981493,0.023484839126467705
0.027734670788049698,0.004801605362445116,-0.018733669072389603,0.013065015897154808,-0.0006622760556638241,0.023623306304216385
0.02971739135682583,0.004881127271801233,-0.019403507933020592,0.013733978383243084,-0.0005835717893205583,0.0234238114207983
0.029243487864732742,0.004357279743999243,-0.01822028122842312,0.01464924681931734,-0.0005312975263223052,0.02351037971675396
0.029953524470329285,0.004423039965331554,-0.019243979826569557,0.014484728686511517,-0.0005026308353990316,0.023757442831993103
0.031169343739748,0.004665525164455175,-0.020157983526587486,0.014618736691772938,-0.0004610423056874424,0.023759614676237106
0.030732357874512672,0.004733783192932606,-0.018887072801589966,0.014038393273949623,-0.0004767926875501871,0.023919176310300827
0.02934897318482399,0.004627921152859926,-0.018550923094153404,0.01444348506629467,-0.0004582326509989798,0.023772316053509712
0.02962980605661869,0.0047097583301365376,-0.01969754323363304,0.014055130071938038,-0.0004809768870472908,0.02386784367263317
0.03094540536403656,0.004720945842564106,-0.01914023794233799,0.014587399549782276,-0.0004576719074975699,0.024057187139987946
0.030990902334451675,0.004760507494211197,-0.01854858547449112,0.01390783116221428,-0.0004054699675180018,0.02376587875187397
0.030905060470104218,0.004337124526500702,-0.019056672230362892,0.014107640832662582,-0.000405579135986045,0.02415124885737896
0.03053884766995907,0.004290182609111071,-0.018998170271515846,0.013854581862688065,-0.00040738764801062644,0.024535661563277245
0.030427120625972748,0.004111841786652803,-0.01907270960509777,0.014740820974111557,-0.00043559938785620034,0.024295911192893982
0.03075895830988884,0.004342263098806143,-0.019067849963903427,0.01411503367125988,-0.0004712000081781298,0.0241007711738348
0.03054383210837841,0.00461761187762022,-0.018385646864771843,0.014554294757544994,-0.0008832114399410784,0.023609472438693047
0.0305816438049078,0.004637592006474733,-0.019152101129293442,0.013979925774037838,-0.0009085396304726601,0.02347744069993496
0.03033643588423729,0.00418218644335866,-0.01963038370013237,0.01451366487890482,-0.0008232798427343369,0.02395026572048664
0.030060403048992157,0.003972705919295549,-0.018734315410256386,0.014634408988058567,-0.0008265135693363845,0.024767179042100906
0.03040597029030323,0.004180477000772953,-0.019192280247807503,0.014017626643180847,-0.0007470841519534588,0.02466268092393875
0.030397063121199608,0.004131590947508812,-0.019492318853735924,0.015389243140816689,-0.0007538497447967529,0.02490917034447193
0.030565278604626656,0.004347745329141617,-0.01863138936460018,0.01620524935424328,-0.0007539708749391139,0.025051962584257126
0.03047976642847061,0.004636380355805159,-0.019475353881716728,0.015868639573454857,-0.0006877086707390845,0.024950291961431503
0.03047976642847061,0.004636380355805159,-0.019475353881716728,0.015868639573454857,-0.0006877086707390845,0.024950291961431503
0.03013443946838379,0.00400507403537631,-0.018856463953852654,0.01540619321167469,-0.000707420811522752,0.024132845923304558
0.03013443946838379,0.00400507403537631,-0.018856463953852654,0.01540619321167469,-0.000707420811522752,0.024132845923304558
0.03188337758183479,0.004318695981055498,-0.019168291240930557,0.015136996284127235,-0.0007468900294043124,0.02398720756173134
0.032368361949920654,0.004093721508979797,-0.019533483311533928,0.015223304741084576,-0.0007852263515815139,0.024525292217731476
0.03185229375958443,0.004243271891027689,-0.018853239715099335,0.015056989155709743,-0.0008091797353699803,0.025541361421346664
0.030697869136929512,0.004640406463295221,-0.019332652911543846,0.015092678368091583,-0.0007997261127457023,0.025664471089839935
0.03215489536523819,0.0046694716438651085,-0.01859903335571289,0.015379182994365692,-0.0009681835654191673,0.02521049603819847
0.03194013610482216,0.004298191983252764,-0.019615311175584793,0.015298694372177124,-0.0008593042148277164,0.02524561434984207
0.0316351018846035,0.004111556336283684,-0.0200534388422966,0.015743793919682503,-0.0008582176524214447,0.0255977101624012
0.03246895223855972,0.004514000378549099,-0.019362879917025566,0.015368510037660599,-0.0008553548250347376,0.02569856308400631
0.03297498822212219,0.004266373813152313,-0.019433580338954926,0.015736792236566544,-0.0008160610450431705,0.025580089539289474
0.03184966370463371,0.004595732782036066,-0.01953052543103695,0.015273239463567734,-0.0007962714298628271,0.02562602236866951
0.03147578611969948,0.004625734873116016,-0.018983077257871628,0.015873130410909653,-0.0007488562259823084,0.02558039128780365
0.03258233517408371,0.004349507391452789,-0.019415132701396942,0.015624109655618668,-0.000755705579649657,0.025699568912386894
0.03262096270918846,0.004019752144813538,-0.019472258165478706,0.015914278104901314,-0.0007579668308608234,0.025815794244408607
0.03228544816374779,0.004065878689289093,-0.019120413810014725,0.015988200902938843,-0.0007063684752210975,0.025724032893776894
0.03253272548317909,0.004104096442461014,-0.01972772739827633,0.016019482165575027,-0.0007005952065810561,0.026302535086870193
0.032243482768535614,0.004398855846375227,-0.019788220524787903,0.016264278441667557,-0.0006857776897959411,0.02533801645040512
0.03235172852873802,0.004680562298744917,-0.01917850784957409,0.01581335999071598,-0.0006566044758073986,0.025680948048830032
0.032955948263406754,0.00446255411952734,-0.01933763548731804,0.016360705718398094,-0.0006794493529014289,0.026122886687517166
0.033014070242643356,0.004387365188449621,-0.020167168229818344,0.01599707640707493,-0.000661415106151253,0.026087947189807892
0.03286558389663696,0.004265643190592527,-0.02004140056669712,0.016100799664855003,-0.0006416646647267044,0.026561306789517403
0.03254549577832222,0.004284332972019911,-0.01950410194694996,0.015660885721445084,-0.0006933645927347243,0.026388512924313545
0.03324916958808899,0.004334562458097935,-0.01970229670405388,0.015823200345039368,-0.0007220823899842799,0.026440734043717384
0.0316319577395916,0.004333027638494968,-0.019739584997296333,0.016063900664448738,-0.000643871957436204,0.02620813623070717
0.0316319577395916,0.004333027638494968,-0.019739584997296333,0.016063900664448738,-0.000643871957436204,0.02620813623070717
0.03360362723469734,0.004545784089714289,-0.019464045763015747,0.01594645157456398,-0.0006645703688263893,0.026238497346639633
0.03391682729125023,0.004741851706057787,-0.020124653354287148,0.016324860975146294,-0.0006481432938016951,0.026123613119125366
0.03343205526471138,0.004322738852351904,-0.0201242845505476,0.016522280871868134,-0.0006295580533333123,0.026439951732754707
0.03316882997751236,0.003994534723460674,-0.019689153879880905,0.01654122769832611,-0.0005811998271383345,0.026669984683394432
0.033658359199762344,0.004208480939269066,-0.020500503480434418,0.01641898788511753,-0.0005658792797476053,0.02673948183655739
0.03372731804847717,0.004593140445649624,-0.02152053453028202,0.01684260182082653,-0.0005632636602967978,0.026657599955797195
0.03381112590432167,0.0047111776657402515,-0.020440297201275826,0.016524633392691612,-0.0005952258943580091,0.02653380110859871
0.034021493047475815,0.004361821338534355,-0.01998239755630493,0.016101738438010216,-0.000602298357989639,0.027216099202632904
0.03376787155866623,0.004162885714322329,-0.02037421055138111,0.015592326410114765,-0.0007616246002726257,0.027248797938227654
0.034069329500198364,0.004150695633143187,-0.020521240308880806,0.016103388741612434,-0.0009087839862331748,0.02723175846040249
0.03444182127714157,0.004509015940129757,-0.02106820046901703,0.015809282660484314,-0.0009160892805084586,0.02634814754128456
0.03457814082503319,0.004629718605428934,-0.02071746066212654,0.01669561304152012,-0.0008636692655272782,0.026426568627357483
0.03386186435818672,0.004844013135880232,-0.019887201488018036,0.016474228352308273,-0.0009834913071244955,0.026730410754680634
0.03437075391411781,0.004660171922296286,-0.020703371614217758,0.01612108387053013,-0.0009638722403906286,0.02687651291489601
0.035450633615255356,0.004826645366847515,-0.02149764634668827,0.015863215550780296,-0.0008346016402356327,0.02681952714920044
0.03493015468120575,0.004334168042987585,-0.021492376923561096,0.015903903171420097,-0.0008113100775517523,0.027913501486182213
0.033627141267061234,0.0044755940325558186,-0.020189054310321808,0.0162708330899477,-0.0007422729977406561,0.028568914160132408
0.03486350178718567,0.00458331685513258,-0.020708849653601646,0.016313686966896057,-0.0007536358316428959,0.0276433527469635
0.03459122031927109,0.004497428424656391,-0.021587654948234558,0.016356488689780235,-0.0006735503557138145,0.026273518800735474
0.035149946808815,0.0042921919375658035,-0.019992148503661156,0.015697168186306953,-0.0005817528581246734,0.027631042525172234
0.035695306956768036,0.0044023143127560616,-0.020187586545944214,0.01637798361480236,-0.0006101030739955604,0.028472064062952995
0.03516960144042969,0.004539290443062782,-0.02168462611734867,0.01551754679530859,-0.000621150596998632,0.028401728719472885
0.03444123640656471,0.004620810970664024,-0.021071357652544975,0.016229385510087013,-0.0006250125588849187,0.027514075860381126
0.03486844152212143,0.004527496639639139,-0.020163562148809433,0.016812080517411232,-0.0006104636704549193,0.02748919650912285
0.03546694666147232,0.004716029390692711,-0.02060552127659321,0.017306584864854813,-0.0008013887563720345,0.027579540386795998
0.034042298793792725,0.004792200867086649,-0.02074570767581463,0.017801161855459213,-0.0008252353291027248,0.02772274613380432
0.034042298793792725,0.004792200867086649,-0.02074570767581463,0.017801161855459213,-0.0008252353291027248,0.02772274613380432
0.03649549186229706,0.004809522069990635,-0.020721303299069405,0.017565717920660973,-0.0008353272569365799,0.02793414331972599
0.03617877885699272,0.004590860102325678,-0.02102537453174591,0.017789460718631744,-0.0007947093108668923,0.028007451444864273
0.035130683332681656,0.0045988610945641994,-0.021569974720478058,0.017926201224327087,-0.0009059120202437043,0.028191475197672844
0.03590460866689682,0.004684885963797569,-0.021359724923968315,0.01748158037662506,-0.0008945255540311337,0.028322333469986916
0.035743266344070435,0.004434367176145315,-0.02064070850610733,0.018094055354595184,-0.0008614805992692709,0.028216509148478508
0.03512873873114586,0.004584052134305239,-0.021063849329948425,0.0185399167239666,-0.000808820768725127,0.028627948835492134
0.0358785055577755,0.004601347725838423,-0.021162455901503563,0.01850910298526287,-0.0008153535309247673,0.028326917439699173
0.036239299923181534,0.004936004988849163,-0.021320348605513573,0.017948754131793976,-0.0008791466825641692,0.028760043904185295
0.035432368516922,0.004509130958467722,-0.02107238955795765,0.017682280391454697,-0.0008258711895905435,0.028835659846663475
0.03645513579249382,0.004294013138860464,-0.021255845203995705,0.018161039799451828,-0.0008307209354825318,0.028704212978482246
0.03779400885105133,0.004887867718935013,-0.02109384350478649,0.01788952387869358,-0.0008937173406593502,0.028924625366926193
0.03587636724114418,0.005017915740609169,-0.020673461258411407,0.018075235188007355,-0.0009250306175090373,0.029041247442364693
0.035602863878011703,0.004925322253257036,-0.021338948979973793,0.017529256641864777,-0.0008079611579887569,0.028821133077144623
0.03708161413669586,0.004693515133112669,-0.021636486053466797,0.017052914947271347,-0.0008122925646603107,0.028523307293653488
0.03682984784245491,0.004616525024175644,-0.021745001897215843,0.01745116151869297,-0.0007257372490130365,0.029264360666275024
0.0379737913608551,0.00470147468149662,-0.021224457770586014,0.01742674969136715,-0.0007310631335712969,0.030070658773183823
0.037551749497652054,0.004813371691852808,-0.021472472697496414,0.01790054328739643,-0.0006734860362485051,0.02979661151766777
0.03614805266261101,0.00510803796350956,-0.020921070128679276,0.017933379858732224,-0.000603752036113292,0.02821221761405468
0.036101341247558594,0.005043147597461939,-0.021252049133181572,0.017607321962714195,-0.0005331279244273901,0.028091348707675934
0.03781949728727341,0.005226567853242159,-0.021182136610150337,0.017863309010863304,-0.0005585728213191032,0.029369210824370384
0.03729752078652382,0.004855083767324686,-0.02139924466609955,0.01742480881512165,-0.0005792769370600581,0.029162175953388214
0.036912959069013596,0.004711087327450514,-0.02190507762134075,0.017480725422501564,-0.0005489389295689762,0.029373975470662117
0.037197574973106384,0.004763081669807434,-0.022270740941166878,0.018064996227622032,-0.0005733029101975262,0.030895870178937912
0.037290655076503754,0.005088260862976313,-0.021332593634724617,0.01843530870974064,-0.0006000154535286129,0.02956157550215721
0.03760017082095146,0.004997580777853727,-0.021581294015049934,0.019190402701497078,-0.0006410466157831252,0.02921735867857933
0.03768710792064667,0.004861197434365749,-0.021208185702562332,0.019552582874894142,-0.0006213202723301947,0.028869472444057465
0.03768710792064667,0.004861197434365749,-0.021208185702562332,0.019552582874894142,-0.0006213202723301947,0.028869472444057465
0.03742869570851326,0.004975747317075729,-0.020610740408301353,0.01894216053187847,-0.0006406649481505156,0.02967800945043564
0.037559621036052704,0.004975919611752033,-0.021526997908949852,0.0188552625477314,-0.0005915709189139307,0.031076256185770035
0.0379931814968586,0.004746697843074799,-0.022321229800581932,0.018524374812841415,-0.0006132338894531131,0.030667217448353767
0.03798479959368706,0.004850255791097879,-0.022225700318813324,0.018226828426122665,-0.0006388566689565778,0.030305489897727966
0.037904512137174606,0.005307178478688002,-0.02162068895995617,0.018799906596541405,-0.0007104051765054464,0.030482612550258636
0.03845776244997978,0.005129109602421522,-0.021561505272984505,0.019445378333330154,-0.000708606734406203,0.030167480930685997
0.03767601400613785,0.0048535726964473724,-0.022410014644265175,0.019140835851430893,-0.0007522647501900792,0.030033189803361893
0.0382305309176445,0.0047124275006353855,-0.021975543349981308,0.01881638914346695,-0.000872382428497076,0.03033495880663395
0.0383845791220665,0.004531174432486296,-0.021752910688519478,0.01821386255323887,-0.0008717388263903558,0.030553406104445457
0.03834313899278641,0.004907452967017889,-0.021926287561655045,0.018999574705958366,-0.0008503355784341693,0.03060443513095379
0.03876286372542381,0.0054660364985466,-0.022031666710972786,0.018777379766106606,-0.0007741207955405116,0.030398406088352203
0.03855009377002716,0.005047268234193325,-0.022776788100600243,0.018556535243988037,-0.0007757695857435465,0.030590886250138283
0.03883066773414612,0.004925769753754139,-0.021971046924591064,0.01854177564382553,-0.0007267305045388639,0.03073735348880291
0.03878588229417801,0.004803918767720461,-0.02192283235490322,0.018857372924685478,-0.0006966106011532247,0.03061777353286743
0.03833867609500885,0.004897472448647022,-0.02249988727271557,0.019122427329421043,-0.0006649795104749501,0.03091595694422722
0.038472097367048264,0.004788498859852552,-0.02275594137609005,0.01945335976779461,-0.0006804110598750412,0.03130881115794182
0.039017803966999054,0.005241889972239733,-0.022539755329489708,0.018633846193552017,-0.0006676779012195766,0.031134843826293945
0.04004586115479469,0.004956717602908611,-0.021846534684300423,0.01892455667257309,-0.0006472078966908157,0.031363386660814285
0.039186254143714905,0.004720446653664112,-0.02249448373913765,0.01923612877726555,-0.0006763446726836264,0.031225698068737984
0.038106050342321396,0.0045048887841403484,-0.02260722778737545,0.018524136394262314,-0.0007039755582809448,0.0313798263669014
0.038811925798654556,0.004897505510598421,-0.022035622969269753,0.01888706162571907,-0.0007004481158219278,0.0308080967515707
0.03937739133834839,0.004935071803629398,-0.022186322137713432,0.019377026706933975,-0.0006737077492289245,0.03194476664066315
0.0408259816467762,0.004960440564900637,-0.02256982959806919,0.019707990810275078,-0.0006866218755021691,0.03137882798910141
0.04022066667675972,0.0051354700699448586,-0.022788364440202713,0.019458847120404243,-0.0006404367159120739,0.03158215433359146
0.03825202211737633,0.004862397443503141,-0.02294587530195713,0.019859375432133675,-0.0007636472582817078,0.03243468701839447
0.03873119875788689,0.004717690404504538,-0.022271474823355675,0.01998654194176197,-0.0007879027398303151,0.03166269138455391
0.04022448509931564,0.005044886376708746,-0.02157936431467533,0.020324187353253365,-0.0008018173393793404,0.030705919489264488
0.039766471832990646,0.004992554895579815,-0.021958040073513985,0.02013792097568512,-0.000768098805565387,0.030794788151979446
0.03978840634226799,0.00497563648968935,-0.022662851959466934,0.019930068403482437,-0.0008990938658826053,0.032257165759801865
0.03992249071598053,0.0052293697372078896,-0.022562650963664055,0.019448308274149895,-0.0009060711017809808,0.031817831099033356
0.03992249071598053,0.0052293697372078896,-0.022562650963664055,0.019448308274149895,-0.0009060711017809808,0.031817831099033356
0.03954654186964035,0.004902656655758619,-0.02188512682914734,0.01955106109380722,-0.0008964920416474342,0.032803118228912354
0.040335655212402344,0.004660662263631821,-0.022007951512932777,0.019234200939536095,-0.0008529791375622153,0.03264261782169342
0.03969557583332062,0.0045381635427474976,-0.0222157035022974,0.019233547151088715,-0.0008119229460135102,0.031932681798934937
0.03963823616504669,0.004621147643774748,-0.022194184362888336,0.020153848454356194,-0.0007716799154877663,0.030925925821065903
0.039790164679288864,0.0047372872941195965,-0.022039463743567467,0.020290646702051163,-0.0007867795648053288,0.031353890895843506
0.04094298183917999,0.0035806188825517893,-0.022229665890336037,0.020034492015838623,-0.0007157275686040521,0.03290038928389549
0.039797037839889526,0.0034289625473320484,-0.02243240550160408,0.020289571955800056,-0.0007295048562809825,0.03265237435698509
0.039010245352983475,0.003650918137282133,-0.022315045818686485,0.02007254958152771,-0.0007347141508944333,0.03262237831950188
0.04012333229184151,0.0042886510491371155,-0.021853376179933548,0.020118707790970802,-0.0007180359098128974,0.03212360292673111
0.03996947407722473,0.004243825562298298,-0.022519052028656006,0.020149825140833855,-0.0006838480476289988,0.032592352479696274
0.04115747660398483,0.003945901989936829,-0.0224477369338274,0.020197540521621704,-0.0006589893018826842,0.032548874616622925
0.04026924818754196,0.00406908942386508,-0.02208942174911499,0.01989223062992096,-0.0006363058346323669,0.03228127211332321
0.03847649693489075,0.00394617673009634,-0.02239670604467392,0.01990150474011898,-0.0006574924918822944,0.032057516276836395
0.04077504575252533,0.003642125055193901,-0.02284534089267254,0.020224930718541145,-0.000760949042160064,0.032974373549222946
0.040981538593769073,0.00341617944650352,-0.023039385676383972,0.019845612347126007,-0.0007917737239040434,0.03361664339900017
0.040443845093250275,0.0035612653009593487,-0.022932246327400208,0.019997190684080124,-0.0007538440404459834,0.032214853912591934
0.040795374661684036,0.003935832995921373,-0.023159602656960487,0.019829221069812775,-0.0007676135282963514,0.03292926028370857
0.04064001515507698,0.003841923549771309,-0.021982943639159203,0.019426794722676277,-0.0010883191134780645,0.033651892095804214
0.04064001515507698,0.003841923549771309,-0.021982943639159203,0.019426794722676277,-0.0010883191134780645,0.033651892095804214
0.04088375344872475,0.003507389687001705,-0.02229701355099678,0.019462086260318756,-0.001074689906090498,0.03304571658372879
0.041309017688035965,0.0035601176787167788,-0.023473499342799187,0.01949496939778328,-0.0010495722526684403,0.03327785059809685
0.04078231379389763,0.0037347052711993456,-0.02254229411482811,0.019941117614507675,-0.0009311420144513249,0.033513233065605164
0.04078231379389763,0.0037347052711993456,-0.02254229411482811,0.019941117614507675,-0.0009311420144513249,0.033513233065605164
0.041262224316596985,0.0036380949895828962,-0.023350434377789497,0.019909003749489784,-0.0009209655108861625,0.03305831179022789
0.041262224316596985,0.0036380949895828962,-0.023350434377789497,0.019909003749489784,-0.0009209655108861625,0.03305831179022789
0.041219890117645264,0.003656902816146612,-0.02319599874317646,0.01991758681833744,-0.0008951412164606154,0.03440002351999283
0.04181528463959694,0.0036565742921084166,-0.02326114848256111,0.020282844081521034,-0.0008261787006631494,0.033903248608112335
0.04128069803118706,0.00362165248952806,-0.021956345066428185,0.019919734448194504,-0.0008425723062828183,0.03213539347052574
0.041359953582286835,0.003948864992707968,-0.02207883819937706,0.019724808633327484,-0.0008844317053444684,0.03283838555216789
0.04174933210015297,0.004003242589533329,-0.02238846942782402,0.01974424161016941,-0.0009037343552336097,0.033627886325120926
0.041493140161037445,0.0038688855711370707,-0.023297177627682686,0.019366689026355743,-0.0010472771245986223,0.033940985798835754
0.04192397743463516,0.003733695251867175,-0.023460043594241142,0.019461004063487053,-0.0010870161931961775,0.035181112587451935
0.04188890382647514,0.004246740136295557,-0.022654931992292404,0.020540256053209305,-0.0010594800114631653,0.034462664276361465
0.04213893041014671,0.003933359403163195,-0.022919433191418648,0.021201325580477715,-0.0009125990327447653,0.03291301056742668
0.042623601853847504,0.003935736604034901,-0.02310078777372837,0.020633451640605927,-0.0008162718149833381,0.03429289907217026
0.042162857949733734,0.0039704907685518265,-0.022701090201735497,0.020147856324911118,-0.0007645283476449549,0.03429907187819481
0.0419798381626606,0.004264645278453827,-0.02262822911143303,0.020403621718287468,-0.0007785502821207047,0.03435603901743889
0.04305140674114227,0.003675685031339526,-0.022703232243657112,0.020801439881324768,-0.0007927541737444699,0.03540164977312088
0.04388275742530823,0.004168929532170296,-0.022791171446442604,0.02106614224612713,-0.000874867255333811,0.034601375460624695
0.04184765741229057,0.004164200741797686,-0.023219268769025803,0.020789192989468575,-0.0009734565392136574,0.034230709075927734
0.04177430644631386,0.004067635629326105,-0.023189827799797058,0.020661085844039917,-0.001044989563524723,0.034266624599695206
0.04280692711472511,0.003980889916419983,-0.022642455995082855,0.020968496799468994,-0.0011645227205008268,0.03426541015505791
0.04268346354365349,0.003987876698374748,-0.022616157308220863,0.021727873012423515,-0.0012342447880655527,0.03445825353264809
0.044113848358392715,0.0039932020008563995,-0.023144006729125977,0.021577225998044014,-0.0011778875486925244,0.03464323282241821
0.04309665411710739,0.003961602225899696,-0.023285064846277237,0.02074865810573101,-0.0010267548495903611,0.034936465322971344
0.04186064004898071,0.003872002474963665,-0.023072974756360054,0.020470086485147476,-0.0009929848602041602,0.035275209695100784
0.043561141937971115,0.004147785250097513,-0.022567685693502426,0.02089250646531582,-0.0008809528080746531,0.0349256806075573
0.04349764809012413,0.004220370668917894,-0.022560011595487595,0.021032007411122322,-0.0007421353948302567,0.035214073956012726
0.043070368468761444,0.004080020822584629,-0.022816205397248268,0.020984767004847527,-0.0007548636640422046,0.0349300280213356
0.043076299130916595,0.003922783304005861,-0.02286144532263279,0.020958369597792625,-0.00075007532723248,0.03502533584833145
0.043490540236234665,0.003916735760867596,-0.023505045101046562,0.020942628383636475,-0.0006927567301318049,0.035379622131586075
0.043557342141866684,0.0042273858562111855,-0.02365889400243759,0.02054421789944172,-0.0007084404351189733,0.03567603603005409
