davideferrari95/blind_handover_controller/data/Test 28 - [2024-02-07 -- 14-39-16]/joint_states_data.csv
shoulder_pan_joint,shoulder_lift_joint,elbow_joint,wrist_1_joint,wrist_2_joint,wrist_3_joint
0.0038525573909282684,-0.008681437000632286,-0.012193717993795872,0.016468677669763565,0.0,0.004135621711611748
0.003962527960538864,-0.009124714881181717,-0.012512781657278538,0.017424987629055977,0.0,0.004352153744548559
0.003962527960538864,-0.009124714881181717,-0.012512781657278538,0.017424987629055977,0.0,0.004352153744548559
0.003987050149589777,-0.008872255682945251,-0.012117046862840652,0.016739318147301674,0.0,0.004274605307728052
0.003925314173102379,-0.0096908463165164,-0.012909747660160065,0.01623336225748062,0.0,0.0045021167024970055
0.004005997441709042,-0.008849596604704857,-0.012502002529799938,0.01675078459084034,0.0,0.004610945004969835
0.004005997441709042,-0.008849596604704857,-0.012502002529799938,0.01675078459084034,0.0,0.004610945004969835
0.003594473470002413,-0.008972860872745514,-0.012128910049796104,0.0165718961507082,0.0,0.004139214288443327
0.003594473470002413,-0.008972860872745514,-0.012128910049796104,0.0165718961507082,0.0,0.004139214288443327
0.0036502277944236994,-0.008738352917134762,-0.012566840276122093,0.016748599708080292,0.0,0.004041315522044897
0.0037002582103013992,-0.009048166684806347,-0.012692030519247055,0.016983652487397194,0.0,0.003947655204683542
0.004250056575983763,-0.009145263582468033,-0.012500099837779999,0.017254063859581947,0.0,0.0038917388301342726
0.004183709155768156,-0.008486018516123295,-0.012487001717090607,0.016562357544898987,0.0,0.004309660289436579
0.0041250851936638355,-0.006553647108376026,-0.012750008143484592,0.017060935497283936,0.0,0.0043664355762302876
0.004157360177487135,-0.006886750925332308,-0.012192797847092152,0.0168010201305151,0.0,0.0042008524760603905
0.004035094752907753,-0.007105897646397352,-0.012403277680277824,0.016911039128899574,0.0,0.004226285498589277
0.003853585571050644,-0.006987778469920158,-0.01214774139225483,0.016713598743081093,0.0,0.004294595681130886
0.004069517832249403,-0.007411398459225893,-0.01243283599615097,0.017238490283489227,0.0,0.004424322862178087
0.004182680044323206,-0.0076251160353422165,-0.012699711136519909,0.016657570376992226,0.0,0.004292519763112068
0.004103015176951885,-0.007020321674644947,-0.012178301811218262,0.01692044548690319,0.0,0.00440992321819067
0.003921304829418659,-0.0065558552742004395,-0.012379300780594349,0.01752609759569168,0.0,0.004149905405938625
0.003925226628780365,-0.006732243578881025,-0.012068454176187515,0.018008016049861908,0.0,0.00438673933967948
0.003911363892257214,-0.00709920097142458,-0.012390687130391598,0.018951039761304855,0.0,0.004439481999725103
0.0038065598346292973,-0.006799611728638411,-0.011697673238813877,0.018500864505767822,0.0,0.004896887578070164
0.0037159426137804985,-0.00664166547358036,-0.011696823872625828,0.01734824664890766,0.0,0.004973049275577068
0.0037021110765635967,-0.006852181162685156,-0.011946376413106918,0.01746971346437931,0.0,0.004021077882498503
0.0037006058264523745,-0.006408763583749533,-0.011646238155663013,0.016983196139335632,0.0,0.0036903342697769403
0.003729115007445216,-0.006472663022577763,-0.012582934461534023,0.017131581902503967,0.0,0.0038132709451019764
0.0035726395435631275,-0.006320716813206673,-0.012532217428088188,0.01713934727013111,0.0,0.004430682864040136
0.0032087364234030247,-0.005993982776999474,-0.012039382010698318,0.017133109271526337,0.0,0.0046882606111466885
0.003490945091471076,-0.006347406189888716,-0.011788620613515377,0.017530841752886772,0.0,0.004282838199287653
0.0037351681385189295,-0.006659816484898329,-0.011203542351722717,0.01707630790770054,0.0,0.004400096368044615
0.00371167273260653,-0.006653936579823494,-0.012106839567422867,0.017689209431409836,0.0,0.004281294997781515
0.0036926460452377796,-0.005943909753113985,-0.011981183663010597,0.018095731735229492,0.0,0.004170286934822798
0.0037850579246878624,-0.00619459105655551,-0.012478047050535679,0.0182475708425045,0.0,0.004195604473352432
0.003414117731153965,-0.006881272420287132,-0.012348654679954052,0.018231751397252083,0.0,0.004417357034981251
0.003577566472813487,-0.006615972612053156,-0.011878879740834236,0.017241839319467545,0.0,0.004271246027201414
0.003577566472813487,-0.006615972612053156,-0.011878879740834236,0.017241839319467545,0.0,0.004271246027201414
0.0032548813614994287,-0.006350773852318525,-0.012390956282615662,0.01745699904859066,0.0,0.004431228153407574
0.0041449717245996,-0.0060214935801923275,-0.01177196018397808,0.017289912328124046,0.0,0.004528761841356754
0.004120829049497843,-0.005989694967865944,-0.011957980692386627,0.017215995118021965,0.0,0.004237065091729164
0.003282273421064019,-0.006710728630423546,-0.011419191025197506,0.01782023347914219,0.0,0.004227171186357737
0.0034622238017618656,-0.006550397723913193,-0.012338281609117985,0.017992166802287102,0.0,0.004444144666194916
0.0037377483677119017,-0.006050411611795425,-0.011629948392510414,0.018270796164870262,0.0,0.004583884496241808
0.003721557091921568,-0.006377570331096649,-0.01218357402831316,0.01790522411465645,0.0,0.0042005241848528385
0.0034684338606894016,-0.0059780520386993885,-0.011974996887147427,0.019056295976042747,0.0,0.00443780142813921
0.003572872607037425,-0.006429687142372131,-0.011953677050769329,0.018157200887799263,0.0,0.004496012814342976
0.003907259553670883,-0.006451364140957594,-0.011835359036922455,0.017491549253463745,0.0,0.004304675385355949
0.00396586861461401,-0.006292789708822966,-0.011056921444833279,0.017933789640665054,0.0,0.004351962357759476
0.0037069804966449738,-0.006579034961760044,-0.011875629425048828,0.01784297451376915,0.0,0.004171561915427446
0.0035058173816651106,-0.006604120135307312,-0.01215409953147173,0.017973212525248528,0.0,0.0042729247361421585
0.0038048713468015194,-0.0064400420524179935,-0.011753535829484463,0.018567560240626335,0.0,0.0042468043975532055
0.003858977695927024,-0.006349880713969469,-0.011788923293352127,0.018272513523697853,0.0,0.004325442481786013
0.003521406091749668,-0.006094168871641159,-0.011440920643508434,0.01862005889415741,0.0,0.0043213325552642345
0.0035641181748360395,-0.006405051797628403,-0.011716820299625397,0.019009720534086227,0.0,0.004294883459806442
0.00397317111492157,-0.006827826611697674,-0.011822341941297054,0.01873183436691761,0.0,0.004085081163793802
0.004076163750141859,-0.006218636874109507,-0.011489326134324074,0.018718469887971878,0.0,0.00393475778400898
0.003861927194520831,-0.005955821834504604,-0.011517537757754326,0.018776634708046913,0.0,0.003824761603027582
0.0037013038527220488,-0.006473188288509846,-0.011204758659005165,0.0184588935226202,6.827405627518601e-07,0.0038074639160186052
0.0041907490231096745,-0.006744419690221548,-0.01194622740149498,0.018691018223762512,4.457807989410867e-08,0.00425373250618577
0.004023811314254999,-0.006276375148445368,-0.011389336548745632,0.018191009759902954,2.910630181318652e-09,0.004457565955817699
0.003877779934555292,-0.0063417269848287106,-0.011745925061404705,0.017277449369430542,1.900433560519943e-10,0.004324117675423622
0.0038905199617147446,-0.0057281083427369595,-0.011587049812078476,0.017965635284781456,1.2408474421576887e-11,0.004471376538276672
0.0034514267463237047,-0.006118775811046362,-0.011142155155539513,0.01799987629055977,8.101847101191217e-13,0.004517300054430962
0.004158863332122564,-0.006632477976381779,-0.011656567454338074,0.017538927495479584,5.289927092829057e-14,0.004257956985384226
0.004077242221683264,-0.0066933478228747845,-0.011482546105980873,0.017290282994508743,3.453944554952966e-15,0.004295137710869312
0.004077242221683264,-0.0066933478228747845,-0.011482546105980873,0.017290282994508743,3.453944554952966e-15,0.004295137710869312
0.004102105274796486,-0.0063184406608343124,-0.011910353787243366,0.01705012284219265,1.4724706604144225e-17,0.0042871213518083096
0.004102105274796486,-0.0063184406608343124,-0.011910353787243366,0.01705012284219265,1.4724706604144225e-17,0.0042871213518083096
0.004172950051724911,-0.006847182288765907,-0.011894346214830875,0.01720173843204975,6.277373502262626e-20,0.004496015142649412
0.004147530999034643,-0.0064098769798874855,-0.012067521922290325,0.018160872161388397,4.098676300129201e-21,0.004227411467581987
0.00395243102684617,-0.0061798389069736,-0.011878928169608116,0.017967823892831802,2.676142842033306e-22,0.004318970255553722
0.004095585085451603,-0.006415122654289007,-0.012003293260931969,0.01840861886739731,1.747330060508162e-23,0.004191651940345764
0.004115159623324871,-0.00633429829031229,-0.011797131039202213,0.01768304966390133,1.1408816039211572e-24,0.004381477367132902
0.004362040665000677,-0.006501906085759401,-0.011983878910541534,0.017625965178012848,7.449140804887314e-26,0.004453617613762617
0.004409244749695063,-0.006522708106786013,-0.011408678255975246,0.017943181097507477,4.863756577879147e-27,0.004283041227608919
0.004351095296442509,-0.006515540648251772,-0.011798996478319168,0.01771351881325245,3.175685626082043e-28,0.004575996659696102
0.0040514180436730385,-0.0063292160630226135,-0.012092765420675278,0.018149161711335182,2.073495900432401e-29,0.004512987099587917
0.004332065582275391,-0.006893463432788849,-0.011368152685463428,0.017987137660384178,1.3538444914691599e-30,0.004224693868309259
0.004190484061837196,-0.006652814336121082,-0.012729930691421032,0.01780153438448906,8.839637584567746e-32,0.004252970684319735
0.004316363949328661,-0.006299574859440327,-0.012217896990478039,0.018538229167461395,5.7716515485985074e-33,0.004590519703924656
0.0042824652045965195,-0.006061858497560024,-0.012132561765611172,0.018309012055397034,3.768476242916641e-34,0.005009833723306656
0.004304484464228153,-0.006482607219368219,-0.011989389546215534,0.018777238205075264,2.460545865687729e-35,0.004443708807229996
0.00398836936801672,-0.006841207388788462,-0.012886528857052326,0.01875108666718006,1.606560484012913e-36,0.004229638259857893
0.004386835265904665,-0.00682708527892828,-0.012592451646924019,0.017598649486899376,1.0489692067124883e-37,0.004098112694919109
0.004164386074990034,-0.005747269373387098,-0.011488888412714005,0.017221741378307343,6.84902000539712e-39,0.004390795715153217
0.004367365967482328,-0.0063033318147063255,-0.012116732075810432,0.018179908394813538,4.471921750245859e-40,0.004479098599404097
0.00419036066159606,-0.006830672267824411,-0.011994435451924801,0.01684848591685295,2.9198856101136213e-41,0.0043234750628471375
0.004312451928853989,-0.006715918891131878,-0.011995461769402027,0.016699237748980522,1.9057659114817512e-42,0.00449043232947588
0.004180137999355793,-0.0062206513248384,-0.01190844178199768,0.01659046858549118,1.2471556332490872e-43,0.004500864539295435
0.004284098744392395,-0.00603775167837739,-0.011766276322305202,0.017927177250385284,8.407790785948902e-45,0.00421778904274106
0.004605694208294153,-0.007145043462514877,-0.012263031676411629,0.018083520233631134,0.0,0.004321707878261805
0.004683777689933777,-0.006749155931174755,-0.011807078495621681,0.017987597733736038,0.0,0.004513491876423359
0.004241681192070246,-0.006599460728466511,-0.012351340614259243,0.01822950877249241,0.0,0.004583930131047964
0.004259180277585983,-0.006517727393656969,-0.012254193425178528,0.017905300483107567,0.0,0.00430708471685648
0.0046866219490766525,-0.007184963207691908,-0.012011359445750713,0.017986224964261055,0.0,0.004432118963450193
0.0046866219490766525,-0.007184963207691908,-0.012011359445750713,0.017986224964261055,0.0,0.004432118963450193
0.004722858779132366,-0.0070347171276807785,-0.011797133833169937,0.01823234185576439,0.0,0.004489302169531584
0.004383506719022989,-0.006646194029599428,-0.011670527048408985,0.018153727054595947,0.0,0.004215943161398172
0.004233559127897024,-0.0065329005010426044,-0.011830108240246773,0.017650963738560677,0.0,0.004653050098568201
0.004250687547028065,-0.006499939132481813,-0.012189524248242378,0.01722458377480507,0.0,0.004585342947393656
0.004712037742137909,-0.007189536467194557,-0.012549538165330887,0.01768881268799305,0.0,0.004645328503102064
0.0048355706967413425,-0.007370431907474995,-0.011927459388971329,0.017371514812111855,0.0,0.004762198776006699
0.00468062236905098,-0.0066228206269443035,-0.012013435363769531,0.01740969903767109,0.0,0.004729335196316242
0.004591894801706076,-0.006705351173877716,-0.01197002548724413,0.017369208857417107,0.0,0.004351734649389982
0.004562716465443373,-0.006809046491980553,-0.012631560675799847,0.01692124642431736,0.0,0.004361708648502827
0.0045426106080412865,-0.007098927162587643,-0.012029118835926056,0.017362020909786224,0.0,0.004582060966640711
0.004724328871816397,-0.00685429573059082,-0.011941489763557911,0.017292378470301628,0.0,0.004692967049777508
0.004761027172207832,-0.007259102072566748,-0.012161506339907646,0.017625553533434868,0.0,0.004907180555164814
0.004853860009461641,-0.00763694616034627,-0.011784257367253304,0.017637573182582855,0.0,0.004530191887170076
0.004762616008520126,-0.007687754929065704,-0.012021713890135288,0.017625410109758377,0.0,0.0048851026222109795
0.004707310348749161,-0.00685172388330102,-0.011703349649906158,0.018183855339884758,0.0,0.004842255264520645
0.004662080202251673,-0.0072210622020065784,-0.012565232813358307,0.018022753298282623,0.0,0.004714680835604668
0.004990200512111187,-0.00698773143813014,-0.012065133079886436,0.018192455172538757,0.0,0.004705458413809538
0.005015543196350336,-0.007116361986845732,-0.011892595328390598,0.018089083954691887,0.0,0.004985284060239792
0.004919674713164568,-0.007092577405273914,-0.011958113871514797,0.017772788181900978,0.0,0.004860245622694492
0.005065659061074257,-0.00698600709438324,-0.011464813724160194,0.018185719847679138,0.0,0.004711095243692398
0.005042184144258499,-0.006962482817471027,-0.01225678063929081,0.018328381702303886,0.0,0.004497097339481115
0.004790907260030508,-0.0071515413001179695,-0.01203436404466629,0.017604727298021317,0.0,0.004245899152010679
0.004815439227968454,-0.007011349778622389,-0.012202122248709202,0.017690470442175865,0.0,0.004720749333500862
0.004710834007710218,-0.006830224767327309,-0.011669323779642582,0.017548099160194397,0.0,0.004913919605314732
0.004710834007710218,-0.006830224767327309,-0.011669323779642582,0.017548099160194397,0.0,0.004913919605314732
0.005248560104519129,-0.007291983813047409,-0.011464416049420834,0.017830220982432365,0.0,0.004848010838031769
0.005069460719823837,-0.007644703611731529,-0.012521674856543541,0.01795818842947483,0.0,0.004881806671619415
0.004765578545629978,-0.007007183041423559,-0.011729584075510502,0.017259476706385612,0.0,0.004895609337836504
0.004757624585181475,-0.006290887948125601,-0.011994976550340652,0.017508763819932938,0.0,0.00491277826949954
0.0046684169210493565,-0.007003047503530979,-0.012221267446875572,0.017264870926737785,0.0,0.004976446274667978
0.005380910821259022,-0.007346720900386572,-0.01188620738685131,0.017362860962748528,0.0,0.004976122640073299
0.005342305172234774,-0.007201999891549349,-0.011736392043530941,0.01780899055302143,0.0,0.0049716816283762455
0.004985725041478872,-0.0066282255575060844,-0.011557216756045818,0.019123554229736328,0.0,0.005019668489694595
0.004968061111867428,-0.007186123635619879,-0.01170286349952221,0.017500827088952065,0.0,0.0051858918741345406
0.005294804461300373,-0.007503837812691927,-0.011733935214579105,0.017092693597078323,0.0,0.0053483955562114716
0.005519569385796785,-0.00688085425645113,-0.012234452180564404,0.017399467527866364,0.0,0.005317778792232275
0.005205496214330196,-0.006182250566780567,-0.012163051404058933,0.017352843657135963,0.0,0.005049216095358133
0.0053717950358986855,-0.006073336582630873,-0.012134476564824581,0.01798950880765915,0.0,0.0047983345575630665
0.005291283130645752,-0.005328785628080368,-0.011784625239670277,0.01824665069580078,0.0,0.004696281161159277
0.004933799616992474,-0.005299634300172329,-0.011918761767446995,0.017612194642424583,0.0,0.004706823732703924
0.005319050047546625,-0.005100087262690067,-0.01199900172650814,0.017629846930503845,0.0,0.004697227384895086
0.005169129464775324,-0.0053970483131706715,-0.01159451063722372,0.01735088974237442,0.0,0.004921933636069298
0.005315840244293213,-0.005747773218899965,-0.012349393218755722,0.01780788227915764,-4.8193014663411304e-06,0.0050267549231648445
0.0054344432428479195,-0.005638285540044308,-0.011665849015116692,0.018419569358229637,-5.139641143614426e-05,0.005935462191700935
0.005255802068859339,-0.005780511070042849,-0.012095729820430279,0.017999723553657532,-5.3824718634132296e-05,0.0051521314308047295
0.005269625224173069,-0.0052391658537089825,-0.012046590447425842,0.018043940886855125,-5.338484697858803e-05,0.004356157034635544
0.005121841095387936,-0.005165799055248499,-0.01200323086231947,0.017670579254627228,-5.2771811169805005e-05,0.004419490694999695
0.005883435253053904,-0.005137756932526827,-0.012355530634522438,0.01732504740357399,-5.2160998166073114e-05,0.004585142247378826
0.0053436849266290665,-0.005943363066762686,-0.011968271806836128,0.017784075811505318,-5.1563365559559315e-05,0.005345148500055075
0.005356222856789827,-0.005393299739807844,-0.012236073613166809,0.01790141873061657,-5.0979233492398635e-05,0.005190412513911724
0.005644259974360466,-0.0050474475137889385,-0.011821849271655083,0.018562298268079758,-5.040817632107064e-05,0.004911800846457481
0.005195955745875835,-0.005165104754269123,-0.011645259335637093,0.018365923315286636,-4.98497647640761e-05,0.0050457739271223545
0.005827607586979866,-0.004864406306296587,-0.012429655529558659,0.017598126083612442,-6.421089892683085e-06,0.005039279814809561
0.005604231264442205,-0.005246605724096298,-0.01175004430115223,0.01801205426454544,-4.1925130744857597e-07,0.00506605114787817
0.005822128616273403,-0.005471126176416874,-0.012171563692390919,0.017824046313762665,-2.7374113642508746e-08,0.005844471510499716
0.00556212617084384,-0.0051058270037174225,-0.011639388278126717,0.017540646716952324,-1.7873340585339292e-09,0.005401196889579296
0.00556212617084384,-0.0051058270037174225,-0.011639388278126717,0.017540646716952324,-1.7873340585339292e-09,0.005401196889579296
0.005699165165424347,-0.0053894114680588245,-0.012308172881603241,0.01771395094692707,-1.167001495439024e-10,0.005094757303595543
0.005470990668982267,-0.005039374344050884,-0.012137293815612793,0.016912955790758133,-7.619686132054326e-12,0.0050725447945296764
0.006061542313545942,-0.004584409296512604,-0.011828148737549782,0.017578279599547386,-4.975110492848323e-13,0.005197200458496809
0.0063471924513578415,-0.005083334166556597,-0.012327794916927814,0.01701059378683567,-3.248391681510976e-14,0.005463447887450457
0.005478742066770792,-0.00517532741650939,-0.012066381052136421,0.017375076189637184,-1.3848403705478613e-16,0.005638625472784042
0.005457241553813219,-0.005157706327736378,-0.011843474581837654,0.01740156300365925,-9.042017154935552e-18,0.005319334100931883
0.0063687958754599094,-0.005281469784677029,-0.01191238034516573,0.01794482208788395,-5.903790691041034e-19,0.005658196285367012
0.005977323744446039,-0.0055822450667619705,-0.012475525960326195,0.01787077635526657,-3.854753419846314e-20,0.005538451950997114
0.005925688426941633,-0.005280917044728994,-0.011888543143868446,0.017314672470092773,-2.516878565296758e-21,0.005937318783253431
0.005917917937040329,-0.005359748378396034,-0.01253539603203535,0.01823980174958706,-1.643341784893204e-22,0.005349129904061556
0.005767828784883022,-0.0056350016966462135,-0.012451117858290672,0.01821070723235607,-1.0729847796822826e-23,0.005384435877203941
0.006258280016481876,-0.005203735549002886,-0.012495619244873524,0.017727112397551537,-7.005823902423164e-25,0.005368499550968409
0.006573016289621592,-0.005054297856986523,-0.0125611312687397,0.01749076321721077,-4.5743024035613675e-26,0.005818977020680904
0.005836619529873133,-0.005311012268066406,-0.012320384383201599,0.017141159623861313,-2.986692483598871e-27,0.005751395132392645
0.005869085900485516,-0.00566574651747942,-0.012937142513692379,0.01804448291659355,-1.95009675407065e-28,0.005700829438865185
0.005955607630312443,-0.005215002689510584,-0.012304018251597881,0.017689932137727737,-1.2732738140988275e-29,0.005545932333916426
0.0062883938662707806,-0.0053772288374602795,-0.013359881937503815,0.017331579700112343,-8.313568127546507e-31,0.005589436739683151
0.006240346468985081,-0.005473404657095671,-0.01251750998198986,0.017754776403307915,-5.428165487132512e-32,0.005307610612362623
0.005957321729511023,-0.005153981037437916,-0.01295709889382124,0.017946777865290642,-3.544204364489478e-33,0.005803366657346487
0.006028148345649242,-0.005344913806766272,-0.012946139089763165,0.01673303171992302,-2.3141121581623336e-34,0.005475075449794531
0.006522745825350285,-0.00552503764629364,-0.013046086765825748,0.01671738736331463,-1.5109499032444958e-35,0.005819343030452728
0.006348057184368372,-0.0060849678702652454,-0.01297625433653593,0.0170437004417181,-9.86542369061712e-37,0.005554645322263241
0.0064555625431239605,-0.005457661580294371,-0.012354607693850994,0.0174971092492342,-6.441417034326946e-38,0.005865156184881926
0.006415556184947491,-0.0054050637409091,-0.013166158460080624,0.01719319261610508,-4.2057857446028254e-39,0.0054592955857515335
0.006055955775082111,-0.005117176566272974,-0.012268525548279285,0.017564771696925163,-2.7460825615834143e-40,0.005415922496467829
0.006055955775082111,-0.005117176566272974,-0.012268525548279285,0.017564771696925163,-2.7460825615834143e-40,0.005415922496467829
0.0064396015368402,-0.005313449539244175,-0.01307660061866045,0.017613520845770836,-1.7929613851036034e-41,0.005605580285191536
0.00659538246691227,-0.005569721572101116,-0.01245606318116188,0.017267508432269096,-1.1700842177112223e-42,0.005510528571903706
0.006272236350923777,-0.005455345381051302,-0.013336287811398506,0.017475245520472527,-7.707141553786494e-44,0.005769731011241674
0.006335226818919182,-0.005569865927100182,-0.01278631016612053,0.017078697681427002,-8.507091115461662e-05,0.005299282725900412
0.006352573167532682,-0.00487615866586566,-0.013220896013081074,0.017065713182091713,-0.00010115985060110688,0.005829891189932823
0.006155925337225199,-0.005652306601405144,-0.012302319519221783,0.017160600051283836,-9.798249084269628e-05,0.0058989389799535275
0.006437197793275118,-0.005673137493431568,-0.012918788939714432,0.017534472048282623,-9.589950059307739e-05,0.005596056580543518
0.00668160617351532,-0.005465138703584671,-0.012264682911336422,0.01704452373087406,-9.389865590492263e-05,0.005723260343074799
0.006543505471199751,-0.005077842622995377,-0.012673127464950085,0.017462963238358498,-9.197935287375003e-05,0.006077115889638662
0.0068712192587554455,-0.005272213835269213,-0.012608622200787067,0.017104167491197586,-9.013702219817787e-05,0.006052733864635229
0.006653939373791218,-0.0053165568970143795,-0.012726884335279465,0.016780396923422813,-8.83669126778841e-05,0.0056936414912343025
0.006350871175527573,-0.005982800852507353,-0.013128722086548805,0.016876326873898506,-9.952599793905392e-05,0.005588010419160128
0.006499157287180424,-0.005617870483547449,-0.012501779943704605,0.016774393618106842,-0.00010174098133575171,0.005909206811338663
0.00672907754778862,-0.005530005786567926,-0.01265648566186428,0.017732692882418633,-0.00010012197162723169,0.006411470007151365
0.006684682797640562,-0.00512192165479064,-0.012079226784408092,0.017641188576817513,-9.831664647208527e-05,0.006379175931215286
0.006704690866172314,-0.005732900928705931,-0.013083375059068203,0.01739511825144291,-9.655976464273408e-05,0.00594791304320097
0.006559767294675112,-0.005949209909886122,-0.012231288477778435,0.017517725005745888,-9.486348426435143e-05,0.0057744369842112064
0.007182485889643431,-0.0059197526425123215,-0.0126670952886343,0.017508134245872498,-9.322549885837361e-05,0.0058668917044997215
0.0069804443046450615,-0.0055205337703228,-0.012427614070475101,0.018483249470591545,-9.164365474134684e-05,0.006564187351614237
0.00672271940857172,-0.005253036040812731,-0.012137976475059986,0.01813068613409996,-9.011403744807467e-05,0.007140339817851782
0.006498628295958042,-0.005018588155508041,-0.01236137468367815,0.01764042116701603,-9.590933041181415e-05,0.006359826773405075
0.006838790141046047,-0.005922631360590458,-0.012022257782518864,0.01771826110780239,-0.00010124827531399205,0.006071861367672682
0.0068282634019851685,-0.005632462445646524,-0.012703338637948036,0.01692911796271801,-0.00010008872050093487,0.006398298311978579
0.007138457614928484,-0.005343091208487749,-0.01192154735326767,0.01686754636466503,-9.855264943325892e-05,0.006595898885279894
0.007559567224234343,-0.0049858540296554565,-0.012236437760293484,0.01683337241411209,-9.703661635285243e-05,0.006319589912891388
0.0066911447793245316,-0.005649736616760492,-0.01254731509834528,0.01806345395743847,-9.413653606316075e-05,0.006437942385673523
0.0066911447793245316,-0.005649736616760492,-0.01254731509834528,0.01806345395743847,-9.413653606316075e-05,0.006437942385673523
0.007180454209446907,-0.00520797586068511,-0.01265769824385643,0.017754165455698967,-9.927825158229098e-05,0.006189829204231501
0.0071294414810836315,-0.005256670992821455,-0.0123114800080657,0.01744162291288376,-0.00010402411135146394,0.006518092937767506
0.0071294414810836315,-0.005256670992821455,-0.0123114800080657,0.01744162291288376,-0.00010402411135146394,0.006518092937767506
0.007056977599859238,-0.005182628519833088,-0.0125605259090662,0.017085352912545204,-0.00010294057574355975,0.006278832908719778
0.007043039426207542,-0.005135592073202133,-0.012235567905008793,0.016792969778180122,-0.0001015155139612034,0.006103853229433298
0.0074882227927446365,-0.0054270001128315926,-0.012951294891536236,0.01702297292649746,-0.00010010578262154013,0.006148448213934898
0.00754445418715477,-0.005095276515930891,-0.012348620221018791,0.016614580526947975,-9.878708078758791e-05,0.006513222586363554
0.006826861761510372,-0.005552144721150398,-0.012363724410533905,0.016898881644010544,-0.0001391564728692174,0.006106304470449686
0.00715275201946497,-0.005481528118252754,-0.012016058899462223,0.01685197837650776,-0.00013516757462639362,0.00655355304479599
0.007177464663982391,-0.00535067543387413,-0.012659784406423569,0.017065631225705147,-0.0001312378008151427,0.006628541741520166
0.006848642602562904,-0.005487688817083836,-0.012076014652848244,0.016806822270154953,-0.00012751953909173608,0.006525805685669184
0.006960047408938408,-0.005568296182900667,-0.013000999577343464,0.017140991985797882,-0.00012400523701217026,0.007086252328008413
0.00710972398519516,-0.0054623750038445,-0.012658914551138878,0.017208842560648918,-0.00014319588080979884,0.006775308400392532
0.007232028525322676,-0.005447092466056347,-0.012560466304421425,0.018034765496850014,-0.00014092741184867918,0.006255136802792549
0.007365612778812647,-0.0054218098521232605,-0.012468532659113407,0.017504267394542694,-0.00013743643648922443,0.00591578334569931
0.007408274337649345,-0.005138401407748461,-0.011980812065303326,0.016368145123124123,-0.00013403118646238,0.006184733938425779
0.008158868178725243,-0.0052648973651230335,-0.012525738216936588,0.017255067825317383,-0.00013078554184176028,0.006294078193604946
0.007696457207202911,-0.005336896050721407,-0.012211078777909279,0.017131062224507332,-0.00012769247405231,0.006298553664237261
0.007242599502205849,-0.005185047630220652,-0.012599552981555462,0.017334526404738426,-0.00012474287359509617,0.006350078620016575
0.0071011497639119625,-0.005293477792292833,-0.012382391840219498,0.017240356653928757,-0.00013699446571990848,0.006606149021536112
0.007488594390451908,-0.0049345726147294044,-0.012328253127634525,0.016832301393151283,-0.0001387632655678317,0.007881597615778446
0.007834235206246376,-0.004853696096688509,-0.012510479427874088,0.017218919470906258,-0.00013607839355245233,0.006964758969843388
0.007422096561640501,-0.005512124393135309,-0.012090930715203285,0.01694326475262642,-0.00013322119775693864,0.006310204043984413
0.007277609780430794,-0.005268495995551348,-0.012351826764643192,0.017170419916510582,-0.00013046374078840017,0.006261526141315699
0.007647317368537188,-0.005021366756409407,-0.012066411785781384,0.01693856343626976,-0.00013679900439456105,0.006683887913823128
0.007903036661446095,-0.00503914151340723,-0.012768269516527653,0.01669124886393547,-0.00014256584108807147,0.007151635363698006
0.007545218802988529,-0.004884819500148296,-0.012125067412853241,0.01742662861943245,-0.00014034057676326483,0.007003903388977051
0.007545218802988529,-0.004884819500148296,-0.012125067412853241,0.01742662861943245,-0.00014034057676326483,0.007003903388977051
0.008471054956316948,-0.005135646089911461,-0.012182832695543766,0.017095493152737617,-0.00013511136057786644,0.007186075206845999
0.008471054956316948,-0.005135646089911461,-0.012182832695543766,0.017095493152737617,-0.00013511136057786644,0.007186075206845999
0.007805371191352606,-0.004940262995660305,-0.011788850650191307,0.01720483787357807,-0.00013262260472401977,0.00733955018222332
0.007542124483734369,-0.004813961684703827,-0.01272756140679121,0.0171040091663599,-0.0001302240852965042,0.006930607371032238
0.0075611271895468235,-0.004900544416159391,-0.012151827104389668,0.017175285145640373,-0.0001618805545149371,0.007179087959229946
0.008123456500470638,-0.004694261588156223,-0.01232246495783329,0.017054978758096695,-0.0001669758785283193,0.007536578923463821
0.008056105114519596,-0.004878396634012461,-0.012288561090826988,0.01709340699017048,-0.00016170086746569723,0.007706275209784508
0.008354303427040577,-0.00505176791921258,-0.012660193257033825,0.017024658620357513,-0.00015090391389094293,0.006926228292286396
0.00851382128894329,-0.004921524319797754,-0.011912830173969269,0.017464689910411835,-0.00014600722352042794,0.007419831585139036
0.007972120307385921,-0.004715539049357176,-0.01257620844990015,0.017132818698883057,-0.00014141801511868834,0.007638729643076658
0.0077163828536868095,-0.004491792526096106,-0.012419515289366245,0.017413809895515442,-0.00013710890198126435,0.007702510338276625
0.008013289421796799,-0.004582458641380072,-0.012563293799757957,0.017499996349215508,-0.0001330546074314043,0.007136354222893715
0.00867968425154686,-0.004618376959115267,-0.012280489318072796,0.01700267381966114,-0.00012923331814818084,0.007025978993624449
0.00782506912946701,-0.004763980861753225,-0.012293797917664051,0.017421767115592957,-0.00012562515621539205,0.007211378775537014
0.007671422325074673,-0.005057523027062416,-0.013091912493109703,0.017364639788866043,-0.00013421537005342543,0.007006329484283924
0.008331912569701672,-0.004881387576460838,-0.01278525311499834,0.017626963555812836,-0.00014196573465596884,0.007075296714901924
0.00856994092464447,-0.004551926162093878,-0.012966088950634003,0.01732277311384678,-0.0001390467514283955,0.007389578502625227
0.008642761036753654,-0.004225772339850664,-0.012356670573353767,0.016884945333003998,-0.00013560321531258523,0.007999831810593605
0.008222714066505432,-0.004414363298565149,-0.013046653009951115,0.017307300120592117,-0.0001322843600064516,0.007754353806376457
0.008171520195901394,-0.004640121478587389,-0.012527921237051487,0.017094429582357407,-0.00012912129750475287,0.007704869378358126
0.008097399957478046,-0.0046028620563447475,-0.012892113998532295,0.01686282642185688,-0.0001261059514945373,0.007790442556142807
0.008884076029062271,-0.004411233123391867,-0.012933218851685524,0.017061498016119003,-0.00012322791735641658,0.007454863749444485
0.008371643722057343,-0.004475356545299292,-0.012603207491338253,0.017061561346054077,-0.00012047848576912656,0.007123993244022131
0.008460689336061478,-0.004475852474570274,-0.013079908676445484,0.017124656587839127,-0.00011784910020651296,0.006857217755168676
0.008407163433730602,-0.004560560453683138,-0.012426629662513733,0.017222361639142036,-0.00012958917068317533,0.007205788511782885
0.008559402078390121,-0.004398424178361893,-0.013315899297595024,0.01781575381755829,-0.000131416178192012,0.007286062929779291
0.008835116401314735,-0.004560574423521757,-0.012766924686729908,0.017786672338843346,-0.00012902072921860963,0.006981865037232637
0.008835116401314735,-0.004560574423521757,-0.012766924686729908,0.017786672338843346,-0.00012902072921860963,0.006981865037232637
0.008560688234865665,-0.004471838939934969,-0.01327043678611517,0.017240198329091072,-0.00012645033712033182,0.007194528356194496
0.00860904436558485,-0.004819485358893871,-0.012755190953612328,0.017303697764873505,-0.00012396337115205824,0.008019484579563141
0.008793892338871956,-0.004777108784765005,-0.013046802952885628,0.016457628458738327,-0.00012157143646618351,0.00828095804899931
0.008923041634261608,-0.004318184684962034,-0.012990317307412624,0.01679898612201214,-0.00011926970910280943,0.008418707177042961
0.00831947848200798,-0.004503536969423294,-0.012501978315412998,0.01665055938065052,-0.00011705380165949464,0.007980138063430786
0.009046971797943115,-0.004459897987544537,-0.013409407809376717,0.01696205884218216,-0.000114918511826545,0.007685978896915913
0.009017656557261944,-0.004390685353428125,-0.01253292802721262,0.01769818738102913,-0.00011285980144748464,0.007536189164966345
0.008745778352022171,-0.004421969875693321,-0.01285090297460556,0.01724979653954506,-0.00012463940947782248,0.0076699163764715195
0.009396851994097233,-0.004654477816075087,-0.01328046154230833,0.01697445847094059,-0.00012239550414960831,0.00815906934440136
0.008923429995775223,-0.004364437889307737,-0.013093024492263794,0.017075609415769577,-0.00012035757390549406,0.008207837119698524
0.009417364373803139,-0.004297797102481127,-0.013045412488281727,0.017504332587122917,-0.00011837912461487576,0.008212203159928322
0.009298981167376041,-0.004456705879420042,-0.012823862954974174,0.017049672082066536,-0.00011646448547253385,0.0083739273250103
0.009703164920210838,-0.004654441960155964,-0.0124402130022645,0.017382314428687096,-0.000114610513264779,0.008580369874835014
0.009743601083755493,-0.0047254967503249645,-0.013252652250230312,0.01691826432943344,-0.00011497015657369047,0.008239374496042728
0.009570017457008362,-0.00456980150192976,-0.012551533058285713,0.017019273713231087,-0.00011420240480219945,0.007998952642083168
0.0092997495085001,-0.004238958470523357,-0.01296511571854353,0.018043702468276024,-0.00011151286889798939,0.007730708923190832
0.01013198308646679,-0.004351501818746328,-0.012755520641803741,0.016147831454873085,-0.00010882517381105572,0.008503159508109093
0.00960509292781353,-0.004480862524360418,-0.01310511864721775,0.016092510893940926,-0.00010625593859003857,0.008223592303693295
0.009532862342894077,-0.005043444689363241,-0.012810053303837776,0.016237614676356316,-0.00010380495950812474,0.008334551937878132
0.00935070775449276,-0.004987482912838459,-0.012781930156052113,0.01735658012330532,-0.0001204014552058652,0.008596393279731274
0.009956925176084042,-0.004041518550366163,-0.012958324514329433,0.016917722299695015,-0.00011898369120899588,0.008335966616868973
0.009499361738562584,-0.004062866326421499,-0.012562964111566544,0.016489654779434204,-0.00011649748921627179,0.007907696068286896
0.009869281202554703,-0.004108353517949581,-0.012952539138495922,0.0167424026876688,-0.00011404234828660265,0.008494493551552296
0.00990979839116335,-0.004794786684215069,-0.012221994809806347,0.016695387661457062,-0.00011168396304128692,0.008432636968791485
0.00952767115086317,-0.004447302781045437,-0.01296239998191595,0.01688835583627224,-0.00012526579666882753,0.008254101499915123
0.009625359438359737,-0.004529266618192196,-0.012469650246202946,0.016604924574494362,-0.00012496615818236023,0.008341306820511818
0.009625359438359737,-0.004529266618192196,-0.012469650246202946,0.016604924574494362,-0.00012496615818236023,0.008341306820511818
0.010026679374277592,-0.004113408736884594,-0.0135275200009346,0.01676126942038536,-0.0001226753811351955,0.009334598667919636
0.009657920338213444,-0.00414214376360178,-0.012826467864215374,0.01667308621108532,-0.00012034144310746342,0.008987121284008026
0.009855132550001144,-0.004124442581087351,-0.013101894408464432,0.016670458018779755,-0.00011808635463239625,0.009278878569602966
0.010238328017294407,-0.004412227775901556,-0.01292200107127428,0.01686052419245243,-0.00011591362272156402,0.008819271810352802
0.010174175724387169,-0.004594848956912756,-0.012562772259116173,0.017274638637900352,-0.00012795031943824142,0.008131857961416245
0.009465964511036873,-0.004731415770947933,-0.012846311554312706,0.01752585731446743,-0.0001276319526368752,0.008404534310102463
0.009927990846335888,-0.004453442059457302,-0.012321689166128635,0.01725802943110466,-0.00012553404667414725,0.008629271760582924
0.0103016197681427,-0.00424932362511754,-0.013306737877428532,0.016926100477576256,-0.00012339107342995703,0.008813822641968727
0.01018685381859541,-0.0040301550179719925,-0.012621398083865643,0.017464231699705124,-0.00012131258699810132,0.008870554156601429
0.010490620508790016,-0.0039243330247700214,-0.01343876775354147,0.017304474487900734,-0.00015976789291016757,0.00896339863538742
0.00989517755806446,-0.004340445622801781,-0.013015399686992168,0.01750803180038929,-0.00019136477203574032,0.009203593246638775
0.010967363603413105,-0.004446971695870161,-0.01320309191942215,0.017087170854210854,-0.0001787414075806737,0.008727086707949638
0.010243097320199013,-0.00457942858338356,-0.012618697248399258,0.01708497852087021,-0.00017192219092976302,0.009345323778688908
0.01089451089501381,-0.004256591200828552,-0.013101223856210709,0.016923902556300163,-0.00016559549840167165,0.009479444473981857
0.011093951761722565,-0.004170769359916449,-0.012766125611960888,0.01699303463101387,-0.00018335018830839545,0.009008354507386684
0.012447400018572807,-0.004172990098595619,-0.013445337302982807,0.017010441049933434,-0.00018454797100275755,0.009235197678208351
0.010404122062027454,-0.004484260454773903,-0.012689419090747833,0.017108161002397537,-0.00017892016330733895,0.009532616473734379
0.009749951772391796,-0.00466473214328289,-0.013110513798892498,0.017112283036112785,-0.00017321256746072322,0.009183532558381557
0.010329355485737324,-0.004750153981149197,-0.01290140300989151,0.016373295336961746,-0.00016783065802883357,0.008923336863517761
0.01094873622059822,-0.004440290853381157,-0.013045521453022957,0.016307426616549492,-0.00016277139366138726,0.009135903790593147
0.010443121194839478,-0.00404161075130105,-0.013140619732439518,0.016238801181316376,-0.00015800823166500777,0.009336143732070923
0.010557710193097591,-0.004173793364316225,-0.012986570596694946,0.016640719026327133,-0.0001757247227942571,0.009404468350112438
0.010726544074714184,-0.004120685160160065,-0.013084999285638332,0.016863428056240082,-0.00017393023881595582,0.009665904566645622
0.01039873342961073,-0.004263049457222223,-0.012983975932002068,0.017003659158945084,-0.00016945150855462998,0.009704003110527992
0.01079551875591278,-0.004488178063184023,-0.013431952334940434,0.017038848251104355,-0.00016502551443409175,0.009418479166924953
0.010730840265750885,-0.004705215338617563,-0.012869637459516525,0.016252370551228523,-0.0001608134771231562,0.009738230146467686
0.010611503385007381,-0.004436044488102198,-0.013327311724424362,0.01690072752535343,-0.00017626362387090921,0.009848165325820446
0.010862885043025017,-0.004353747703135014,-0.012870236299932003,0.01661428064107895,-0.0001746671332512051,0.010331890545785427
0.010862885043025017,-0.004353747703135014,-0.012870236299932003,0.01661428064107895,-0.0001746671332512051,0.010331890545785427
0.010205383412539959,-0.004145732615143061,-0.013351015746593475,0.01750488020479679,-0.00017070102330762893,0.009966744109988213
0.010192178189754486,-0.004280500113964081,-0.013226152397692204,0.0175334420055151,-0.00016675869119353592,0.009651069529354572
0.010740835219621658,-0.004396633245050907,-0.014305952936410904,0.016504941508173943,-0.0001629845064599067,0.009233473800122738
0.010392510332167149,-0.00430515268817544,-0.013751375488936901,0.0170261412858963,-0.0001594333880348131,0.009612052701413631
0.010951329953968525,-0.004488838370889425,-0.013681748881936073,0.01643282175064087,-0.00018489404465071857,0.009836224839091301
0.010978530161082745,-0.0036917582619935274,-0.013585642911493778,0.016467802226543427,-0.00017960654804483056,0.010507083497941494
0.010894879698753357,-0.002788721350952983,-0.013840577565133572,0.016324972733855247,-0.00017284383648075163,0.010167423635721207
0.011059808544814587,-0.002221128437668085,-0.013492435216903687,0.015678388997912407,-0.00016645761206746101,0.009677493013441563
0.010782194323837757,-0.002501807641237974,-0.013863411732017994,0.015805477276444435,-0.00018571069813333452,0.009908308275043964
0.0109047656878829,-0.0033093781676143408,-0.013717317022383213,0.016314296051859856,-0.00019446724036242813,0.009719493798911572
0.010848020203411579,-0.003428052645176649,-0.014325552619993687,0.016435014083981514,-0.00020200290600769222,0.01019393838942051
0.01119525171816349,-0.0027809771709144115,-0.01371908187866211,0.017056578770279884,-0.00019659876124933362,0.01006961241364479
0.011192206293344498,-0.002567618153989315,-0.013978948816657066,0.017028942704200745,-0.00019070548296440393,0.010135145857930183
0.011097028851509094,-0.0026512301992625,-0.013302832841873169,0.016889238730072975,-0.0001980827219085768,0.010265093296766281
0.01115071214735508,-0.002822381444275379,-0.014226875267922878,0.016819022595882416,-0.00020463172404561192,0.010214513167738914
0.010976663790643215,-0.0025929491966962814,-0.01370325032621622,0.01635679416358471,-0.00019974992028437555,0.010407192632555962
0.01070017833262682,-0.002634336706250906,-0.014468474313616753,0.01646348275244236,-0.00019440821779426187,0.010124975815415382
0.01102069579064846,-0.0024084632750600576,-0.013225399889051914,0.01646115817129612,-0.0001895443710964173,0.010628955438733101
0.010722181759774685,-0.0022663550917059183,-0.013886561617255211,0.016388224437832832,-0.0002778599737212062,0.01085385587066412
0.01108581479638815,-0.0022735116071999073,-0.013846680521965027,0.016209108754992485,-0.00026786248781718314,0.011047055013477802
0.011136464774608612,-0.002162957563996315,-0.014270351268351078,0.016231542453169823,-0.000253212550887838,0.010854862630367279
0.010781596414744854,-0.0023122853599488735,-0.013351621106266975,0.016349516808986664,-0.00028438662411645055,0.010778764262795448
0.011324789375066757,-0.002229488454759121,-0.013519484549760818,0.016037199646234512,-0.00027292416780255735,0.01102325040847063
0.011362235993146896,-0.0021899279672652483,-0.01335351075977087,0.016353419050574303,-0.0002811298763845116,0.010975421406328678
0.011085852980613708,-0.0020935661159455776,-0.013836853206157684,0.01632062718272209,-0.00028793103410862386,0.010191003791987896
0.011479451321065426,-0.0020788731053471565,-0.013681760989129543,0.016558945178985596,-0.00027657372993417084,0.010554617270827293
0.010895155370235443,-0.0021847563330084085,-0.014045650139451027,0.01626739837229252,-0.00029299838934093714,0.010462548583745956
0.011957237496972084,-0.002011660486459732,-0.01349511370062828,0.01654282584786415,-0.00029001221992075443,0.01015935093164444
0.011267732828855515,-0.0020740984473377466,-0.013438014313578606,0.016966795548796654,-0.00027933658566325903,0.010464062914252281
0.011276749894022942,-0.001997382380068302,-0.013651606626808643,0.016919143497943878,-0.00026893793256022036,0.010827888734638691
0.011769470758736134,-0.0019908109679818153,-0.013399246148765087,0.017034919932484627,-0.00032514496706426144,0.01105000264942646
0.011769470758736134,-0.0019908109679818153,-0.013399246148765087,0.017034919932484627,-0.00032514496706426144,0.01105000264942646
0.011132513172924519,-0.0021790850441902876,-0.013619296252727509,0.016434065997600555,-0.00032360231853090227,0.010837524197995663
0.01154749933630228,-0.0020921274553984404,-0.013249291107058525,0.016364943236112595,-0.0003596349561121315,0.010803858749568462
0.01146713923662901,-0.0021885165479034185,-0.013885481283068657,0.016543829813599586,-0.0003407092299312353,0.011483372189104557
0.011838885955512524,-0.0021009203046560287,-0.013329138979315758,0.016583183780312538,-0.00032071201712824404,0.011608623899519444
0.011974092572927475,-0.002289113122969866,-0.014011153019964695,0.01699918881058693,-0.00034639271325431764,0.011333142407238483
0.011443720199167728,-0.001980203902348876,-0.01346933376044035,0.016469312831759453,-0.000333997217239812,0.01123415119946003
0.012434092350304127,-0.0018387868767604232,-0.012958160601556301,0.016391633078455925,-0.0003397324471734464,0.011542205698788166
0.011752724647521973,-0.0021183935459703207,-0.013891532085835934,0.016713259741663933,-0.00032931772875599563,0.011448308825492859
0.0134317921474576,-0.0021751911845058203,-0.01332459133118391,0.01689753867685795,-0.0003152322315145284,0.01149524562060833
0.013921093195676804,-0.002166259801015258,-0.013812017627060413,0.016519518569111824,-0.0003020270960405469,0.01142074353992939
0.014117087237536907,-0.0022835133131593466,-0.01364927925169468,0.017109597101807594,-0.00032306741923093796,0.011317011900246143
0.01354592852294445,-0.0021897032856941223,-0.013833320699632168,0.016499139368534088,-0.00033162737963721156,0.01155181135982275
0.014111156575381756,-0.0021169495303183794,-0.013615450821816921,0.016782410442829132,-0.000310830888338387,0.011871741153299809
0.013593711890280247,-0.0020411743316799402,-0.013773318380117416,0.018023068085312843,-0.00029086723225191236,0.011923086829483509
0.013901247642934322,-0.002049409318715334,-0.013656319119036198,0.017094841226935387,-0.00027320728986524045,0.011866732500493526
0.013522944413125515,-0.0020000040531158447,-0.01334221102297306,0.01685529202222824,-0.0002575635153334588,0.011470001190900803
0.013718720525503159,-0.002089309273287654,-0.013947210274636745,0.016451282426714897,-0.0002436143986415118,0.01183965615928173
0.013783273287117481,-0.002101591322571039,-0.013729143887758255,0.01717815361917019,-0.0002310984709765762,0.012035096064209938
0.014138156548142433,-0.0023210037034004927,-0.013721246272325516,0.01714758388698101,-0.00021980762539897114,0.01165921613574028
0.013830795884132385,-0.00208282214589417,-0.013164900243282318,0.01745934970676899,-0.00023004320973996073,0.012056850828230381
0.01454239897429943,-0.0021382078994065523,-0.013928019441664219,0.01691948063671589,-0.00023888815485406667,0.012094559147953987
0.014261298812925816,-0.0019536579493433237,-0.013442260213196278,0.016571475192904472,-0.00022995796462055296,0.012144530192017555
0.014724153093993664,-0.0019978685304522514,-0.014110048301517963,0.017009565606713295,-0.00022064123186282814,0.011989164166152477
0.014724153093993664,-0.0019978685304522514,-0.014110048301517963,0.017009565606713295,-0.00022064123186282814,0.011989164166152477
0.014018753543496132,-0.0018386527663096786,-0.013163329102098942,0.016506440937519073,-0.00021198403555899858,0.011738291010260582
0.013714981265366077,-0.001955549232661724,-0.013993716798722744,0.016458705067634583,-0.00020397543266881257,0.012216100469231606
0.013879497535526752,-0.0020598480477929115,-0.013503020629286766,0.016337163746356964,-0.00019654982315842062,0.011410285718739033
0.014102685265243053,-0.00228973850607872,-0.014079750515520573,0.01650194078683853,-0.00018964626360684633,0.011240312829613686
0.014498535543680191,-0.0022242176346480846,-0.013355295173823833,0.016747018322348595,-0.00018321092647965997,0.01180596649646759
0.014057520776987076,-0.0021137972362339497,-0.014112928882241249,0.016159122809767723,-0.0001916781038744375,0.011961543001234531
0.014391310513019562,-0.0017703119665384293,-0.013728266581892967,0.016610166057944298,-0.00019917997997254133,0.012142878025770187
0.014372275210916996,-0.001947477925568819,-0.01389482244849205,0.01654784008860588,-0.00019393404363654554,0.012272640131413937
0.01364925317466259,-0.0020670434460043907,-0.013758397661149502,0.01702439971268177,-0.00018819815886672586,0.012645433656871319
0.01419643871486187,-0.002079209079965949,-0.013868800364434719,0.01655997894704342,-0.0001827424712246284,0.012156026437878609
0.01453367993235588,-0.0023322284687310457,-0.013778671622276306,0.016302796080708504,-0.00017759086040314287,0.013943682424724102
0.014381302520632744,-0.002103928942233324,-0.01374058984220028,0.016555804759263992,-0.00017272212426178157,0.012311451137065887
0.014364280737936497,-0.0018988614901900291,-0.013780050911009312,0.01724918931722641,-0.00018556677969172597,0.012692941352725029
0.014609946869313717,-0.001758698490448296,-0.013878307305276394,0.01686672680079937,-0.00018229155102744699,0.012369348667562008
0.014845078811049461,-0.001768042566254735,-0.013650222681462765,0.016628088429570198,-0.0001778804580681026,0.012786829844117165
0.014406416565179825,-0.0018427646718919277,-0.01419859379529953,0.016094151884317398,-0.00017359778576064855,0.012803100980818272
0.014238842763006687,-0.0018384483410045505,-0.01400468498468399,0.01579526625573635,-0.00016951085126493126,0.013253433629870415
0.014414642937481403,-0.0021637871395796537,-0.014042351394891739,0.016124803572893143,-0.00016561162192374468,0.013042476028203964
0.014441640116274357,-0.002007789444178343,-0.013400488533079624,0.016283996403217316,-0.00014296334120444953,0.012948529794812202
0.014322684146463871,-0.0021740510128438473,-0.014150180853903294,0.016886206343770027,-0.0001361538888886571,0.012805184349417686
0.015034652315080166,-0.0020134185906499624,-0.01383897103369236,0.016850000247359276,-0.00013199793465901166,0.012854130938649178
0.013164335861802101,-0.001986465882509947,-0.014081322588026524,0.01656402461230755,-0.000128225379739888,0.013006213121116161
0.01498439721763134,-0.0019010752439498901,-0.01377990934997797,0.01664859987795353,-0.00012467197666410357,0.012771518900990486
0.014621327631175518,-0.0019201684044674039,-0.01455056294798851,0.01672140136361122,-0.0001439450861653313,0.012748469598591328
0.014385678805410862,-0.0018928294302895665,-0.013810903765261173,0.017561383545398712,-0.00014164521417114884,0.012877121567726135
0.01468636840581894,-0.0019362819148227572,-0.014301146380603313,0.017300626263022423,-0.00015810781042091548,0.013239184394478798
0.01461386401206255,-0.0017585461027920246,-0.013800651766359806,0.017498301342129707,-0.00015692852321080863,0.013124202378094196
0.01461386401206255,-0.0017585461027920246,-0.013800651766359806,0.017498301342129707,-0.00015692852321080863,0.013124202378094196
0.014425599947571754,-0.0018930361839011312,-0.014437451027333736,0.01745559647679329,-0.00017372523143421859,0.013183731585741043
0.014979319646954536,-0.00177473621442914,-0.014262506738305092,0.016954058781266212,-0.00017094523354899138,0.012838512659072876
0.014797228388488293,-0.001947062904946506,-0.014697643928229809,0.016435852274298668,-0.00035654791281558573,0.012980947270989418
0.01509746816009283,-0.0017865760019049048,-0.013898455537855625,0.015665361657738686,-0.0003552385896909982,0.013173260726034641
0.014971519820392132,-0.0017508772434666753,-0.014845389872789383,0.016342580318450928,-0.00033086465555243194,0.013325300998985767
0.015200900845229626,-0.0017621119040995836,-0.013994399458169937,0.016497988253831863,-0.0003656345943454653,0.013192776590585709
0.014913766644895077,-0.0018011612119153142,-0.014553220942616463,0.016824526712298393,-0.0003459483850747347,0.012571457773447037
0.015303749591112137,-0.0018059015274047852,-0.014106410555541515,0.016586216166615486,-0.0003253409522585571,0.01267194002866745
0.015008251182734966,-0.0021375517826527357,-0.014886128716170788,0.01636834628880024,-0.0003317762748338282,0.012621712870895863
0.014981752261519432,-0.0020738253369927406,-0.014706891030073166,0.015986766666173935,-0.00032134639332070947,0.013026515953242779
0.015737246721982956,-0.001837518298998475,-0.014090868644416332,0.016384495422244072,-0.000305839377688244,0.013504165224730968
0.015373027883470058,-0.001812849543057382,-0.0144916120916605,0.016211722046136856,-0.00029168205219320953,0.01343093067407608
0.015482510440051556,-0.0018125645583495498,-0.014110203832387924,0.016374127939343452,-0.00027877328102476895,0.01386129017919302
0.01509883627295494,-0.002104334533214569,-0.014962120912969112,0.01668623462319374,-0.0003000060678459704,0.013853581622242928
0.015216581523418427,-0.0019498198525980115,-0.01402655802667141,0.01684069074690342,-0.0002923564170487225,0.013867276720702648
0.015477149747312069,-0.0020804842934012413,-0.014614061452448368,0.016809185966849327,-0.0003025214246008545,0.013797127641737461
0.015510007739067078,-0.0019259523833170533,-0.014561762101948261,0.01640975847840309,-0.0003365004959050566,0.01346118375658989
0.015563152730464935,-0.0019335419638082385,-0.014976306818425655,0.016538944095373154,-0.00032336116419173777,0.013459871523082256
0.015195492655038834,-0.0017994586378335953,-0.014328553341329098,0.016126349568367004,-0.0003055195847991854,0.013291772454977036
0.015749625861644745,-0.0019322014413774014,-0.014894552528858185,0.016330743208527565,-0.00033405330032110214,0.014892092905938625
0.015600075013935566,-0.0018005955498665571,-0.013832657597959042,0.016585635021328926,-0.0003200083156116307,0.013515294529497623
0.015940213575959206,-0.00197319476865232,-0.016146549955010414,0.016413789242506027,-0.0003047174832317978,0.013900583609938622
0.015238478779792786,-0.0020311600528657436,-0.013857990503311157,0.01636861450970173,-0.00032934840419329703,0.013728571124374866
0.016032332554459572,-0.002054100390523672,-0.014620207250118256,0.016235142946243286,-0.00031735311495140195,0.013995299115777016
0.015969891101121902,-0.001959952525794506,-0.015064414590597153,0.016805369406938553,-0.00030411078478209674,0.013625076040625572
0.015930190682411194,-0.0019587520509958267,-0.015255354344844818,0.016916459426283836,-0.000384376646252349,0.01430642232298851
0.016185855492949486,-0.0018724427791312337,-0.014542884193360806,0.017202477902173996,-0.000382690952392295,0.014283466152846813
0.016256580129265785,-0.0018291639862582088,-0.01461231429129839,0.0175588708370924,-0.0003545517392922193,0.014527886174619198
0.016256580129265785,-0.0018291639862582088,-0.01461231429129839,0.0175588708370924,-0.0003545517392922193,0.014527886174619198
0.01566891372203827,-0.0016805886989459395,-0.01487375795841217,0.016525333747267723,-0.00036543759051710367,0.014324691146612167
0.016495419666171074,-0.0016557470662519336,-0.014733989723026752,0.015635885298252106,-0.0003440552100073546,0.01397348940372467
0.016495419666171074,-0.0016557470662519336,-0.014733989723026752,0.015635885298252106,-0.0003440552100073546,0.01397348940372467
0.016545932739973068,-0.0018220589263364673,-0.014978859573602676,0.015643980354070663,-0.000370189780369401,0.014442900195717812
0.016775211319327354,-0.0018407414900138974,-0.014854969456791878,0.01548608485609293,-0.00035566792939789593,0.014297599904239178
0.01678375154733658,-0.0017013822216540575,-0.015134823508560658,0.017159903421998024,-0.0003673014580272138,0.014555157162249088
0.01675075851380825,-0.0015893197851255536,-0.014900983311235905,0.016726378351449966,-0.0004317587008699775,0.014999927952885628
0.016863422468304634,-0.0016065880190581083,-0.014939060434699059,0.017231270670890808,-0.00046891282545402646,0.015013338066637516
0.017404550686478615,-0.0014647099887952209,-0.014908197335898876,0.01714925654232502,-0.000440450559835881,0.015776755288243294
0.017379868775606155,-0.0014942851848900318,-0.015385222621262074,0.0175124853849411,-0.0004664746520575136,0.015352639369666576
0.01764254830777645,-0.0014077919768169522,-0.014943436719477177,0.017372557893395424,-0.0004417824966367334,0.015297641977667809
0.017893321812152863,-0.00142812414560467,-0.015178718604147434,0.016902590170502663,-0.000413309084251523,0.015322711318731308
0.017438143491744995,-0.0013481532223522663,-0.014293579384684563,0.017221752554178238,-0.000428685249062255,0.015371102839708328
0.017491348087787628,-0.0012950845994055271,-0.015048093162477016,0.016233984380960464,-0.00041662229341454804,0.015155384317040443
0.017314212396740913,-0.0013764690374955535,-0.014654763042926788,0.016421813517808914,-0.0003954624990001321,0.015303158201277256
0.017600592225790024,-0.0015659919008612633,-0.015115482732653618,0.016301169991493225,-0.0004458432667888701,0.015367292799055576
0.018039697781205177,-0.0014889637241140008,-0.014654499478638172,0.01680861786007881,-0.00041098048677667975,0.015618876554071903
0.018039297312498093,-0.0013899417826905847,-0.015232839621603489,0.017439285293221474,-0.0003769082250073552,0.015539389103651047
0.018109098076820374,-0.0014327450189739466,-0.014739437028765678,0.017210939899086952,-0.00040779507253319025,0.015157864429056644
0.01834540069103241,-0.0013674375368282199,-0.015044540166854858,0.017442505806684494,-0.0003867517807520926,0.015355587005615234
0.017988312989473343,-0.001296711852774024,-0.014388587325811386,0.016681505367159843,-0.00041343411430716515,0.015463653951883316
0.018739109858870506,-0.0011628724168986082,-0.015142473392188549,0.016727492213249207,-0.0004221237904857844,0.015492386184632778
0.0185535941272974,-0.0012357470113784075,-0.014555550180375576,0.016677025705575943,-0.0004230589547660202,0.015316043980419636
0.018132111057639122,-0.0012154264841228724,-0.015280426479876041,0.016545625403523445,-0.0004028345865663141,0.01532462053000927
0.018651174381375313,-0.0012200401397421956,-0.015109224244952202,0.01703365333378315,-0.00045160233275964856,0.0153813436627388
0.018455829471349716,-0.0012985164066776633,-0.015224473550915718,0.016506565734744072,-0.0004157148068770766,0.015846047550439835
0.01833976060152054,-0.001266354345716536,-0.014819449745118618,0.01717274822294712,-0.0004516227636486292,0.01446629036217928
0.018511148169636726,-0.001199960708618164,-0.014902670867741108,0.017329523339867592,-0.000421028962591663,0.014514375478029251
0.01905183680355549,-0.001168556627817452,-0.014690784737467766,0.016951488330960274,-0.00039083886076696217,0.015242003835737705
0.018789231777191162,-0.001133715733885765,-0.015164857730269432,0.017191004008054733,-0.00040914095006883144,0.015909403562545776
0.018716705963015556,-0.0010979461949318647,-0.015499256551265717,0.016767581924796104,-0.0003972590493503958,0.015757648274302483
0.018716705963015556,-0.0010979461949318647,-0.015499256551265717,0.016767581924796104,-0.0003972590493503958,0.015757648274302483
0.018716705963015556,-0.0010979461949318647,-0.015499256551265717,0.016767581924796104,-0.0003972590493503958,0.015757648274302483
0.019173607230186462,-0.0010348273208364844,-0.01508651115000248,0.0167862456291914,-0.00039080294664017856,0.015861712396144867
0.019060049206018448,-0.000997188501060009,-0.015083709731698036,0.017066504806280136,-0.0003640752111095935,0.015599842183291912
0.01910253055393696,-0.0009364112629555166,-0.015055913478136063,0.016741231083869934,-0.0003753493947442621,0.015591378323733807
0.019131766632199287,-0.0009071316453628242,-0.01568734273314476,0.016754860058426857,-0.00034895623684860766,0.01569799892604351
0.01907438039779663,-0.0009370830375701189,-0.01479574479162693,0.016393451020121574,-0.0003239922516513616,0.01566222682595253
0.01922452263534069,-0.0009056305862031877,-0.015490967780351639,0.016689741984009743,-0.00034669149317778647,0.015813235193490982
0.019442850723862648,-0.0008451383910141885,-0.01509345043450594,0.016624141484498978,-0.0003387958859093487,0.015851985663175583
0.018991393968462944,-0.0008729349356144667,-0.014907742850482464,0.016535209491848946,-0.000319640152156353,0.015750279650092125
0.019496405497193336,-0.0008774212328717113,-0.01426639873534441,0.016514193266630173,-0.0003486534988041967,0.01573787070810795
0.019686201587319374,-0.0008804781828075647,-0.015014744363725185,0.016172967851161957,-0.0003332614141982049,0.01597089320421219
0.019455788657069206,-0.000883679196704179,-0.014564055018126965,0.016666458919644356,-0.00031670319731347263,0.016215795651078224
0.0194432120770216,-0.001013889443129301,-0.015347872860729694,0.01626940816640854,-0.00030155235435813665,0.016206393018364906
0.019586138427257538,-0.000996844726614654,-0.01500874012708664,0.016526149585843086,-0.0002877754741348326,0.016463613137602806
0.019720349460840225,-0.0009831453207880259,-0.015431406907737255,0.016838012263178825,-0.0002752015134319663,0.016369260847568512
0.01966501772403717,-0.0009068815852515399,-0.015086369588971138,0.016600070521235466,-0.0002821050293277949,0.0163837019354105
0.01966501772403717,-0.0009068815852515399,-0.015086369588971138,0.016600070521235466,-0.0002821050293277949,0.0163837019354105
0.01934301108121872,-0.0009204326197504997,-0.015355910174548626,0.016434216871857643,-0.0002879851090256125,0.016354121267795563
0.019502470269799232,-0.000916950055398047,-0.015085446648299694,0.016226474195718765,-0.00027798651717603207,0.016620779410004616
0.019975945353507996,-0.0007854928262531757,-0.015871146693825722,0.01673116348683834,-0.00026772156707011163,0.01687588356435299
0.020046580582857132,-0.0006856818217784166,-0.015921611338853836,0.01612827181816101,-0.00025812649982981384,0.01661043055355549
0.01971377432346344,-0.0006083740736357868,-0.015446693636476994,0.016556216403841972,-0.000249192031333223,0.016866115853190422
0.01934746652841568,-0.0005467446171678603,-0.0161967221647501,0.016450578346848488,-0.00023940668324939907,0.01653573475778103
0.02000347152352333,-0.0004964529071003199,-0.015218163840472698,0.016070932149887085,-0.00022693951905239373,0.016844743862748146
0.019852038472890854,-0.00045463856076821685,-0.015583112835884094,0.01583973504602909,-0.0002160173753509298,0.01704816333949566
0.019701238721609116,-0.00041932499152608216,-0.015258285216987133,0.015648486092686653,-0.00024452112847939134,0.01717313379049301
0.01960510015487671,-0.0003629442653618753,-0.015504943206906319,0.015858078375458717,-0.00026301643811166286,0.01851297914981842
0.019680198282003403,-0.00034008341026492417,-0.01624768227338791,0.01652371510863304,-0.00028738658875226974,0.01664513349533081
0.019769197329878807,-0.0003199318307451904,-0.015583520755171776,0.016389641910791397,-0.000537669810000807,0.016108188778162003
0.020659850910305977,-0.00035030144499614835,-0.015537818893790245,0.017008086666464806,-0.0005545265739783645,0.016648873686790466
0.0200757198035717,-0.00033367841388098896,-0.015448573045432568,0.016838613897562027,-0.0005842205137014389,0.016820913180708885
0.020449604839086533,-0.00031691763433627784,-0.015521583147346973,0.016489265486598015,-0.0005379282520152628,0.016832463443279266
0.02019055373966694,-0.0003017374547198415,-0.016001446172595024,0.016769085079431534,-0.0004898587940260768,0.01740841194987297
0.0189348254352808,-0.00028794538229703903,-0.015641503036022186,0.01598329283297062,-0.0005186468479223549,0.01749698631465435
0.02078619971871376,-0.00027535978006199,-0.0162106454372406,0.01634531468153,-0.00048336791223846376,0.017235957086086273
0.020774709060788155,-0.00026382756186649203,-0.015441778115928173,0.016472283750772476,-0.0004491775471251458,0.01726486347615719
0.020722495391964912,-0.00025322273722849786,-0.015650887042284012,0.016966573894023895,-0.00047103562974371016,0.017034519463777542
0.01999431475996971,-0.00024343717086594552,-0.014803328551352024,0.017009275034070015,-0.00044873368460685015,0.016742534935474396
0.020788811147212982,-0.0002343809901503846,-0.015449688769876957,0.016397979110479355,-0.00042283121729269624,0.016768138855695724
0.02083592675626278,-0.00022597315546590835,-0.015323251485824585,0.016484348103404045,-0.00039490338531322777,0.017353136092424393
0.020541420206427574,-0.00021814845968037844,-0.01573345810174942,0.015986032783985138,-0.00036340521182864904,0.017546771094202995
0.020550265908241272,-0.00021084757463540882,-0.015554087236523628,0.016278427094221115,-0.0003688624710775912,0.01747838966548443
0.020550265908241272,-0.00021084757463540882,-0.015554087236523628,0.016278427094221115,-0.0003688624710775912,0.01747838966548443
0.020820334553718567,-7.23136545275338e-05,-0.015673667192459106,0.016488702967762947,-0.0003731723700184375,0.017254266887903214
0.020119519904255867,-6.444411701522768e-05,-0.015451540239155293,0.017014160752296448,-0.00039391775499098003,0.017041470855474472
0.020224837586283684,-6.214791210368276e-05,-0.01557169109582901,0.017293646931648254,-0.0003834927920252085,0.017509495839476585
0.020595194771885872,-6.00727871642448e-05,-0.01571487821638584,0.016622934490442276,-0.0004070948634762317,0.017629453912377357
0.021380016580224037,-5.813371899421327e-05,-0.015291497111320496,0.01659880019724369,-0.0003911559469997883,0.017521070316433907
0.0210739653557539,-5.631412932416424e-05,-0.015817446634173393,0.016581811010837555,-0.0005150196957401931,0.01761418581008911
0.02077171579003334,-5.4605705372523516e-05,-0.01523449644446373,0.016777411103248596,-0.00048190157394856215,0.017372846603393555
0.02104296162724495,-5.2997875172877684e-05,-0.01553095132112503,0.01691235601902008,-0.0005004171398468316,0.017304807901382446
0.020697588101029396,-5.148279888089746e-05,-0.015126079320907593,0.016433006152510643,-0.00047605097643099725,0.017339661717414856
0.02129681594669819,-4.8696514568291605e-05,-0.015578916296362877,0.01626560091972351,-0.0004709036147687584,0.017186423763632774
0.02161870338022709,-4.741451266454533e-05,-0.01590738072991371,0.01634133979678154,-0.0004863486683461815,0.017498010769486427
0.0214520450681448,-4.619753599399701e-05,-0.015375264920294285,0.016316646710038185,-0.00046918311272747815,0.017865551635622978
0.021242784336209297,-4.5041542762191966e-05,-0.01526867039501667,0.01690663956105709,-0.0005122842267155647,0.017902368679642677
0.02143068052828312,-4.39420691691339e-05,-0.015486875548958778,0.01730792038142681,-0.0005580190336331725,0.0178204532712698
0.021561231464147568,-2.1742196622653864e-05,-0.015163855627179146,0.017239604145288467,-0.000574044301174581,0.018241938203573227
0.02156277932226658,-2.0952196791768074e-05,-0.01552493590861559,0.017137357965111732,-0.0005817867931909859,0.01812889613211155
0.021538134664297104,-2.047179987130221e-05,-0.015507632866501808,0.016163289546966553,-0.0005746280075982213,0.017791368067264557
0.02147207222878933,-2.0016468624817207e-05,-0.01602308824658394,0.016511430963873863,-0.0008448120206594467,0.019597560167312622
0.022048454731702805,-1.9580980733735487e-05,-0.015391623601317406,0.016242995858192444,-0.0008035087957978249,0.017979012802243233
0.021638648584485054,-1.9164042896591127e-05,-0.01611432246863842,0.016863645985722542,-0.0008047037408687174,0.017921224236488342
0.02165253274142742,-1.8764458218356594e-05,-0.01560557447373867,0.017171282321214676,-0.0007257855613715947,0.017951717600226402
0.021557921543717384,-1.8381275367573835e-05,-0.01598549447953701,0.016323644667863846,-0.0006515231798402965,0.017636142671108246
0.021923333406448364,-1.8013384760706685e-05,-0.01592058502137661,0.01647285930812359,-0.0006311139441095293,0.017981912940740585
0.021664196625351906,-1.765991692082025e-05,-0.015936966985464096,0.015507779084146023,-0.0006140513578429818,0.01821303181350231
0.021664196625351906,-1.765991692082025e-05,-0.015936966985464096,0.015507779084146023,-0.0006140513578429818,0.01821303181350231
0.0220589991658926,-5.923362550674938e-06,-0.01645313948392868,0.015906399115920067,-0.00057134561939165,0.01819748245179653
0.022019457072019577,-7.946946567471969e-08,-0.016134953126311302,0.015679338946938515,-0.0005063326680101454,0.018487652763724327
0.022193668410182,-1.0661844740411652e-09,-0.016250494867563248,0.015802137553691864,-0.00045500652049668133,0.01839555613696575
0.02238096296787262,-1.430422447157298e-11,-0.01554983202368021,0.016081374138593674,-0.00048433951451443136,0.01859087310731411
0.022465061396360397,-1.9190943593375837e-13,-0.016255950555205345,0.01589607261121273,-0.0004533185565378517,0.01871427521109581
0.022114373743534088,-2.574709956142899e-15,-0.016161028295755386,0.01608630269765854,-0.0004836292064283043,0.018754687160253525
0.022348960861563683,-3.454301936682258e-17,-0.01647482067346573,0.015694359317421913,-0.0005090297199785709,0.01889638788998127
0.022917719557881355,-4.634386915307969e-19,-0.016913700848817825,0.01599656231701374,-0.0005595791735686362,0.019075121730566025
0.02284855954349041,-6.217621819909174e-21,-0.016424011439085007,0.014637387357652187,-0.000619290629401803,0.01903986744582653
0.022298848256468773,-1.1191498664889025e-24,-0.016613563522696495,0.017150528728961945,-0.0007017051102593541,0.019180145114660263
0.021280616521835327,-1.5014825639610927e-26,-0.016829999163746834,0.017033660784363747,-0.0006661104271188378,0.01901991106569767
0.023295165970921516,-2.0144303975623396e-28,-0.016016555950045586,0.016537576913833618,-0.0008624657639302313,0.019556576386094093
0.023533010855317116,-2.7026155493201707e-30,-0.01660855859518051,0.015880057588219643,-0.0007416100124828517,0.020117873325943947
0.02333420142531395,-3.6259034259235345e-32,-0.016980480402708054,0.016147848218679428,-0.0006376019446179271,0.019351890310645103
0.022684266790747643,-4.864612097677702e-34,-0.016750246286392212,0.01589427888393402,-0.0005583586171269417,0.019062919542193413
0.023318326100707054,-6.526497599263628e-36,-0.01689975894987583,0.01648091897368431,-0.0005886420258320868,0.01868469826877117
0.0229160338640213,-8.756129481846466e-38,-0.015723349526524544,0.0161133985966444,-0.0005361405201256275,0.01872831955552101
0.022567447274923325,-1.174746337702031e-39,-0.0167926587164402,0.016125962138175964,-0.0004880193737335503,0.018966512754559517
0.022977078333497047,-1.5760403828261218e-41,-0.016276869922876358,0.01628798060119152,-0.0004475571040529758,0.01932646706700325
0.023288488388061523,-2.1159606811304738e-43,-0.016850028187036514,0.016432447358965874,-0.0004772844258695841,0.019643625244498253
0.022946517914533615,-2.802596928649634e-45,-0.01676717773079872,0.01708230935037136,-0.0004475348978303373,0.01925257220864296
0.02332688868045807,-0.0,-0.016236726194620132,0.016318267211318016,-0.0004180906689725816,0.01920357719063759
0.023826172575354576,0.0,-0.016907524317502975,0.01625850796699524,-0.000444184523075819,0.01902402937412262
0.023940350860357285,0.0,-0.01578954979777336,0.015527700074017048,-0.0004233793879393488,0.01957882009446621
0.023940350860357285,0.0,-0.01578954979777336,0.015527700074017048,-0.0004233793879393488,0.01957882009446621
0.023307299241423607,0.0,-0.016362711787223816,0.015664201229810715,-0.0003273487091064453,0.019837327301502228
0.023609142750501633,0.0,-0.0162818506360054,0.015974806621670723,-0.0003453976532910019,0.019435405731201172
0.02373650297522545,0.0,-0.016240574419498444,0.016179395839571953,-0.0003373319050297141,0.019114159047603607
0.02341240644454956,0.0,-0.016548041254281998,0.016969621181488037,-0.00031832230160944164,0.019209779798984528
0.024002375081181526,0.0,-0.016850054264068604,0.017095964401960373,-0.00034729597973637283,0.019448019564151764
0.024128004908561707,0.0,-0.016905350610613823,0.017201663926243782,-0.0003320315736345947,0.018977569416165352
0.023638291284441948,0.0,-0.016024773940443993,0.016779998317360878,-0.000315593380946666,0.01974571868777275
0.023971816524863243,0.0,-0.01649237796664238,0.016777733340859413,-0.0003405367606319487,0.02017885074019432
0.02421887405216694,0.0,-0.01652071438729763,0.016867604106664658,-0.0003276457136962563,0.0202520452439785
0.02401404269039631,0.0,-0.016394473612308502,0.01699170097708702,-0.00044847693061456084,0.02003902941942215
0.02410777471959591,7.683716103201732e-05,-0.016256147995591164,0.016519274562597275,-0.00048788179992698133,0.019461754709482193
0.0238532405346632,0.00026606922619976103,-0.016891341656446457,0.01690182089805603,-0.0005200088489800692,0.019809043034911156
0.02430521883070469,0.0002536755346227437,-0.01656789891421795,0.01593565009534359,-0.0007617084193043411,0.02027033269405365
0.024076711386442184,0.00024016990209929645,-0.016701487824320793,0.015819812193512917,-0.0009708258439786732,0.02017388492822647
0.024382511153817177,0.00022800121223554015,-0.01638348028063774,0.016036419197916985,-0.000971873349044472,0.020112181082367897
0.024467989802360535,0.0002170053485315293,-0.016687752678990364,0.015962766483426094,-0.0009316306095570326,0.020396053791046143
0.0239616297185421,0.00024784234119579196,-0.017229486256837845,0.016590023413300514,-0.000873324868734926,0.020781295374035835
0.024469871073961258,0.00023749168030917645,-0.016446059569716454,0.016231480985879898,-0.000830683798994869,0.020448021590709686
0.02416226826608181,0.0002648771624080837,-0.016911208629608154,0.0165502168238163,-0.0007479886407963932,0.020696621388196945
0.02404046058654785,0.0002785417891573161,-0.016370847821235657,0.016449276357889175,-0.0006442481535486877,0.020638445392251015
0.02588830143213272,0.0002795840264298022,-0.016861114650964737,0.01661437191069126,-0.0006174662848934531,0.020487068220973015
0.02505456656217575,0.0002692859270609915,-0.01679251343011856,0.01686783879995346,-0.000597052916418761,0.020837930962443352
0.025068514049053192,0.00025958000333048403,-0.016602741554379463,0.01666935347020626,-0.000540384033229202,0.02100985310971737
0.024671394377946854,0.00033601216273382306,-0.016633914783596992,0.0168897807598114,-0.0005618990398943424,0.020513303577899933
0.0247910525649786,0.00032317580189555883,-0.016200711950659752,0.0162524227052927,-0.0005609639338217676,0.020476246252655983
0.024649817496538162,0.00030165916541591287,-0.016906997188925743,0.016191592440009117,-0.0005516239907592535,0.021156825125217438
0.025804370641708374,0.0003196909383405,-0.01639522612094879,0.016113776713609695,-0.0005050615291111171,0.02124161832034588
0.025804370641708374,0.0003196909383405,-0.01639522612094879,0.016113776713609695,-0.0005050615291111171,0.02124161832034588
0.02630031295120716,0.00035088881850242615,-0.016595302149653435,0.016661053523421288,-0.00048328685807064176,0.021366620436310768
0.02630031295120716,0.00035088881850242615,-0.016595302149653435,0.016661053523421288,-0.00048328685807064176,0.021366620436310768
0.025177083909511566,0.00037491958937607706,-0.01663687266409397,0.015998374670743942,-0.0005174866528250277,0.02133169211447239
0.025132814422249794,0.00036256026942282915,-0.01689721643924713,0.016631966456770897,-0.0005422152462415397,0.021248482167720795
0.025846252217888832,0.0005278640310280025,-0.016558803617954254,0.01633850857615471,-0.0007670914637856185,0.021260827779769897
0.025693485513329506,0.0005154836690053344,-0.016886871308088303,0.0167013518512249,-0.0007487375405617058,0.021229906007647514
0.025845874100923538,0.0005395279149524868,-0.016787955537438393,0.016487834975123405,-0.0006644559325650334,0.021701686084270477
0.026648325845599174,0.0005048763705417514,-0.017107505351305008,0.01635945588350296,-0.0005919947871007025,0.02161160297691822
0.026271874085068703,0.0004675155505537987,-0.01689710095524788,0.01620507799088955,-0.0006159187760204077,0.021654287353157997
0.026362990960478783,0.0004964883555658162,-0.01743755117058754,0.01660832390189171,-0.000625177170149982,0.021800952032208443
0.025971025228500366,0.0005280927289277315,-0.016664162278175354,0.016405977308750153,-0.0005923674325458705,0.021570323035120964
0.026185059919953346,0.000566924165468663,-0.0172155499458313,0.016798105090856552,-0.00053901452338323,0.021995656192302704
0.026824412867426872,0.0006209160201251507,-0.01764279045164585,0.016471493989229202,-0.00048243984929285944,0.02197686769068241
0.02723885327577591,0.0006280471570789814,-0.017285579815506935,0.01647063158452511,-0.0005165867623873055,0.02235928550362587
0.02686985209584236,0.000605385226663202,-0.017947832122445107,0.016920698806643486,-0.00047626570449210703,0.022572729736566544
0.026993298903107643,0.0009720829548314214,-0.017479728907346725,0.01648024469614029,-0.00043795123929157853,0.023350857198238373
0.02642122283577919,0.0008711828268133104,-0.017618251964449883,0.016476444900035858,-0.0004678390105254948,0.021474536508321762
0.026732617989182472,0.0008316644816659391,-0.017386119812726974,0.015981150791049004,-0.00043929455569013953,0.02156767062842846
0.026838716119527817,0.0007682497380301356,-0.016881251707673073,0.016155892983078957,-0.00046549737453460693,0.022607453167438507
0.025081070140004158,0.0007710474310442805,-0.017729002982378006,0.015912195667624474,-0.0004405796935316175,0.023012539371848106
0.027342883870005608,0.0007117217173799872,-0.017694365233182907,0.015995364636182785,-0.0004633375210687518,0.02268880046904087
0.027606183663010597,0.0007274738163687289,-0.01820323057472706,0.01623551920056343,-0.0004274958046153188,0.02159710042178631
0.027275526896119118,0.0007490435964427888,-0.01807105541229248,0.016454676166176796,-0.00046345428563654423,0.02144395187497139
0.027256134897470474,0.0007887273677624762,-0.016874011605978012,0.01715765707194805,-0.000431194988777861,0.022293878719210625
0.027298884466290474,0.001069180783815682,-0.017985757440328598,0.016823660582304,-0.00044850289123132825,0.022998711094260216
0.027624795213341713,0.0011952277272939682,-0.018466610461473465,0.016742359846830368,-0.00043290285975672305,0.02240832895040512
0.027657706290483475,0.0011482782429084182,-0.017974738031625748,0.015893565490841866,-0.00043419082066975534,0.022535258904099464
0.02818538248538971,0.0010295945685356855,-0.017726173624396324,0.01598239690065384,-0.0004340069426689297,0.0232276301831007
0.027722185477614403,0.0009793317876756191,-0.017132461071014404,0.015785949304699898,-0.00048423788393847644,0.02401702292263508
0.027670223265886307,0.0009565132204443216,-0.017793752253055573,0.015528726391494274,-0.0005282906349748373,0.022792933508753777
0.027670223265886307,0.0009565132204443216,-0.017793752253055573,0.015528726391494274,-0.0005282906349748373,0.022792933508753777
0.02824183739721775,0.0009477821877226233,-0.01856343261897564,0.015920525416731834,-0.000563101377338171,0.022051740437746048
0.028427761048078537,0.0009510645759291947,-0.01764192432165146,0.015906957909464836,-0.0005356302717700601,0.022149808704853058
0.028425753116607666,0.0011366651160642505,-0.017683107405900955,0.01633325405418873,-0.000560563406907022,0.022975023835897446
0.02886565402150154,0.0012177362805232406,-0.017911799252033234,0.0160825252532959,-0.0006705224514007568,0.023733334615826607
0.02903752215206623,0.0018119898159056902,-0.018484851345419884,0.01685390993952751,-0.0007959732902236283,0.0234588161110878
0.028710562735795975,0.0017409693682566285,-0.018177207559347153,0.016862761229276657,-0.00075509212911129,0.02343984693288803
0.029217412695288658,0.0017606085166335106,-0.0181718822568655,0.01675451174378395,-0.0007605740102007985,0.023376189172267914
0.02950839325785637,0.0015892923111096025,-0.01802661269903183,0.01644155941903591,-0.0007766476483084261,0.02334284782409668
0.029442520812153816,0.0015425040619447827,-0.017460374161601067,0.016767771914601326,-0.0007322765304706991,0.023182647302746773
0.029515715315937996,0.001600466319359839,-0.018419992178678513,0.016544656828045845,-0.000751515559386462,0.02324848435819149
0.02982516586780548,0.0020421261433511972,-0.018748637288808823,0.016734817996621132,-0.0006665932014584541,0.023863986134529114
0.03074382245540619,0.0019459259929135442,-0.018047818914055824,0.01504821702837944,-0.000685389619320631,0.023909930139780045
0.030637584626674652,0.0025006355717778206,-0.01826794259250164,0.016787845641374588,-0.0006886598421260715,0.023750480264425278
0.027729831635951996,0.002480990020558238,-0.017777610570192337,0.017313554883003235,-0.0006471745437011123,0.023954808712005615
0.029421117156744003,0.0022744641173630953,-0.018131714314222336,0.016232021152973175,-0.0006154238362796605,0.023717880249023438
0.03072264790534973,0.0022022738121449947,-0.018757903948426247,0.016225308179855347,-0.0005598710849881172,0.02373594418168068
0.029958035796880722,0.00201027630828321,-0.018544768914580345,0.01599833369255066,-0.0005915540386922657,0.024196462705731392
0.030004901811480522,0.0021688733249902725,-0.01875654235482216,0.01663311943411827,-0.0005818757344968617,0.024154728278517723
0.030515151098370552,0.0024424465373158455,-0.018950967118144035,0.016580717638134956,-0.0005687171360477805,0.024038007482886314
0.030959835276007652,0.0024564724881201982,-0.01809323951601982,0.01648041047155857,-0.0005239644669927657,0.02415180765092373
0.029604703187942505,0.002713646274060011,-0.018491804599761963,0.016463158652186394,-0.0005480930558405817,0.02437443844974041
0.029412226751446724,0.0025754484813660383,-0.019078325480222702,0.015864884480834007,-0.0005888849846087396,0.02415047027170658
0.030626541003584862,0.0024910997599363327,-0.018488086760044098,0.01607084460556507,-0.0006254359614104033,0.02435419335961342
0.03051167167723179,0.0026588905602693558,-0.01853274367749691,0.015906699001789093,-0.0005839613731950521,0.02399076148867607
0.030862605199217796,0.002806318225339055,-0.01848692074418068,0.01641700603067875,-0.0006101835751906037,0.024290161207318306
0.030862605199217796,0.002806318225339055,-0.01848692074418068,0.01641700603067875,-0.0006101835751906037,0.024290161207318306
0.03071390837430954,0.002750905230641365,-0.019030464813113213,0.016594648361206055,-0.0005865553393959999,0.025364313274621964
0.03071390837430954,0.002750905230641365,-0.019030464813113213,0.016594648361206055,-0.0005865553393959999,0.025364313274621964
0.030753426253795624,0.002832886064425111,-0.018909338861703873,0.016782008111476898,-0.0005444961134344339,0.024803198873996735
0.031123772263526917,0.0028768160846084356,-0.01854160986840725,0.015640411525964737,-0.0005968550685793161,0.024085303768515587
0.031014369800686836,0.003441988257691264,-0.018919765949249268,0.016460783779621124,-0.0005407365970313549,0.023738916963338852
0.030918097123503685,0.0034694108180701733,-0.01885071210563183,0.01667242869734764,-0.0005206887144595385,0.025167563930153847
0.03088422305881977,0.0031586005352437496,-0.019135918468236923,0.016927065327763557,-0.0004773614928126335,0.025034116581082344
0.030804429203271866,0.003076799213886261,-0.018356727436184883,0.01687392219901085,-0.0004923624801449478,0.02500201389193535
0.030907947570085526,0.00325073697604239,-0.018672475591301918,0.01705196127295494,-0.00047209157492034137,0.025056248530745506
0.030580686405301094,0.0036016064696013927,-0.01873413659632206,0.016277596354484558,-0.0004944956745021045,0.025002220645546913
0.030296217650175095,0.0037303774151951075,-0.018583498895168304,0.017353639006614685,-0.00046970395487733185,0.02489062026143074
0.028951426967978477,0.003745945170521736,-0.018544644117355347,0.016843104735016823,-0.00046593305887654424,0.024157047271728516
0.031225334852933884,0.003329402068629861,-0.01874874345958233,0.017279881983995438,-0.0004894569865427911,0.02450263872742653
0.03200395777821541,0.0034858183935284615,-0.01839263178408146,0.01746252365410328,-0.0004667547473218292,0.02517693117260933
0.03226875141263008,0.003741326043382287,-0.018910981714725494,0.016432734206318855,-0.0004974936600774527,0.0253774244338274
0.03069330006837845,0.004186125472187996,-0.0195253137499094,0.016599230468273163,-0.0005140274879522622,0.02545671910047531
0.030633412301540375,0.004309712443500757,-0.0187976211309433,0.01590317115187645,-0.0004942099330946803,0.02533789724111557
0.03142698109149933,0.004066133871674538,-0.01916505955159664,0.016764849424362183,-0.000648495857603848,0.0254642516374588
0.0318058505654335,0.003846138482913375,-0.019044002518057823,0.01665034331381321,-0.0006939566810615361,0.025619542226195335
0.031494949012994766,0.0037934472784399986,-0.018480757251381874,0.01656372658908367,-0.0007188441231846809,0.025694342330098152
0.03166700899600983,0.0041176858358085155,-0.019042538478970528,0.017230357974767685,-0.000737839553039521,0.025345008820295334
0.031788796186447144,0.0042188153602182865,-0.01960878260433674,0.016864297911524773,-0.000878897903021425,0.0252669770270586
0.031788796186447144,0.0042188153602182865,-0.01960878260433674,0.016864297911524773,-0.000878897903021425,0.0252669770270586
0.03114423342049122,0.004347137175500393,-0.01954079233109951,0.017051491886377335,-0.0009106725919991732,0.025476982817053795
0.03105829656124115,0.004491178318858147,-0.018387537449598312,0.0167362280189991,-0.0008126739412546158,0.02548501454293728
0.03178272768855095,0.004417658317834139,-0.018599657341837883,0.016917509958148003,-0.0007941547082737088,0.025645459070801735
0.03210576996207237,0.004593058954924345,-0.019606364890933037,0.016932029277086258,-0.0007284640450961888,0.025737645104527473
0.03227873519062996,0.004358912818133831,-0.0205432940274477,0.016508448868989944,-0.0006544067873619497,0.025612590834498405
0.03196599334478378,0.004181222524493933,-0.01967337727546692,0.016682123765349388,-0.0006336894584819674,0.025767618790268898
0.031653404235839844,0.0042494055815041065,-0.019751520827412605,0.016521282494068146,-0.0005699461908079684,0.025474533438682556
0.03216075897216797,0.004936117213219404,-0.01931961067020893,0.01610591448843479,-0.0004942950326949358,0.02582455240190029
0.03215459734201431,0.0046357582323253155,-0.01842856965959072,0.016172489151358604,-0.00043799454579129815,0.025686059147119522
0.03211415931582451,0.004518511705100536,-0.01926565170288086,0.015965478494763374,-0.00047261430881917477,0.02581292949616909
0.03218669816851616,0.004497837740927935,-0.019794581457972527,0.016071204096078873,-0.0005069767939858139,0.025490015745162964
0.03283516317605972,0.004598023369908333,-0.01884002424776554,0.017109012231230736,-0.0005320316413417459,0.025934671983122826
0.03288772329688072,0.0043812100775539875,-0.019517136737704277,0.017221253365278244,-0.00065657589584589,0.026027703657746315
0.03208167478442192,0.004570459481328726,-0.01964556984603405,0.017671458423137665,-0.0008020974928513169,0.026034189388155937
0.03277035057544708,0.005122745409607887,-0.018993385136127472,0.01742868311703205,-0.0007336226990446448,0.025776078924536705
0.032895639538764954,0.004882417153567076,-0.019321314990520477,0.016372380778193474,-0.0007481056381948292,0.025678304955363274
0.032478347420692444,0.004367067012935877,-0.019665418192744255,0.015958592295646667,-0.0007449875120073557,0.025982176885008812
0.03270004317164421,0.0045137470588088036,-0.019159464165568352,0.015902098268270493,-0.0006950537208467722,0.02613724395632744
0.03285633772611618,0.004596782848238945,-0.019212180748581886,0.01666364260017872,-0.0007071483414620161,0.026141176000237465
0.03315937891602516,0.004664822947233915,-0.01954423077404499,0.016635211184620857,-0.0006953213014639914,0.0261356420814991
0.03325161710381508,0.005172662436962128,-0.018916545435786247,0.017163584008812904,-0.0006648782291449606,0.026027923449873924
0.03330667316913605,0.0051430086605250835,-0.019470330327749252,0.01699284464120865,-0.0006427695625461638,0.02613591030240059
0.033083800226449966,0.005295158829540014,-0.01947091892361641,0.016476059332489967,-0.0006221773801371455,0.02653915248811245
0.033389389514923096,0.004991466645151377,-0.01906072534620762,0.016573423519730568,-0.0005687723751179874,0.026403209194540977
0.03393155336380005,0.004871827084571123,-0.019327549263834953,0.016987847164273262,-0.0005860726232640445,0.025717372074723244
0.03386160731315613,0.005437604151666164,-0.019496429711580276,0.018464483320713043,-0.0005717793828807771,0.025596415624022484
0.033527448773384094,0.0052598319016397,-0.018974382430315018,0.01793225295841694,-0.0006069837254472077,0.02634560689330101
0.033527448773384094,0.0052598319016397,-0.018974382430315018,0.01793225295841694,-0.0006069837254472077,0.02634560689330101
0.03414985164999962,0.005157636012881994,-0.019353849813342094,0.01743241399526596,-0.000641429505776614,0.026564035564661026
0.03414985164999962,0.005157636012881994,-0.019353849813342094,0.01743241399526596,-0.000641429505776614,0.026564035564661026
0.03496307134628296,0.004955676384270191,-0.01850198581814766,0.016699038445949554,-0.0006247028359211981,0.027276860550045967
0.03423038497567177,0.00517712626606226,-0.01916327141225338,0.016639670357108116,-0.0007909616106189787,0.028089681640267372
0.03311605378985405,0.005407294258475304,-0.019208846613764763,0.015720829367637634,-0.0008053156198002398,0.027379805222153664
0.0343746542930603,0.005207218695431948,-0.01853926293551922,0.0159133467823267,-0.0007580763776786625,0.02545906789600849
0.03385550528764725,0.005630272440612316,-0.01910310611128807,0.016614437103271484,-0.00077154760947451,0.026894954964518547
0.03428831696510315,0.005362816154956818,-0.019345922395586967,0.016688764095306396,-0.0007411142578348517,0.027327420189976692
0.034559741616249084,0.005163969472050667,-0.019032832235097885,0.01643032766878605,-0.0006868162308819592,0.02658616006374359
0.034559741616249084,0.005163969472050667,-0.019032832235097885,0.01643032766878605,-0.0006868162308819592,0.02658616006374359
0.033810779452323914,0.0057356772013008595,-0.018908731639385223,0.016478007659316063,-0.0007372159161604941,0.027150455862283707
0.03473552688956261,0.005694638472050428,-0.01938599906861782,0.016409659758210182,-0.0007555126212537289,0.026786228641867638
0.03313309699296951,0.005234239622950554,-0.01896457001566887,0.016582844778895378,-0.000937981647439301,0.027213318273425102
0.03552938252687454,0.005808265879750252,-0.018603531643748283,0.016102639958262444,-0.0009932240936905146,0.026917101815342903
0.035300362855196,0.005397479049861431,-0.01937590166926384,0.016614558175206184,-0.0009278827928937972,0.02703050523996353
0.03436516597867012,0.0054624807089567184,-0.020237596705555916,0.016205718740820885,-0.0008617740822955966,0.02704448066651821
0.034265339374542236,0.0040917713195085526,-0.019421208649873734,0.01681896671652794,-0.0007614282658323646,0.02703011780977249
0.035106707364320755,0.003278197953477502,-0.019513500854372978,0.016762493178248405,-0.0007502538501285017,0.027307873591780663
0.034152913838624954,0.002841581590473652,-0.018771065399050713,0.016836952418088913,-0.000699090538546443,0.027592236176133156
0.03452344611287117,0.0033769907895475626,-0.018806803971529007,0.01680060289800167,-0.0006437561823986471,0.027296893298625946
0.0348266176879406,0.003918846137821674,-0.019664887338876724,0.01656663976609707,-0.0005459275562316179,0.02732194773852825
0.03427313640713692,0.003907887265086174,-0.019399169832468033,0.017370928078889847,-0.0005690497346222401,0.027203625068068504
0.03450337052345276,0.003810401074588299,-0.019281424582004547,0.01681247353553772,-0.0005248963134363294,0.027492618188261986
0.03443723917007446,0.0038303742185235023,-0.019060304388403893,0.016762327402830124,-0.0004790154634974897,0.027610821649432182
0.036043304949998856,0.003847943153232336,-0.019096095114946365,0.01714926026761532,-0.0005081158014945686,0.027804765850305557
0.03516344353556633,0.003897420596331358,-0.018989361822605133,0.017261497676372528,-0.0005071504856459796,0.027577584609389305
0.03516344353556633,0.003897420596331358,-0.018989361822605133,0.017261497676372528,-0.0005071504856459796,0.027577584609389305
0.03325797989964485,0.003938059322535992,-0.019917409867048264,0.017223738133907318,-0.0005020959069952369,0.027410833165049553
0.03490346297621727,0.0034902887418866158,-0.019703861325979233,0.016707295551896095,-0.0005508968024514616,0.027441617101430893
0.0352577269077301,0.003506353823468089,-0.019369469955563545,0.016832366585731506,-0.0005031587788835168,0.02821165882050991
0.034747011959552765,0.0036712060682475567,-0.019639313220977783,0.016538558527827263,-0.0005313157453201711,0.02908274158835411
0.03562391921877861,0.0033084750175476074,-0.01934034936130047,0.01633308455348015,-0.0004933711024932563,0.028493613004684448
0.03598809614777565,0.003495953744277358,-0.019136179238557816,0.01662685163319111,-0.0005177215789444745,0.027484523132443428
0.034155525267124176,0.0032418633345514536,-0.019355885684490204,0.016216788440942764,-0.0005466677830554545,0.02693597786128521
0.03459532558917999,0.0032303021289408207,-0.02038409374654293,0.016582245007157326,-0.0006390423513948917,0.027888132259249687
0.03583128750324249,0.003532696282491088,-0.01959378831088543,0.01618724688887596,-0.0007012613932602108,0.028274551033973694
0.035153597593307495,0.003900602925568819,-0.019480565562844276,0.01685812510550022,-0.0007265515741892159,0.02810101956129074
0.03576669096946716,0.0030376091599464417,-0.01987062580883503,0.016827218234539032,-0.0006850910722278059,0.02911914698779583
0.03560763597488403,0.0033706368412822485,-0.019555065780878067,0.016892297193408012,-0.0008160767029039562,0.028226647526025772
0.035464510321617126,0.0036938213743269444,-0.019954320043325424,0.016324881464242935,-0.0008502386626787484,0.028053339570760727
0.03576573729515076,0.0038372124545276165,-0.01991877891123295,0.01714855246245861,-0.0008583760936744511,0.027683759108185768
0.03580616042017937,0.0038518563378602266,-0.019820095971226692,0.017188942059874535,-0.0008634232799522579,0.029180025681853294
0.03589512035250664,0.0034375227987766266,-0.019734084606170654,0.017460010945796967,-0.001016136258840561,0.02988741360604763
0.035722870379686356,0.003330394858494401,-0.019681187346577644,0.01751645654439926,-0.0010178659576922655,0.028971564024686813
0.03638802468776703,0.0035423715598881245,-0.01948382705450058,0.017111634835600853,-0.0009377797250635922,0.028712335973978043
0.03610651567578316,0.0038077093195170164,-0.020403271540999413,0.017420006915926933,-0.0009285546257160604,0.028759002685546875
0.03610077127814293,0.004237018059939146,-0.02094648778438568,0.01609128713607788,-0.0008824440883472562,0.028366345912218094
0.035948216915130615,0.003983981907367706,-0.020587841048836708,0.016969414427876472,-0.0009017434786073864,0.028489504009485245
0.035348135977983475,0.004255875013768673,-0.020535780116915703,0.01781357266008854,-0.0009026830084621906,0.028810571879148483
0.036511048674583435,0.004271811805665493,-0.02056816779077053,0.01733587123453617,-0.0009024804458022118,0.029063444584608078
0.03682080656290054,0.004478042013943195,-0.02067830227315426,0.01755870133638382,-0.0009421108406968415,0.028963258489966393
0.03642091155052185,0.004193238914012909,-0.0204209815710783,0.017257604748010635,-0.0009611364221200347,0.02936016395688057
0.03668084740638733,0.004285112023353577,-0.0205307025462389,0.01711755059659481,-0.000882972904946655,0.02940894104540348
0.03668053448200226,0.004645234439522028,-0.021234776824712753,0.017160020768642426,-0.0008806661353446543,0.02939266711473465
0.03686429560184479,0.004284943453967571,-0.020487187430262566,0.016666889190673828,-0.0008750770357437432,0.0299075860530138
0.037218909710645676,0.004925962071865797,-0.020233532413840294,0.01701771467924118,-0.0008334023295901716,0.029883988201618195
0.03699737787246704,0.004623540211468935,-0.020784122869372368,0.016813186928629875,-0.0007437820313498378,0.029784061014652252
0.03699737787246704,0.004623540211468935,-0.020784122869372368,0.016813186928629875,-0.0007437820313498378,0.029784061014652252
0.036904845386743546,0.004503288771957159,-0.021087586879730225,0.017166994512081146,-0.0007503944216296077,0.029919935390353203
0.036688342690467834,0.0045878407545387745,-0.020671352744102478,0.017002081498503685,-0.0007254726369865239,0.029629003256559372
0.03700174018740654,0.005112271290272474,-0.02086864411830902,0.016417544335126877,-0.0006941457977518439,0.029630741104483604
0.03826012834906578,0.004646884743124247,-0.02086007036268711,0.016649356111884117,-0.0007052806904539466,0.029618054628372192
0.037576980888843536,0.004481806419789791,-0.020673945546150208,0.01673818565905094,-0.0007096856716088951,0.02946181409060955
0.0366254523396492,0.004595763515681028,-0.020831823348999023,0.017643047496676445,-0.000743885466363281,0.029531264677643776
0.037310101091861725,0.0046578673645854,-0.020789550617337227,0.017952369526028633,-0.0007637472008354962,0.02918367274105549
0.037165552377700806,0.004655796568840742,-0.02061355672776699,0.01755545660853386,-0.0007855110452510417,0.03011586330831051
0.03804384917020798,0.004506097175180912,-0.020611848682165146,0.017585787922143936,-0.0009514351841062307,0.0300876647233963
0.039196282625198364,0.004877670668065548,-0.020820526406168938,0.017237629741430283,-0.0009772174526005983,0.030714862048625946
0.03658546134829521,0.0048550269566476345,-0.020910507068037987,0.017869368195533752,-0.000924888823647052,0.0301899965852499
0.038211215287446976,0.0047525824047625065,-0.020909219980239868,0.01786394789814949,-0.0008778514456935227,0.029224060475826263
0.03846754878759384,0.0046085454523563385,-0.021129803732037544,0.018061205744743347,-0.0008936761878430843,0.029673321172595024
0.037962134927511215,0.00460294634103775,-0.02179424837231636,0.017606394365429878,-0.0008295814041048288,0.031029796227812767
0.038427989929914474,0.004708144348114729,-0.020866908133029938,0.017553573474287987,-0.0008345528622157872,0.030640795826911926
0.03807135671377182,0.004755632020533085,-0.020975707098841667,0.017554819583892822,-0.0008209138177335262,0.03162943199276924
0.03810928016901016,0.005489369388669729,-0.021246133372187614,0.01680515892803669,-0.000758503912948072,0.031657230108976364
0.03861862048506737,0.005235924385488033,-0.021300094202160835,0.017151733860373497,-0.0007477785693481565,0.031107287853956223
0.03772389888763428,0.004782143048942089,-0.020903199911117554,0.0174615029245615,-0.0007466772221960127,0.0297884289175272
0.03795238956809044,0.004586462397128344,-0.02128683030605316,0.017947684973478317,-0.0006817601388320327,0.02987886592745781
0.03782963007688522,0.005067903082817793,-0.021120421588420868,0.018108868971467018,-0.0006807101308368146,0.03117947466671467
0.03813416510820389,0.00507885217666626,-0.02039557695388794,0.01746230013668537,-0.0006347778253257275,0.03146664798259735
0.03874439001083374,0.005375806242227554,-0.020994728431105614,0.01776704378426075,-0.0006546141230501235,0.031057056039571762
0.03829565271735191,0.005231430754065514,-0.022251205518841743,0.01759563758969307,-0.0006512175314128399,0.03097178041934967
0.03723156452178955,0.005284924991428852,-0.021981047466397285,0.017724640667438507,-0.0006943809567019343,0.0308071356266737
0.038267917931079865,0.0052913278341293335,-0.02138800173997879,0.01766905002295971,-0.000768593919929117,0.03089231066405773
0.03783126920461655,0.004937089513987303,-0.02065662294626236,0.016963109374046326,-0.0009892641101032495,0.031406793743371964
0.03903895989060402,0.004973444622009993,-0.021221250295639038,0.0171021968126297,-0.0011008989531546831,0.03134778141975403
0.03903895989060402,0.004973444622009993,-0.021221250295639038,0.0171021968126297,-0.0011008989531546831,0.03134778141975403
0.038935866206884384,0.005482767708599567,-0.021495183929800987,0.016812022775411606,-0.0009942345786839724,0.03100690245628357
0.03744012489914894,0.005138089880347252,-0.022033067420125008,0.016768673434853554,-0.0008445641724392772,0.030912909656763077
0.03762549161911011,0.00517717469483614,-0.022101227194070816,0.01726745441555977,-0.0008429039735347033,0.031493235379457474
0.039092302322387695,0.005118881352245808,-0.021753976121544838,0.01751299947500229,-0.0008011057507246733,0.03202221170067787
0.039185624569654465,0.004987020511180162,-0.02195766195654869,0.018387405201792717,-0.0007624575519002974,0.030587593093514442
0.038849446922540665,0.005186227150261402,-0.02204928547143936,0.017513500526547432,-0.0007096959161572158,0.03201409429311752
0.03847440332174301,0.005478569772094488,-0.02165813557803631,0.018164191395044327,-0.0007260703132487833,0.03214641287922859
0.03875274956226349,0.0055288467556238174,-0.021848589181900024,0.01887904852628708,-0.0007828796515241265,0.03160696104168892
0.039120543748140335,0.005021974444389343,-0.02178109437227249,0.018434792757034302,-0.0012381108244881034,0.03221497684717178
0.039057161659002304,0.0052332268096506596,-0.022453147917985916,0.01782810129225254,-0.0012751482427120209,0.03215755894780159
