davideferrari95/blind_handover_controller/data/Test 234 - [2024-02-08 -- 12-30-18]/joint_states_data.csv
shoulder_pan_joint,shoulder_lift_joint,elbow_joint,wrist_1_joint,wrist_2_joint,wrist_3_joint
0.007848259061574936,0.006286396645009518,-0.010869806632399559,0.003534899791702628,-0.0006664041429758072,0.006530501414090395
0.007365191355347633,0.007827764376997948,-0.010891495272517204,0.0032918930519372225,-0.000618979858700186,0.0069603081792593
0.007365191355347633,0.007827764376997948,-0.010891495272517204,0.0032918930519372225,-0.000618979858700186,0.0069603081792593
0.007485763635486364,0.007759490981698036,-0.010935169644653797,0.003304633777588606,-0.0005286543746478856,0.006649167276918888
0.007622808683663607,0.0076453834772109985,-0.010380236431956291,0.003452167147770524,-0.0004414150316733867,0.0066511547192931175
0.007189838215708733,0.007058056071400642,-0.010521884076297283,0.0031834624242037535,-0.00036053344956599176,0.006850436795502901
0.006774136796593666,0.006799700204282999,-0.010883696377277374,0.003189047332853079,-0.00033099911524914205,0.007216828875243664
0.007533294148743153,0.006757298484444618,-0.01061498187482357,0.0032827300019562244,-0.0003081233298871666,0.006989484187215567
0.007604038342833519,0.006876723375171423,-0.010814409703016281,0.0035308038350194693,-0.0002883535053115338,0.007115847431123257
0.006785787176340818,0.007112062070518732,-0.010291061364114285,0.003986854571849108,-0.0002709799155127257,0.007488879840821028
0.00680719967931509,0.007242300547659397,-0.009826291352510452,0.00412833271548152,-0.0002555822138674557,0.007878394797444344
0.0068814074620604515,0.007221111096441746,-0.011786049231886864,0.0039021943230181932,-0.00024184108769986778,0.00781767163425684
0.006788375787436962,0.007205532863736153,-0.010458936914801598,0.004108146298676729,-0.00022950336278881878,0.006950926501303911
0.007129456847906113,0.007719757501035929,-0.010339731350541115,0.004112137481570244,-0.0002561801520641893,0.007016614079475403
0.00700196111574769,0.00735318660736084,-0.010292509570717812,0.003685459028929472,-0.00024952259263955057,0.007345928344875574
0.0064023262821137905,0.007089682854712009,-0.01000913791358471,0.003498741891235113,-0.00023882402456365526,0.0075288210064172745
0.00677984906360507,0.007529642898589373,-0.010324765928089619,0.0035341435577720404,-0.0002473703643772751,0.007072342559695244
0.006998867262154818,0.007994643412530422,-0.010956051759421825,0.0036694188602268696,-0.00025473328423686326,0.006964490748941898
0.00642187288030982,0.007468651048839092,-0.010240612551569939,0.0036176855210214853,-0.00024592329282313585,0.007313822396099567
0.005983034614473581,0.0070655192248523235,-0.010864999145269394,0.003595169633626938,-0.00026176884421147406,0.007078811060637236
0.006442266050726175,0.007272366434335709,-0.01034381054341793,0.004104710649698973,-0.00026020550285466015,0.0067062960006296635
0.00669409753754735,0.008034289814531803,-0.01030765287578106,0.004086688160896301,-0.00025162665406242013,0.0069688609801232815
0.00669409753754735,0.008034289814531803,-0.01030765287578106,0.004086688160896301,-0.00025162665406242013,0.0069688609801232815
0.006518417038023472,0.00756332790479064,-0.010684235021471977,0.003622606862336397,-0.0002431616885587573,0.006478638853877783
0.00596192292869091,0.007198185659945011,-0.010074598714709282,0.003430683631449938,-0.0002353457675781101,0.006818861234933138
0.006124644540250301,0.008125974796712399,-0.010860410518944263,0.0034205021802335978,-0.00022418209118768573,0.00707901269197464
0.006158305332064629,0.007831690832972527,-0.010580847039818764,0.003404360031709075,-0.00021357550576794893,0.006973267998546362
0.006347014103084803,0.007426254916936159,-0.010568443685770035,0.0032405315432697535,-0.00020389804558362812,0.0071823326870799065
0.006350982468575239,0.007450892589986324,-0.010991688817739487,0.003274191403761506,-0.00021413093782030046,0.007623193319886923
0.005852609407156706,0.008268427103757858,-0.01035523135215044,0.003194980788975954,-0.00022304079902824014,0.007104093674570322
0.006672472693026066,0.0075065698474645615,-0.010528053157031536,0.0036940951831638813,-0.00020712401601485908,0.006710688583552837
0.006617090664803982,0.007434801198542118,-0.010887358337640762,0.0033175507560372353,-0.000199476518901065,0.006576794199645519
0.006122505757957697,0.0074108368717134,-0.011111075058579445,0.003120930166915059,-0.0001923697564052418,0.007154349237680435
0.006159735843539238,0.007619726937264204,-0.010688294656574726,0.003117839340120554,-0.00018575138528831303,0.007251698058098555
0.005994449369609356,0.00705796480178833,-0.010555025190114975,0.003285383339971304,-0.0001795740390662104,0.007032830733805895
0.006061343941837549,0.007376088760793209,-0.01027555949985981,0.004020161461085081,-0.00017379353812430054,0.007281351834535599
0.0065279752016067505,0.007432125974446535,-0.011089511215686798,0.0041620912961661816,-0.0001683744485490024,0.00711682066321373
0.0059790522791445255,0.006637385580688715,-0.010711577720940113,0.0035814077127724886,-0.00016328244237229228,0.007104688789695501
0.005944366101175547,0.005992737598717213,-0.010516546666622162,0.003278526710346341,-0.00017145201854873449,0.007356651127338409
0.006220679264515638,0.006272945087403059,-0.010800347663462162,0.0033284449018538,-0.0001787536166375503,0.007632012479007244
0.006105508655309677,0.0063458834774792194,-0.010389937087893486,0.003557946067303419,-0.00017459435912314802,0.007266355212777853
0.006334905046969652,0.007155066821724176,-0.010767393745481968,0.0036459011025726795,-0.00016993656754493713,0.006922230124473572
0.0059648840688169,0.006664397660642862,-0.010632136836647987,0.0036583023611456156,-0.00016547607083339244,0.0067648873664438725
0.005912996828556061,0.006065243389457464,-0.010255093686282635,0.0037224511615931988,-0.00016124124522320926,0.0069977892562747
0.006507835816591978,0.006236162967979908,-0.011036311276257038,0.0037985132075846195,-0.00015721713134553283,0.007600936572998762
0.006641128100454807,0.007262262981384993,-0.010939514264464378,0.0038659421261399984,-0.00015338916273321956,0.007416377775371075
0.006488755811005831,0.006695323623716831,-0.010655631311237812,0.003407583571970463,-0.00014974309306126088,0.007073139306157827
0.0061753480695188046,0.006159058306366205,-0.011006674729287624,0.0034194800537079573,-0.00014626630581915379,0.006873796693980694
0.006122400052845478,0.006407349370419979,-0.010341078974306583,0.003629053011536598,-0.00014294737775344402,0.006586947478353977
0.006122400052845478,0.006407349370419979,-0.010341078974306583,0.003629053011536598,-0.00014294737775344402,0.006586947478353977
0.0063096811063587666,0.00651767710223794,-0.011434611864387989,0.003478446276858449,-0.00013674168440047652,0.007318475283682346
0.0063096811063587666,0.00651767710223794,-0.011434611864387989,0.003478446276858449,-0.00013674168440047652,0.007318475283682346
0.006663286592811346,0.006293606013059616,-0.01109913270920515,0.0036003889981657267,-0.00015168057871051133,0.006934329867362976
0.007406691089272499,0.0056917136535048485,-0.01129176840186119,0.003847417887300253,-0.0001496912445873022,0.006972059141844511
0.0078923050314188,0.006108432076871395,-0.010458751581609249,0.0039189644157886505,-0.00014671660028398037,0.007115150336176157
0.007628623861819506,0.006161046680063009,-0.010647613555192947,0.0035145943984389305,-0.00014379166532307863,0.0065011936239898205
0.007382604759186506,0.006772500462830067,-0.010577061213552952,0.0032378523610532284,-0.00013826912618242204,0.006951577961444855
0.007166915573179722,0.006405400577932596,-0.01055540144443512,0.0034404483158141375,-0.00013569832663051784,0.007343726698309183
0.007767796982079744,0.005557565484195948,-0.010878383181989193,0.0032374723814427853,-0.0001295743859373033,0.007383686490356922
0.00758177088573575,0.006075899116694927,-0.010342705063521862,0.003998017404228449,-0.00012580663315020502,0.006810466758906841
0.007391525898128748,0.006322202738374472,-0.011105917394161224,0.0041070058941841125,-0.0001223756407853216,0.0065893991850316525
0.0077607277780771255,0.006349911913275719,-0.00986263994127512,0.003939259331673384,-0.00014136415848042816,0.007068058010190725
0.007727307733148336,0.0060287159867584705,-0.010952061973512173,0.0038270435761660337,-0.0001391702680848539,0.007395592052489519
0.007487253751605749,0.005786786787211895,-0.010977157391607761,0.003862739307805896,-0.00013576564379036427,0.0074852402321994305
0.007306116633117199,0.006208062171936035,-0.010086242109537125,0.003912957385182381,-0.00013244192814454436,0.007010976783931255
0.00813534576445818,0.0061942534521222115,-0.010485603474080563,0.0038821171037852764,-0.00012927169154863805,0.0068566142581403255
0.007653399370610714,0.0063952431082725525,-0.011088396422564983,0.003821995574980974,-0.00014452428149525076,0.006985594518482685
0.00749549875035882,0.006287772674113512,-0.009966895915567875,0.003821421880275011,-0.00014374498277902603,0.00705907354131341
0.008110173046588898,0.005729191936552525,-0.010741647332906723,0.0038645975291728973,-0.00014069936878513545,0.006842964794486761
0.008154565468430519,0.0059430524706840515,-0.011029318906366825,0.003862025449052453,-0.00013763594324700534,0.0068731107749044895
0.007546465378254652,0.006269215140491724,-0.010643646121025085,0.0035323507618159056,-0.00013469408440869302,0.007102692034095526
0.007276511285454035,0.006363694090396166,-0.010196222923696041,0.0033792518079280853,-0.00013187446165829897,0.006877581123262644
0.007336464710533619,0.006003984250128269,-0.01006045937538147,0.0035502142272889614,-0.0001382468908559531,0.007066268008202314
0.007692352402955294,0.005899817682802677,-0.010108315385878086,0.003702244022861123,-0.00014404510147869587,0.006946305278688669
0.007408292964100838,0.005866509862244129,-0.010931722819805145,0.0036527798511087894,-0.00014176839613355696,0.0069144065491855145
0.007408292964100838,0.005866509862244129,-0.010931722819805145,0.0036527798511087894,-0.00014176839613355696,0.0069144065491855145
0.007265583612024784,0.006371731869876385,-0.010301927104592323,0.0036579424049705267,-0.00013906662934459746,0.0066101644188165665
0.007426266558468342,0.006712349131703377,-0.010689334012567997,0.004248110577464104,-0.00013643376587424427,0.0067609199322760105
0.007389937527477741,0.0059408387169241905,-0.010319081135094166,0.004188593477010727,-0.0001338965812465176,0.006658470258116722
0.007057362701743841,0.005983051843941212,-0.009802876971662045,0.00391065888106823,-0.00019394594710320234,0.007151421159505844
0.007265086751431227,0.006372321862727404,-0.010055843740701675,0.0037356563843786716,-0.00020527740707620978,0.007501645945012569
0.007260523736476898,0.006254053208976984,-0.010315719991922379,0.004002781584858894,-0.00019758233975153416,0.00713790487498045
0.007439438719302416,0.006411989685148001,-0.009896047413349152,0.00420024711638689,-0.00018935900880023837,0.006765470840036869
0.007461264729499817,0.0061524114571511745,-0.010195435024797916,0.004018512088805437,-0.0001917614135891199,0.006847179960459471
0.0076235695742070675,0.006544936913996935,-0.009959999471902847,0.0043478007428348064,-0.0002005982823902741,0.006694270763546228
0.00778763135895133,0.006834913976490498,-0.009832301177084446,0.004244320560246706,-0.00019443308701738715,0.006329353433102369
0.007552917115390301,0.006122166756540537,-0.01044913288205862,0.004017329774796963,-0.0001877461327239871,0.0065540652722120285
0.007659843657165766,0.006355034653097391,-0.009639404714107513,0.0038501701783388853,-0.00018144214118365198,0.006490115076303482
0.007494194898754358,0.006420779973268509,-0.010427950881421566,0.003920995630323887,-0.00019717752002179623,0.006475614383816719
0.0075398837216198444,0.007189763244241476,-0.01010372769087553,0.003943164367228746,-0.00019784939649980515,0.006171212997287512
0.007367637939751148,0.007044300436973572,-0.009881041012704372,0.0042716157622635365,-0.00019226428412366658,0.006470501888543367
0.007235880941152573,0.006457983050495386,-0.010284780524671078,0.004614413250237703,-0.00018659861234482378,0.00661849370226264
0.007404669653624296,0.006392249837517738,-0.010124624706804752,0.0045305583626031876,-0.0001812322880141437,0.006713774986565113
0.007556264754384756,0.006797915790230036,-0.009457373060286045,0.004288061056286097,-0.00017616417608223855,0.006518543232232332
0.007535762153565884,0.006777664180845022,-0.00995661225169897,0.004060832783579826,-0.00017137177928816527,0.006401472724974155
0.007272557355463505,0.006417461670935154,-0.010234651155769825,0.004338408354669809,-0.00018906840705312788,0.006396712735295296
0.0070479498244822025,0.006197827868163586,-0.00967835821211338,0.004233729559928179,-0.0001856430317275226,0.006403554230928421
0.007934575900435448,0.006436886265873909,-0.009868013672530651,0.004000617191195488,-0.00018106917559634894,0.006572273559868336
0.008050808683037758,0.0065861293114721775,-0.0101586589589715,0.004244965501129627,-0.00017663318431004882,0.006720333360135555
0.007529722061008215,0.0063304477371275425,-0.009731609374284744,0.004493278916925192,-0.00017240385932382196,0.006449585314840078
0.007052868138998747,0.006163002923130989,-0.009913431480526924,0.004580189473927021,-0.0001683720911387354,0.006270731799304485
0.007052868138998747,0.006163002923130989,-0.009913431480526924,0.004580189473927021,-0.0001683720911387354,0.006270731799304485
0.007786011788994074,0.006664174608886242,-0.01019501406699419,0.004159119911491871,-0.00016452456475235522,0.0066948882304131985
0.0077176825143396854,0.006874066777527332,-0.009077458642423153,0.004388177767395973,-0.00016084885282907635,0.006630045361816883
0.008114412426948547,0.006845258176326752,-0.010015546344220638,0.004312439821660519,-0.00015733391046524048,0.006406927946954966
0.008907431736588478,0.006762721575796604,-0.009860187768936157,0.004414403345435858,-0.00015396918752230704,0.006095570046454668
0.008319067768752575,0.006615255028009415,-0.00925939716398716,0.004514781292527914,-0.00015074544353410602,0.006299752276390791
0.00788391288369894,0.006669636350125074,-0.009700426831841469,0.004202679265290499,-0.0001525590632809326,0.0067460727877914906
0.007153153419494629,0.006696978583931923,-0.01012265682220459,0.004553265403956175,-0.0001524148538010195,0.006611583288758993
0.007990405894815922,0.006500582210719585,-0.00924803875386715,0.0042730276472866535,-0.00014773858129046857,0.006315954960882664
0.008037764579057693,0.00647203391417861,-0.009582712315022945,0.004443647339940071,-0.0001430630509275943,0.006310170982033014
0.007921844720840454,0.006543920841068029,-0.010238951072096825,0.004316934384405613,-0.0001386556396028027,0.006517306435853243
0.007687765639275312,0.0069334073923528194,-0.009253304451704025,0.004335037432610989,-0.00013451115228235722,0.006333450321108103
0.007692806422710419,0.006373079493641853,-0.010291372425854206,0.004562738351523876,-0.00012692276504822075,0.006315372884273529
0.007985588163137436,0.006404649466276169,-0.009418122470378876,0.004369676113128662,-0.00012344065180514008,0.005924392491579056
0.008252250030636787,0.006358650512993336,-0.009231116622686386,0.004307989962399006,-0.00012014475942123681,0.0062059988267719746
0.008126490749418736,0.007101515773683786,-0.009705156087875366,0.004134021233767271,-0.00011702027404680848,0.006050844676792622
0.00829134602099657,0.006592113059014082,-0.009632137604057789,0.0043238308280706406,-0.00011405409895814955,0.006026609800755978
0.007731779478490353,0.006295227911323309,-0.00960793811827898,0.004509309306740761,-0.00011123484728159383,0.006317830178886652
0.007561256177723408,0.00672789616510272,-0.009645843878388405,0.004500943701714277,-0.00010855137225007638,0.006050423253327608
0.00869122613221407,0.007036502007395029,-0.009222323074936867,0.00477700587362051,-0.00010599431698210537,0.005924544297158718
0.00796812865883112,0.006906772963702679,-0.010202293284237385,0.004377774894237518,-0.00010355510312365368,0.005513762589544058
0.007733088918030262,0.00655790651217103,-0.010479754768311977,0.004271136596798897,-0.00010122561798198149,0.005704923998564482
0.007845675572752953,0.006365460809320211,-0.009971722960472107,0.004204495344310999,-9.899852011585608e-05,0.00641762837767601
0.00814339704811573,0.006606698036193848,-0.010328500531613827,0.004346632864326239,-9.686737030278891e-05,0.006047546863555908
0.008221236057579517,0.006696546915918589,-0.01009008102118969,0.004366736859083176,-7.834874850232154e-05,0.006010814104229212
0.00842413492500782,0.006554912775754929,-0.010225617326796055,0.00534012308344245,-7.445779192494228e-05,0.005617424380034208
0.00844787061214447,0.006250079721212387,-0.010526055470108986,0.005727748386561871,-7.280366844497621e-05,0.0056771570816636086
0.008559892885386944,0.006464817561209202,-0.010161501355469227,0.004945576656609774,-7.135093619581312e-05,0.006019480060786009
0.008131231181323528,0.006331925746053457,-0.01007736474275589,0.00477940496057272,-6.996363663347438e-05,0.005571150686591864
0.008243080228567123,0.006555624306201935,-0.010303734801709652,0.0050085620023310184,-6.862981535959989e-05,0.005903188604861498
0.008243080228567123,0.006555624306201935,-0.010303734801709652,0.0050085620023310184,-6.862981535959989e-05,0.005903188604861498
0.008318394422531128,0.006606214214116335,-0.010406852699816227,0.005284546408802271,-6.734587077517062e-05,0.00560191972181201
0.008261803537607193,0.0062864418141543865,-0.010696304962038994,0.00505537074059248,-6.491702515631914e-05,0.005905225872993469
0.008261803537607193,0.0062864418141543865,-0.010696304962038994,0.00505537074059248,-6.491702515631914e-05,0.005905225872993469
0.00859993789345026,0.006629908457398415,-0.010516886599361897,0.00453518470749259,-6.376714009093121e-05,0.005934658460319042
0.008463884703814983,0.0070057762786746025,-0.010329408571124077,0.004588891752064228,-6.26572800683789e-05,0.005669737700372934
0.008171597495675087,0.006198414601385593,-0.010022051632404327,0.0048852963373064995,-6.158537871669978e-05,0.005690963938832283
0.008366323076188564,0.0062865386717021465,-0.009918398223817348,0.005314902402460575,-6.054962068446912e-05,0.005463115870952606
0.008620377629995346,0.006412443704903126,-0.010426818393170834,0.005601984448730946,-4.660799095290713e-05,0.00575605733320117
0.007816936820745468,0.007027382496744394,-0.010093780234456062,0.004696424584835768,-4.323914981796406e-05,0.005813315510749817
0.008884629234671593,0.006371613126248121,-0.01117035560309887,0.004477445501834154,-4.2550123907858506e-05,0.0056409589014947414
0.008882977068424225,0.006439571734517813,-0.011248107999563217,0.004820090718567371,-4.188945240457542e-05,0.005605896934866905
0.008671613410115242,0.006852381397038698,-0.009987901896238327,0.005130230914801359,-4.1249437344959006e-05,0.005771572235971689
0.00845245085656643,0.007292454596608877,-0.010263846255838871,0.005580853670835495,-4.068245834787376e-05,0.005838264245539904
0.008557668887078762,0.006961197592318058,-0.010334803722798824,0.004805297590792179,4.036212703795172e-05,0.006001709494739771
0.009373510256409645,0.006374751217663288,-0.009945758618414402,0.004336318466812372,4.4581400288734585e-05,0.005666234530508518
0.008328711614012718,0.0065044229850173,-0.010952341370284557,0.004294742830097675,4.38364950241521e-05,0.005868434906005859
0.008506355807185173,0.007006077561527491,-0.011094145476818085,0.0044216010719537735,5.8688347053248435e-05,0.005503460764884949
0.009226524271070957,0.0073264772072434425,-0.009556598961353302,0.005144106224179268,6.2372419051826e-05,0.005063158459961414
0.008281342685222626,0.006349691189825535,-0.010387503542006016,0.005222152918577194,6.128592940513045e-05,0.00511234812438488
0.008690757676959038,0.006141816731542349,-0.00987885519862175,0.0049781096167862415,5.994660023134202e-05,0.004990745335817337
0.009222426451742649,0.006816160399466753,-0.009595610201358795,0.00465662544593215,7.562769314972684e-05,0.004959444981068373
0.008663065731525421,0.006946690380573273,-0.010441713035106659,0.004613064229488373,7.636465306859463e-05,0.004918579012155533
0.008427090011537075,0.005869867745786905,-0.009734371677041054,0.004626634065061808,9.120455069933087e-05,0.0050978586077690125
0.008877113461494446,0.00587487081065774,-0.010106218978762627,0.004658635705709457,9.160245099337772e-05,0.005145631264895201
0.008846829645335674,0.006338311359286308,-0.008973784744739532,0.0055961147882044315,8.991925278678536e-05,0.004871855489909649
0.008714713156223297,0.006525468546897173,-0.010457988828420639,0.005202982574701309,0.0002786488039419055,0.004972790367901325
0.008865699172019958,0.006370434537529945,-0.01034565269947052,0.004810828249901533,0.00031887172372080386,0.004998904652893543
0.008870109915733337,0.006483578588813543,-0.01017557643353939,0.004369423724710941,0.0003535707655828446,0.00536551745608449
0.008729041554033756,0.0066634356044232845,-0.009751089848577976,0.004455615300685167,0.0003387572360225022,0.005097968969494104
0.008686644025146961,0.006238737143576145,-0.009850106202065945,0.004607413895428181,0.00031920644687488675,0.004583841655403376
0.008686644025146961,0.006238737143576145,-0.009850106202065945,0.004607413895428181,0.00031920644687488675,0.004583841655403376
0.00905284658074379,0.006639580707997084,-0.010431898757815361,0.0051657771691679955,0.0003481753810774535,0.0045243739150464535
0.00856404285877943,0.00681966682896018,-0.009650723077356815,0.0053635635413229465,0.0003679160145111382,0.004906338639557362
0.008367236703634262,0.005912958178669214,-0.010252547450363636,0.004729400388896465,0.00036068467306904495,0.00506444601342082
0.009064922109246254,0.0060091689229011536,-0.01005081832408905,0.004612182267010212,0.0003458474820945412,0.005279097706079483
0.008927027694880962,0.006350056268274784,-0.009725863113999367,0.0048506492748856544,0.00046596789616160095,0.0049639297649264336
0.008659442886710167,0.0071273078210651875,-0.010090707801282406,0.004910371266305447,0.0005059386603534222,0.004877846222370863
0.009129113517701626,0.0062652709893882275,-0.010330856777727604,0.004980163183063269,0.00047242073924280703,0.004645735956728458
0.008561793714761734,0.005601926241070032,-0.010008317418396473,0.004935369826853275,0.00046846005716361105,0.004428063053637743
0.00856984406709671,0.00612062681466341,-0.010134225711226463,0.004742003045976162,0.00048293935833498836,0.004938253667205572
0.009018557146191597,0.006061655934900045,-0.010206455364823341,0.004870743956416845,0.0004660395788960159,0.004957486875355244
0.008979389443993568,0.005835084710270166,-0.010065366514027119,0.004785532131791115,0.0005458110244944692,0.004951825365424156
0.008708212524652481,0.005586189683526754,-0.009690173901617527,0.004758432973176241,0.0005885882419534028,0.004771123640239239
0.009533260017633438,0.005708297714591026,-0.010117845609784126,0.005031120497733355,0.0006084434571675956,0.004614135250449181
0.009074162691831589,0.006186200771480799,-0.0100686801597476,0.004891505930572748,0.000574160018004477,0.00468818424269557
0.008746027946472168,0.00614782003685832,-0.009631514549255371,0.004720626398921013,0.0005274395807646215,0.004746771417558193
0.009259837679564953,0.00602768687531352,-0.010263306088745594,0.004634540993720293,0.00048674363642930984,0.004663684871047735
0.009745907038450241,0.00642185565084219,-0.01031614188104868,0.0045845662243664265,0.0005118197877891362,0.0046100011095404625
0.00877614226192236,0.006159684620797634,-0.009939013980329037,0.004673900082707405,0.0004814892599824816,0.004710915498435497
0.008730675093829632,0.006303566507995129,-0.009576404467225075,0.004989196080714464,0.000482206727610901,0.004752556327730417
0.009028621017932892,0.00655157258734107,-0.010755826719105244,0.005087859462946653,0.00046282081166282296,0.004206584766507149
0.008826606906950474,0.006064202636480331,-0.010080241598188877,0.005107257515192032,0.00042141819722019136,0.004174356814473867
0.009006681852042675,0.006145177409052849,-0.009489184245467186,0.00464813644066453,0.00045699611655436456,0.0047361659817397594
0.008842741139233112,0.005908133927732706,-0.0105051938444376,0.004947171546518803,0.000460010051028803,0.0047838119789958
0.009362603537738323,0.006330778822302818,-0.010218975134193897,0.0050658355467021465,0.00045820767991244793,0.004719818942248821
0.009218087419867516,0.006369444541633129,-0.009573620744049549,0.004930475726723671,0.0004290579818189144,0.0046194144524633884
0.009192095138132572,0.00581497885286808,-0.010575015097856522,0.004800223279744387,0.0004552137397695333,0.004282234702259302
0.009192095138132572,0.00581497885286808,-0.010575015097856522,0.004800223279744387,0.0004552137397695333,0.004282234702259302
0.009190323762595654,0.005809083580970764,-0.010137371718883514,0.004839835222810507,0.00043141929199919105,0.004223169758915901
0.009313393384218216,0.0059088123962283134,-0.01001474168151617,0.004818563815206289,0.00046514818677678704,0.004740420263260603
0.009328876622021198,0.0061011300422251225,-0.010601422749459743,0.0044965907000005245,0.0005046994774602354,0.004870991688221693
0.00943027250468731,0.005960718262940645,-0.009956363588571548,0.004472821950912476,0.0005198189755901694,0.0047914148308336735
0.008783238008618355,0.005484251771122217,-0.01027765404433012,0.0050815800204873085,0.0005139973945915699,0.004165596328675747
0.009471097029745579,0.005623950622975826,-0.010499966330826283,0.005131643731147051,0.0005408290890045464,0.003971090540289879
0.009371432475745678,0.006083547603338957,-0.010011599399149418,0.004878101870417595,0.0005072719068266451,0.003762544132769108
0.0090689891949296,0.006210870109498501,-0.010302628390491009,0.0047158850356936455,0.0006801503477618098,0.003843689803034067
0.00890820100903511,0.006323906593024731,-0.010665304958820343,0.004671909846365452,0.0006931364187039435,0.004065040964633226
0.009234089404344559,0.005782082676887512,-0.010365155525505543,0.004768299870193005,0.0006549228564836085,0.004532966762781143
0.009172121062874794,0.00568261556327343,-0.010766154155135155,0.005233937408775091,0.0006033722893334925,0.00434320792555809
0.009270399808883667,0.005937367212027311,-0.010051842778921127,0.0051270946860313416,0.0006243790849111974,0.0044211517088115215
0.009237125515937805,0.0061159380711615086,-0.010211674496531487,0.004708429332822561,0.000616285193245858,0.004243860952556133
0.00898815505206585,0.0060453154146671295,-0.010616263374686241,0.004838626366108656,0.0005779524799436331,0.004036037251353264
0.00939438957720995,0.005772226024419069,-0.00997665710747242,0.004697802476584911,0.0006097964360378683,0.003942062146961689
0.009119822643697262,0.005625287536531687,-0.010966814123094082,0.004928661976009607,0.0006330361356958747,0.003923188429325819
0.008844071999192238,0.005918166600167751,-0.010290310718119144,0.004716858267784119,0.0005853563197888434,0.004243986681103706
0.009231990203261375,0.006043491885066032,-0.010148834437131882,0.004837309941649437,0.0006073556141927838,0.004533763043582439
0.009393508546054363,0.0061741778627038,-0.010216901078820229,0.00469203619286418,0.0005680485628545284,0.004701156634837389
0.009142543189227581,0.005494174547493458,-0.010588191449642181,0.00482252286747098,0.0006291409954428673,0.004553562495857477
0.008898968808352947,0.005407428834587336,-0.010287558659911156,0.004785047844052315,0.0006561806076206267,0.0043452465906739235
0.008974972181022167,0.005853092297911644,-0.01058866735547781,0.005119733978062868,0.0005971334758214653,0.004063093569129705
0.008925260975956917,0.006461723241955042,-0.009962043724954128,0.005130804609507322,0.0006216347683221102,0.0034917283337563276
0.009200029075145721,0.005680819507688284,-0.010471711866557598,0.005135443527251482,0.0006101420149207115,0.0035864845849573612
0.00951123982667923,0.005766918882727623,-0.010486133396625519,0.005570144858211279,0.0005956774111837149,0.003876207396388054
0.009743044152855873,0.0055310544557869434,-0.010521633550524712,0.005260907579213381,0.0006208104314282537,0.004095433745533228
0.009673301130533218,0.006032857578247786,-0.010226837359368801,0.005350984167307615,0.0006653927848674357,0.004037013743072748
0.009926507249474525,0.00624390272423625,-0.01030185166746378,0.005285509862005711,0.0006792821222916245,0.003909402526915073
0.00973182637244463,0.005498583894222975,-0.010117794387042522,0.005235402844846249,0.0007008128450252116,0.0037869291845709085
0.0096820667386055,0.004987847059965134,-0.010423704981803894,0.005677538458257914,0.000810145225841552,0.0037464227061718702
0.00942268781363964,0.005234832409769297,-0.01044720970094204,0.005308222025632858,0.0008887643925845623,0.00329406070522964
0.00942268781363964,0.005234832409769297,-0.01044720970094204,0.005308222025632858,0.0008887643925845623,0.00329406070522964
0.010251686908304691,0.0052679493092000484,-0.010995155200362206,0.005409882869571447,0.0008288791286759079,0.0029987848829478025
0.009425722993910313,0.006315004080533981,-0.010604681447148323,0.005188311450183392,0.0008102435385808349,0.0031071018893271685
0.009695651941001415,0.0057069663889706135,-0.010457462631165981,0.005355908535420895,0.0007416410953737795,0.0034628247376531363
0.009362228214740753,0.005252952687442303,-0.010229705832898617,0.005502314306795597,0.0006650038412772119,0.0039042718708515167
0.009629329666495323,0.00501601304858923,-0.010661725886166096,0.005330522079020739,0.0006015299004502594,0.0038690585643053055
0.009787488728761673,0.005407203920185566,-0.010260410606861115,0.005212198477238417,0.0005490523763000965,0.0037600386422127485
0.00988505594432354,0.0055984994396567345,-0.010614189319312572,0.005104363430291414,0.0005672202096320689,0.0034566919784992933
0.009915743954479694,0.005697771441191435,-0.010490103624761105,0.0053564379923045635,0.00049730041064322,0.002893448807299137
0.010247722268104553,0.005126482341438532,-0.011221876367926598,0.005222829058766365,0.0004651877097785473,0.0027886242605745792
0.00956308376044035,0.004982803016901016,-0.011376419104635715,0.004990535322576761,0.00043694471241906285,0.003203124040737748
0.009643067605793476,0.005393776576966047,-0.010308177210390568,0.005093121901154518,0.0004119353834539652,0.0036200769245624542
0.01010412722826004,0.005280978977680206,-0.011235816404223442,0.005040711723268032,0.00039130361983552575,0.0037891813553869724
0.010490952990949154,0.005628650542348623,-0.011910183355212212,0.005186409689486027,0.00030373764457181096,0.0034663022961467505
0.010599670000374317,0.005302435252815485,-0.011759179644286633,0.005454651080071926,0.00028075918089598417,0.0032319379970431328
0.009640948846936226,0.005259299650788307,-0.01135663129389286,0.005979615729302168,0.000264014262938872,0.003017168026417494
0.010145102627575397,0.00514004472643137,-0.010370956733822823,0.005680793430656195,0.00027366800350137055,0.0028956192545592785
0.010036424733698368,0.005722464993596077,-0.011895673349499702,0.005338117480278015,0.0002818468783516437,0.0027543134056031704
0.010191027075052261,0.005430278833955526,-0.011365100741386414,0.005448474548757076,0.0002692588313948363,0.0029816925525665283
0.009947401471436024,0.00534434849396348,-0.011318196542561054,0.005257566925138235,0.00025655963690951467,0.003278008894994855
0.010050421580672264,0.0052812062203884125,-0.011322729289531708,0.005635276902467012,0.0002449254097882658,0.0032231840305030346
0.009748111478984356,0.005230334121733904,-0.011054698377847672,0.0058552054688334465,0.000263145484495908,0.003281323704868555
0.010135548189282417,0.005799506790935993,-0.011226645670831203,0.005918367300182581,0.0002613112155813724,0.0032932681497186422
0.010222483426332474,0.005547810345888138,-0.011097537353634834,0.0059089683927595615,0.00025147225824184716,0.002959001576527953
0.009950936771929264,0.005413461476564407,-0.010727259330451488,0.006147023290395737,0.0002418558724457398,0.00270983949303627
0.009967472404241562,0.005305349361151457,-0.011588024906814098,0.006180363241583109,0.00023291543766390532,0.002666531829163432
0.009967472404241562,0.005305349361151457,-0.011588024906814098,0.006180363241583109,0.00023291543766390532,0.002666531829163432
0.010513762012124062,0.005522145424038172,-0.011606322601437569,0.006127385422587395,0.00022461004846263677,0.0025735681410878897
0.0097356541082263,0.0051408857107162476,-0.011453631334006786,0.005897006019949913,0.00021687708795070648,0.0027203152421861887
0.009994159452617168,0.005299570504575968,-0.011618654243648052,0.005724562332034111,0.00020965846488252282,0.0025727078318595886
0.01065084245055914,0.005635303445160389,-0.011201967485249043,0.005742488894611597,0.0002029052411671728,0.0023443724494427443
0.010089978575706482,0.005058880429714918,-0.011810610070824623,0.006003891583532095,0.00019657363009173423,0.0021190305706113577
0.010529991239309311,0.00526203028857708,-0.011133252643048763,0.006324671674519777,0.00021602364722639322,0.002137973206117749
0.009840138256549835,0.005346761550754309,-0.011181631125509739,0.005877975840121508,0.00021133846894372255,0.0025687613524496555
0.010006596334278584,0.00515610259026289,-0.011611317284405231,0.005725207272917032,0.00020541707635857165,0.00285976380109787
0.010167327709496021,0.005378637462854385,-0.011847459711134434,0.005806630942970514,0.00019433478883001953,0.002589515643194318
0.009920129552483559,0.005306994542479515,-0.011420381255447865,0.005610859487205744,0.0001882562937680632,0.0026736289728432894
0.010339654050767422,0.0051239291206002235,-0.010372008197009563,0.005583335645496845,0.00018070670193992555,0.002782366005703807
0.009969030506908894,0.004930668976157904,-0.011971582658588886,0.005274971481412649,0.00017372910224366933,0.002705843187868595
0.009971189312636852,0.005266962107270956,-0.011276580393314362,0.005334870424121618,0.00016727072943467647,0.002775874687358737
0.01060051005333662,0.00534500228241086,-0.011358601972460747,0.005733993835747242,0.00016127631533890963,0.002636190038174391
0.009855101816356182,0.005752512253820896,-0.011380826123058796,0.00606173649430275,0.00015569428796879947,0.002472672378644347
0.010240253992378712,0.0051465281285345554,-0.011049137450754642,0.005784127861261368,0.00015048794739414006,0.0024962271563708782
0.010337388142943382,0.004884941037744284,-0.011657287366688251,0.006300292443484068,0.00014561689749825746,0.0026290579698979855
0.009692315012216568,0.005762997083365917,-0.011684002354741096,0.006186723709106445,0.00014105193258728832,0.002621809486299753
0.010071929544210434,0.005380475893616676,-0.01007862575352192,0.006191516760736704,0.00013676508388016373,0.002645389176905155
0.010317379608750343,0.005440596491098404,-0.011728870682418346,0.006445418111979961,0.0001327311183558777,0.002562725218012929
0.009915689006447792,0.0050973608158528805,-0.011099103838205338,0.006510551553219557,0.0001289275533054024,0.002425563521683216
0.01070119347423315,0.005189382005482912,-0.011374133639037609,0.0063044847920536995,0.00012533596600405872,0.0023848237469792366
0.011215224862098694,0.005406551994383335,-0.011347228661179543,0.00628445902839303,0.00012194026203360409,0.0022005680948495865
0.011255002580583096,0.0053216442465782166,-0.011416410095989704,0.005868630949407816,0.00011872234608745202,0.0024162803310900927
0.011285550892353058,0.005813119933009148,-0.012464928440749645,0.0058492436073720455,0.00011567094770725816,0.00250220182351768
0.01049139816313982,0.005774248857051134,-0.011375609785318375,0.0063820453360676765,0.00011277209705440328,0.0024049843195825815
0.010946075432002544,0.005665410775691271,-0.011419793590903282,0.006003799848258495,0.00011001501843566075,0.0023318841122090816
0.011059033684432507,0.005491909570991993,-0.011375810950994492,0.005999225657433271,0.00010738936543930322,0.002133233705535531
0.011059033684432507,0.005491909570991993,-0.011375810950994492,0.005999225657433271,0.00010738936543930322,0.002133233705535531
0.011514885351061821,0.005811353214085102,-0.01161052007228136,0.006230001803487539,0.00010249664774164557,0.0022974242456257343
0.011514885351061821,0.005811353214085102,-0.01161052007228136,0.006230001803487539,0.00010249664774164557,0.0022974242456257343
0.011474812403321266,0.0058381203562021255,-0.011317463591694832,0.006093817297369242,0.00010021445632446557,0.002278328873217106
0.011430836282670498,0.005484084133058786,-0.01144806481897831,0.006137194111943245,9.803131251828745e-05,0.002377560827881098
0.011412721127271652,0.005062535405158997,-0.01110569667071104,0.006132109556347132,9.594129369361326e-05,0.002184281824156642
0.011682514101266861,0.005231983494013548,-0.01170728262513876,0.006474351976066828,9.393832442583516e-05,0.002158636227250099
0.011494878679513931,0.005553243216127157,-0.011851380579173565,0.0067511554807424545,9.201747161569074e-05,0.0020923265255987644
0.011353655718266964,0.0055761574767529964,-0.01164181437343359,0.006399433594197035,8.840212831273675e-05,0.002235725987702608
0.011439094319939613,0.005067077465355396,-0.011640241369605064,0.006669885013252497,8.669874659972265e-05,0.0021610036492347717
0.011123325675725937,0.004884509835392237,-0.011064652353525162,0.006709844805300236,8.505996083840728e-05,0.002085084095597267
0.01166171208024025,0.005641971714794636,-0.011854936368763447,0.005883490666747093,8.34819657029584e-05,0.0020224701147526503
0.012090977281332016,0.00552847795188427,-0.011526588350534439,0.005489115137606859,8.196136332117021e-05,0.0019324271706864238
0.011593434028327465,0.005805717781186104,-0.012095144018530846,0.005447074770927429,8.049534517340362e-05,0.0017506639705970883
0.01175659615546465,0.005423241760581732,-0.012634586542844772,0.006176772527396679,7.90806589066051e-05,0.0016999002546072006
0.011528987437486649,0.00525139644742012,-0.011496023274958134,0.006327426061034203,7.771496166242287e-05,0.001769198919646442
0.011569580063223839,0.005261252634227276,-0.011489948257803917,0.006075351499021053,7.639562682015821e-05,0.0016515166498720646
0.012306342832744122,0.005634780041873455,-0.011172851547598839,0.005914250388741493,7.512034790124744e-05,0.0018397385720163584
0.0114176319912076,0.005479271057993174,-0.011958171613514423,0.0056388708762824535,7.388683297904208e-05,0.0017825475661084056
0.011727089993655682,0.005719740409404039,-0.012416733428835869,0.006093769334256649,7.26933722035028e-05,0.0019180417293682694
0.011775070801377296,0.005193366203457117,-0.011405727826058865,0.006317452527582645,7.15377027518116e-05,0.0017915295902639627
0.012195589952170849,0.004928369540721178,-0.011406552977859974,0.006050062831491232,7.041820208542049e-05,0.00148029497358948
0.012081346474587917,0.005129106342792511,-0.011142036877572536,0.006181994453072548,6.933324766578153e-05,0.0012476879637688398
0.012203207239508629,0.005414485931396484,-0.011673237197101116,0.006315538194030523,6.82812460581772e-05,0.001171032665297389
0.012354640290141106,0.006088802590966225,-0.011975654400885105,0.006142457015812397,6.726060382789001e-05,0.0011626293417066336
0.011875121854245663,0.005465644411742687,-0.011846733279526234,0.006150742061436176,7.864575309213251e-05,0.0011618136195465922
0.012571165338158607,0.005236153490841389,-0.011982453987002373,0.006426687352359295,7.831260882085189e-05,0.0011691587278619409
0.01190189365297556,0.0050218128599226475,-0.011418228968977928,0.006247359793633223,7.724517490714788e-05,0.0011737560853362083
0.01190189365297556,0.0050218128599226475,-0.011418228968977928,0.006247359793633223,7.724517490714788e-05,0.0011737560853362083
0.011976105161011219,0.004996746312826872,-0.011859515681862831,0.006327551323920488,7.615913636982441e-05,0.0014973321231082082
0.012334120459854603,0.005850172135978937,-0.01119367778301239,0.006962277926504612,7.510029536206275e-05,0.0015488554490730166
0.011917882598936558,0.005636219866573811,-0.010996492579579353,0.006853715516626835,7.407011435134336e-05,0.0014115592930465937
0.01234055869281292,0.0055052596144378185,-0.012379778549075127,0.006508258171379566,7.306792394956574e-05,0.0013160775415599346
0.012145213782787323,0.005038703326135874,-0.011988764628767967,0.006181312259286642,7.20923999324441e-05,0.0012328982120379806
0.012460954487323761,0.004966819193214178,-0.011755232699215412,0.006402184255421162,7.114269101293758e-05,0.0011964044533669949
0.012112589552998543,0.005700848065316677,-0.011350937187671661,0.006896654609590769,6.931624375283718e-05,0.0012706976849585772
0.012172830291092396,0.005749809090048075,-0.01157716941088438,0.006590225733816624,6.843774463050067e-05,0.0017140689305961132
0.012267189100384712,0.005128942895680666,-0.011246171779930592,0.006646046414971352,6.758128438377753e-05,0.0016951991710811853
0.012713054195046425,0.005111359059810638,-0.011756304651498795,0.006943967193365097,6.674593169009313e-05,0.0015589141985401511
0.012281553819775581,0.005137001629918814,-0.01204208005219698,0.006852623075246811,6.593105354113504e-05,0.0013383852783590555
0.01244050357490778,0.005088816396892071,-0.011480691842734814,0.006289844401180744,6.513577682198957e-05,0.001239638077095151
0.01274328026920557,0.005904986057430506,-0.011464358307421207,0.00625521969050169,6.43594830762595e-05,0.0011629372602328658
0.012442016042768955,0.005392301827669144,-0.011047609150409698,0.0067164478823542595,6.360148836392909e-05,0.0011014140909537673
0.012792222201824188,0.005626029334962368,-0.011756409890949726,0.007102350238710642,6.286106508923694e-05,0.0009759970707818866
0.012501358054578304,0.005202664528042078,-0.012265139259397984,0.006709891837090254,6.213775486685336e-05,0.0009272886672988534
0.013560558669269085,0.005441518034785986,-0.011888477951288223,0.006287373136729002,6.143084465293214e-05,0.0009208426345139742
0.012474032118916512,0.005310265347361565,-0.012340107001364231,0.006548932287842035,6.073994518374093e-05,0.0009179912740364671
0.012547674588859081,0.005457001738250256,-0.011390915140509605,0.007206053007394075,6.006430703564547e-05,0.0009570245165377855
0.012431317940354347,0.005575434770435095,-0.011919950135052204,0.007014451548457146,1.5263025488820858e-05,0.0010379675077274442
0.012993097305297852,0.005176603328436613,-0.011605492793023586,0.007177500985562801,9.965665412892122e-07,0.0010211911285296082
0.012791811488568783,0.00514453137293458,-0.011534438468515873,0.006833510939031839,6.506867578082165e-08,0.0010130319278687239
0.013244633562862873,0.005146390292793512,-0.012066385708749294,0.006924283225089312,4.248519758220937e-09,0.001045126118697226
0.013261674903333187,0.00557758379727602,-0.011690638959407806,0.006784628611057997,2.773979657089143e-10,0.0010337472194805741
0.012853315100073814,0.005199185106903315,-0.012328025884926319,0.0070480722934007645,1.8112105565348813e-11,0.0010127840796485543
0.013180199079215527,0.005262620747089386,-0.011922892183065414,0.006992454640567303,1.1825910259735672e-12,0.0009404366719536483
0.012744811363518238,0.005442321766167879,-0.011987871490418911,0.007242198102176189,7.721473742512697e-14,0.000878958438988775
0.013256330043077469,0.005181089509278536,-0.011554965749382973,0.0076276748441159725,5.041570595243697e-15,0.0007945867255330086
0.013256330043077469,0.005181089509278536,-0.011554965749382973,0.0076276748441159725,5.041570595243697e-15,0.0007945867255330086
0.012755561619997025,0.0053170714527368546,-0.011470401659607887,0.007263714913278818,3.291785497036169e-16,0.0007484456873498857
0.013273831456899643,0.0052571226842701435,-0.013159447349607944,0.0071447971276938915,2.1493004432879742e-17,0.0007077903137542307
0.013254848308861256,0.005741990637034178,-0.012226350605487823,0.007047767750918865,1.403339619746732e-18,0.0007054053130559623
0.013581839390099049,0.005282626952975988,-0.012364013120532036,0.007129033096134663,9.162805014811478e-20,0.0006557328742928803
0.013463829644024372,0.005444081500172615,-0.011687813326716423,0.00714349327608943,3.9062476041177904e-22,0.0005439033266156912
0.013533986173570156,0.005310933105647564,-0.0123240165412426,0.00713290786370635,2.550500587005521e-23,0.0005005741259083152
0.01332351379096508,0.005281477700918913,-0.011976978741586208,0.007212158292531967,1.6652946400371923e-24,0.0004637903184629977
0.013446018099784851,0.0049823890440166,-0.012940376065671444,0.007062018383294344,1.0873182935832965e-25,0.00043197168270125985
0.013404827564954758,0.005063659977167845,-0.012294596992433071,0.006816104985773563,7.099411494434827e-27,0.0004042379732709378
0.013850944116711617,0.005301624070852995,-0.01231530774384737,0.007030748296529055,4.635408597726377e-28,0.0003798523684963584
0.013247329741716385,0.005020161624997854,-0.012248819693922997,0.007380115333944559,3.0265904816610344e-29,0.0004024981171824038
0.013641239143908024,0.005495612509548664,-0.011738966219127178,0.007329746149480343,1.97614725113346e-30,0.0003869321953970939
0.013413146138191223,0.005198384169489145,-0.01244126446545124,0.007214076351374388,1.29028290232274e-31,0.0003675704065244645
0.013930198736488819,0.00528672942891717,-0.012291520833969116,0.007638470735400915,8.424624748969328e-33,0.00034973540459759533
0.013420406728982925,0.005532906856387854,-0.012873811647295952,0.007739373482763767,5.500678060214892e-34,0.0003335316723678261
0.013763448223471642,0.005148384254425764,-0.01237382274121046,0.007374801207333803,3.591549936424427e-35,0.00031876249704509974
0.013716173358261585,0.005186698865145445,-0.012702954933047295,0.007256202399730682,2.3450254928452223e-36,0.00030524481553584337
0.013942060060799122,0.005555791314691305,-0.01254383847117424,0.007484641391783953,1.5311341480306144e-37,0.00029282813193276525
0.013654046691954136,0.006033232901245356,-0.01224951259791851,0.00763105321675539,9.997212167810862e-39,0.00028138223569840193
0.014271143823862076,0.005217039491981268,-0.012599676847457886,0.007855740375816822,6.527458441594647e-40,0.0002707976964302361
0.013814766891300678,0.004985334817320108,-0.012287205085158348,0.007633849047124386,4.2619091493974986e-41,0.0002609801886137575
0.014037661254405975,0.0054124328307807446,-0.012998659163713455,0.007675952278077602,2.7829787501490867e-42,0.00025185069534927607
0.014007077552378178,0.005684670992195606,-0.012406005524098873,0.0072042010724544525,1.821688003622262e-43,0.00024333750479854643
0.014340260997414589,0.005622542928904295,-0.012491244822740555,0.007025661412626505,1.1210387714598537e-44,0.0002353817835683003
0.014214809983968735,0.005226628389209509,-0.012266833335161209,0.007094528526067734,1.401298464324817e-45,0.00022792986419517547
0.014245240949094296,0.005335334688425064,-0.012212997302412987,0.007378712296485901,0.0,0.00022093475854489952
0.014245240949094296,0.005335334688425064,-0.012212997302412987,0.007378712296485901,0.0,0.00022093475854489952
0.014195062220096588,0.00517395231872797,-0.012234864756464958,0.007451686076819897,0.0,0.00019451182743068784
0.013981535099446774,0.005902980919927359,-0.012011037208139896,0.007297798525542021,0.0,0.00018259274656884372
0.013805922120809555,0.005817769560962915,-0.012907500378787518,0.00715230405330658,0.0,0.00017705063510220498
0.014168915338814259,0.005192460957914591,-0.01235711108893156,0.007556718308478594,0.0,0.0001676016254350543
0.014418951235711575,0.005326115060597658,-0.012018688023090363,0.007446694653481245,0.0,0.00016325819888152182
0.014249766245484352,0.005533524788916111,-0.011900580488145351,0.007338573224842548,0.0,0.00015913414245005697
0.014551585540175438,0.005555108189582825,-0.012642649933695793,0.007401235401630402,0.0,0.00015521344903390855
0.01441873423755169,0.005529218353331089,-0.011804947629570961,0.007544947322458029,0.0,7.592952169943601e-05
0.014112393371760845,0.005044081248342991,-0.012591132894158363,0.007958081550896168,0.0,4.9921258323593065e-05
0.014581901952624321,0.005495533347129822,-0.011981009505689144,0.0076819732785224915,0.0,4.705281025962904e-05
0.014703724533319473,0.0053137424401938915,-0.012376442551612854,0.008122717961668968,0.0,4.575447746901773e-05
0.01440564263612032,0.005976744927465916,-0.012268486432731152,0.008114484138786793,0.0,2.524287447158713e-05
0.015157302841544151,0.005453360732644796,-0.011818135157227516,0.007796271238476038,0.0,2.1958827346679755e-05
0.014613517560064793,0.005047882907092571,-0.012393237091600895,0.007340314332395792,0.0,1.0819498129421845e-05
0.014626318588852882,0.005623435135930777,-0.012055223807692528,0.007406256161630154,0.0,7.064359124342445e-07
0.014584205113351345,0.005479402840137482,-0.012811929918825626,0.007858450524508953,0.0,4.612521564695271e-08
0.014442041516304016,0.00471397303044796,-0.01236648391932249,0.007839161902666092,0.0,3.0116471538832457e-09
0.014412464573979378,0.004545439034700394,-0.012335416860878468,0.0080697787925601,0.0,1.9663902450783866e-10
0.014302626252174377,0.0047203111462295055,-0.01233049388974905,0.008315996266901493,0.0,1.283912386129682e-11
0.014302626252174377,0.0047203111462295055,-0.01233049388974905,0.008315996266901493,0.0,1.283912386129682e-11
0.015360756777226925,0.0047029186971485615,-0.012286296114325523,0.008211953565478325,0.0,8.383029513614471e-13
0.014727224595844746,0.004660821985453367,-0.012149990536272526,0.007862775586545467,0.0,-0.0008280727197416127
0.014727224595844746,0.004660821985453367,-0.012149990536272526,0.007862775586545467,0.0,-0.0008280727197416127
0.014359964989125729,0.004690594971179962,-0.012640382163226604,0.008249732665717602,0.0,-0.000993257388472557
0.015214570797979832,0.00462339585646987,-0.0123122064396739,0.00797257013618946,0.0,-0.000873349781613797
0.014711292460560799,0.00458171684294939,-0.012363624759018421,0.007764034438878298,0.0,-0.0007678414112888277
0.014711292460560799,0.00458171684294939,-0.012363624759018421,0.007764034438878298,0.0,-0.0007678414112888277
0.014801634475588799,0.0046288929879665375,-0.011737500317394733,0.007971754297614098,0.0,-0.0007312949164770544
0.015101132914423943,0.0042643193155527115,-0.012470440939068794,0.008177628740668297,0.0,-0.0007020524935796857
0.014966360293328762,0.004573071841150522,-0.012550726532936096,0.008194230496883392,0.0,-0.0006186347454786301
0.01557224616408348,0.004680783022195101,-0.01214446872472763,0.008340842090547085,0.0,-0.0007119321380741894
0.014567242003977299,0.004762846510857344,-0.011544711887836456,0.007984205149114132,0.0,-0.0012460316065698862
0.015129121951758862,0.004463503137230873,-0.012067296542227268,0.00826206337660551,0.0,-0.0014846628764644265
0.014820381999015808,0.004264478106051683,-0.012112409807741642,0.008696331642568111,0.0,-0.0015639751218259335
0.01567571796476841,0.004473725333809853,-0.012606441043317318,0.00849003903567791,0.0,-0.0015606870874762535
0.015723643824458122,0.004657782148569822,-0.012273537926375866,0.008179383352398872,0.0,-0.0015312961768358946
0.015561309643089771,0.004747660830616951,-0.012889720499515533,0.008377190679311752,0.0,-0.0013429333921521902
0.015182698145508766,0.004741143435239792,-0.012174341827630997,0.00860429834574461,0.0,-0.0010775553528219461
0.015558755956590176,0.00472814217209816,-0.012186059728264809,0.008299706503748894,0.0,-0.0011563863372430205
0.01567241922020912,0.004806779325008392,-0.012631298042833805,0.008275200612843037,0.0,-0.0011529296170920134
0.015508037991821766,0.004787292331457138,-0.011990835890173912,0.008022874593734741,0.0,-0.0014930476900190115
0.015432327054440975,0.00473375478759408,-0.012758918106555939,0.008028206415474415,0.0,-0.0014844640390947461
0.015299306251108646,0.00473342090845108,-0.012507418170571327,0.008135192096233368,0.0,-0.0017986592138186097
0.01610998623073101,0.005076729226857424,-0.012923195958137512,0.008474640548229218,0.0,-0.0017814893508329988
0.01583077572286129,0.004984297323971987,-0.012576047331094742,0.00885970238596201,0.0,-0.00173813512083143
0.016038667410612106,0.0048392219468951225,-0.013061783276498318,0.008673792704939842,0.0,-0.0016061071073636413
0.015746360644698143,0.005179442465305328,-0.01290517020970583,0.008604721166193485,0.0,-0.0015102701727300882
0.016330797225236893,0.004943245090544224,-0.012385270558297634,0.009340382181107998,0.0,-0.001684068702161312
0.016330797225236893,0.004943245090544224,-0.012385270558297634,0.009340382181107998,0.0,-0.001684068702161312
0.016537921503186226,0.004922980908304453,-0.013045653700828552,0.008951351046562195,0.0,-0.00259797228500247
0.016337305307388306,0.00537443021312356,-0.012354257516562939,0.008851474151015282,0.0,-0.0035815276205539703
0.016262603923678398,0.005046135745942593,-0.01311604492366314,0.008788224309682846,0.0,-0.00335900392383337
0.01596418023109436,0.004938173573464155,-0.012663719244301319,0.008639409206807613,0.0,-0.0026534937787801027
0.016599252820014954,0.004820091184228659,-0.013239609077572823,0.008452904410660267,0.0,-0.0020910378079861403
0.016256216913461685,0.004895330872386694,-0.012669079005718231,0.008644473738968372,0.0,-0.0018026318866759539
0.016391048207879066,0.004731323570013046,-0.012711340561509132,0.008842557668685913,0.0,-0.0017267055809497833
0.016010090708732605,0.004800451919436455,-0.0131035465747118,0.00895018596202135,0.0,-0.002063080435618758
0.016309604048728943,0.005379192531108856,-0.01236645970493555,0.009084031917154789,0.0,-0.0026183505542576313
0.01651184819638729,0.00497273588553071,-0.013932069763541222,0.009262947365641594,0.0,-0.00299929385073483
0.01642126962542534,0.004752237815409899,-0.013112231157720089,0.009247972629964352,9.305061325903807e-07,-0.0029821591451764107
0.01618584617972374,0.004667579662054777,-0.013345015235245228,0.008843915536999702,3.966893480367162e-09,-0.0024095983244478703
0.016650483012199402,0.005078527145087719,-0.013919875957071781,0.008730905130505562,2.590098135968333e-10,-0.0023045758716762066
0.016385521739721298,0.005057100672274828,-0.013068928383290768,0.008453795686364174,1.6911491304560933e-11,-0.0024274729657918215
0.016866369172930717,0.004754949826747179,-0.013654841110110283,0.008560211397707462,1.1041994141952616e-12,-0.0025572841987013817
0.016961347311735153,0.004553457256406546,-0.013481315225362778,0.008868260309100151,7.209633416530373e-14,-0.0030572465620934963
0.016349822282791138,0.004593679215759039,-0.013356518931686878,0.008400550112128258,4.707375439970407e-15,-0.002993894275277853
0.016977116465568542,0.005056491121649742,-0.01339625008404255,0.008231494575738907,3.0735800160050085e-16,-0.0032360623590648174
0.016868194565176964,0.004826295655220747,-0.013683204539120197,0.008900736458599567,2.0068280126346983e-17,-0.003117266343906522
0.016812613233923912,0.004923596046864986,-0.013483819551765919,0.00857989676296711,1.3103151982517482e-18,-0.002787935547530651
0.017287589609622955,0.004925233777612448,-0.013227344490587711,0.00828392431139946,8.555421800650275e-20,-0.002595494268462062
0.01699177920818329,0.004848333075642586,-0.013681787066161633,0.009708325378596783,5.58607911574774e-21,-0.002770638093352318
0.016964402049779892,0.005116104613989592,-0.013011493720114231,0.00929170474410057,3.647310890846087e-22,-0.003051002509891987
0.016934579238295555,0.0050220247358083725,-0.013511107303202152,0.009322341531515121,2.381433179976002e-23,-0.0034086063969880342
0.017570210620760918,0.004788568709045649,-0.01315196231007576,0.009229488670825958,1.5549057836955426e-24,-0.003659323323518038
0.017321420833468437,0.004671597387641668,-0.01373755931854248,0.009396866895258427,-0.0002366614353377372,-0.003784824162721634
0.017051473259925842,0.00468022795394063,-0.013043477199971676,0.008740297518670559,-0.00025403601466678083,-0.003910299390554428
0.0174539964646101,0.005089433863759041,-0.013691949658095837,0.008842499926686287,-0.00028751566424034536,-0.0035327046643942595
0.017396848648786545,0.004674015566706657,-0.013873727060854435,0.0094023821875453,-0.0002758983173407614,-0.003512653987854719
0.016086330637335777,0.005089230369776487,-0.014025322161614895,0.009552381001412868,-0.00026267580687999725,-0.0032215635292232037
0.016086330637335777,0.005089230369776487,-0.014025322161614895,0.009552381001412868,-0.00026267580687999725,-0.0032215635292232037
0.01773119904100895,0.004976294934749603,-0.013392148539423943,0.009138212539255619,-0.0002708967949729413,-0.0032832680735737085
0.017773928120732307,0.00516328914090991,-0.014020943082869053,0.00942299421876669,-0.0002778968773782253,-0.003482996253296733
0.017921844497323036,0.004757123999297619,-0.013627219013869762,0.009386936202645302,-0.0002906894660554826,-0.0038573432248085737
0.017921844497323036,0.004757123999297619,-0.013627219013869762,0.009386936202645302,-0.0002906894660554826,-0.0038573432248085737
0.01744919642806053,0.00468220841139555,-0.013631684705615044,0.009597310796380043,-0.0002815524931065738,-0.0038773315027356148
0.01779983937740326,0.0052242279052734375,-0.013823214918375015,0.009370652958750725,-0.0002710959524847567,-0.0039097340777516365
0.017655247822403908,0.0050703841261565685,-0.013708574697375298,0.009053795598447323,-0.0003695570630952716,-0.0037774525117129087
0.017071181908249855,0.004958974663168192,-0.013889404945075512,0.010332454927265644,-0.00039268750697374344,-0.0035961305256932974
0.017722180113196373,0.004775365348905325,-0.013817894272506237,0.00970364362001419,-0.0003698656801134348,-0.0038348680827766657
0.018049251288175583,0.004701053723692894,-0.014012669213116169,0.009803916327655315,-0.0003463943721726537,-0.004310001619160175
0.017916668206453323,0.005194331519305706,-0.013288640417158604,0.00991917960345745,-0.00032551976619288325,-0.004451178479939699
0.0179273821413517,0.005560125224292278,-0.013650937005877495,0.009228939190506935,-0.00034471461549401283,-0.004235543310642242
0.018022146075963974,0.005461498629301786,-0.013092554174363613,0.009532304480671883,-0.0003380199195817113,-0.004476890899240971
0.017806146293878555,0.005323503166437149,-0.01404142752289772,0.009229549206793308,-0.0003439508145675063,-0.004668041598051786
0.01895119622349739,0.004948439076542854,-0.013604030013084412,0.009184902533888817,-0.000348139728885144,-0.004186083562672138
0.01821371540427208,0.005213012918829918,-0.014186037704348564,0.009714838117361069,-0.0003333779168315232,-0.004020787309855223
0.018117301166057587,0.0054994672536849976,-0.013488768599927425,0.009449681267142296,-0.0003510012465994805,-0.004195834044367075
0.018630973994731903,0.0053011579439044,-0.013701030984520912,0.009031391702592373,-0.0003542187623679638,-0.004842160269618034
0.018189260736107826,0.005279864184558392,-0.013669011183083057,0.009282886050641537,-0.0003302347322460264,-0.00511242775246501
0.018220486119389534,0.004954563453793526,-0.013900892809033394,0.0095064677298069,-0.00036500475835055113,-0.004832888953387737
0.018238423392176628,0.004792891442775726,-0.013463512063026428,0.009408203884959221,-0.000345392880262807,-0.004787724930793047
0.018276004120707512,0.005109190940856934,-0.013806687667965889,0.009978058747947216,-0.0003248480206821114,-0.004337043035775423
0.018276004120707512,0.005109190940856934,-0.013806687667965889,0.009978058747947216,-0.0003248480206821114,-0.004337043035775423
0.018688412383198738,0.005028483923524618,-0.013651004061102867,0.009996733628213406,-0.0003064232296310365,-0.0040639652870595455
0.018797844648361206,0.005165913142263889,-0.013735921122133732,0.009444567374885082,-0.00033495743991807103,-0.004303140100091696
0.018016181886196136,0.005034578964114189,-0.013512124307453632,0.00994543544948101,-0.0003208284906577319,-0.004883062094449997
0.018390804529190063,0.004861029796302319,-0.01351720467209816,0.010011889971792698,-0.00030546030029654503,-0.005048851482570171
0.018341559916734695,0.005037994589656591,-0.013791486620903015,0.009530316106975079,-0.0003220757353119552,-0.004708805121481419
0.018699737265706062,0.004977913107722998,-0.013942970894277096,0.009827318601310253,-0.0003175325400661677,-0.004102109465748072
0.018765464425086975,0.004875511396676302,-0.014252313412725925,0.00996675156056881,-0.0003047229256480932,-0.0038336957804858685
0.01832023821771145,0.0050768475048244,-0.013990637846291065,0.010086271911859512,-0.0003148491377942264,-0.004666416440159082
0.01851111464202404,0.0054748342372477055,-0.014051186852157116,0.010064154863357544,-0.00031458871671929955,-0.004726089537143707
0.0183175690472126,0.005076247733086348,-0.014091416262090206,0.010052959434688091,-0.0002953574003186077,-0.0049807168543338776
0.0184917189180851,0.00523116672411561,-0.01449565403163433,0.00969263631850481,-0.0002772440784610808,-0.0053010000847280025
0.01884460262954235,0.005012899171561003,-0.014014845713973045,0.010100428014993668,-0.0003097626904491335,-0.0050565144047141075
0.018228180706501007,0.005449471063911915,-0.01419140212237835,0.010052988305687904,-0.0003035960835404694,-0.004796354100108147
0.018852489069104195,0.00536493631079793,-0.014211694709956646,0.010411590337753296,-0.0003098154556937516,-0.004926178138703108
0.01857565902173519,0.004852567333728075,-0.013417499139904976,0.009888074360787868,-0.00033332229941152036,-0.004946427885442972
0.01858500950038433,0.004817522596567869,-0.0143617307767272,0.009579655714333057,-0.0004004034271929413,-0.005217640660703182
0.019322123378515244,0.0048508793115615845,-0.014325150288641453,0.0098768575116992,-0.0004357197030913085,-0.005126690957695246
0.0189420934766531,0.004851519595831633,-0.014963964000344276,0.009997024200856686,-0.00047093836474232376,-0.005707089323550463
0.018314139917492867,0.00517088919878006,-0.014737681485712528,0.009857704862952232,-0.00044209437328390777,-0.005413456819951534
0.018563248217105865,0.005490078590810299,-0.01461990736424923,0.010595975443720818,-0.0004092046292498708,-0.004797323606908321
0.01993390917778015,0.005083869677037001,-0.014202520251274109,0.01076009962707758,-0.00038040149956941605,-0.004847773816436529
0.019156772643327713,0.004952131304889917,-0.014886283315718174,0.010447900742292404,-0.000410438806284219,-0.005343405529856682
0.019273027777671814,0.004829689860343933,-0.014409476891160011,0.010153019800782204,-0.0003887009806931019,-0.0054763550870120525
0.01941179670393467,0.00478108786046505,-0.014646319672465324,0.009705409407615662,-0.00036632257979363203,-0.005928125698119402
0.01892141066491604,0.004741547629237175,-0.014331363141536713,0.009545247070491314,-0.0003826608299277723,-0.005524287931621075
0.0193988848477602,0.005575466901063919,-0.014682909473776817,0.010393764823675156,-0.0003741922555491328,-0.005075130611658096
0.01894206367433071,0.0051225535571575165,-0.014500281773507595,0.00980448443442583,-0.0003564120561350137,-0.005075606983155012
0.018788110464811325,0.004907738883048296,-0.01514443289488554,0.009534853510558605,-0.00033964207977987826,-0.00567560875788331
0.019935889169573784,0.004801916424185038,-0.014942931942641735,0.010495209135115147,-0.000324342428939417,-0.005513873416930437
0.02043253369629383,0.004885451402515173,-0.014877930283546448,0.01014305092394352,-0.00031124663655646145,-0.005867523606866598
0.019289234653115273,0.004864504560828209,-0.015345265157520771,0.009965273551642895,-0.00029958903905935585,-0.00604427931830287
0.02003314159810543,0.005172950215637684,-0.015657812356948853,0.010521461255848408,-0.0002814359904732555,-0.0060954163782298565
0.019575024023652077,0.005134799517691135,-0.015827836468815804,0.01010903436690569,-0.0002649014350026846,-0.005488324910402298
0.019575024023652077,0.005134799517691135,-0.015827836468815804,0.01010903436690569,-0.0002649014350026846,-0.005488324910402298
0.018735216930508614,0.005056892521679401,-0.015457956120371819,0.010685363784432411,-0.00027455348754301667,-0.00589732825756073
0.019885418936610222,0.004878945183008909,-0.015807446092367172,0.010793053545057774,-0.00028271449264138937,-0.006499824114143848
0.020099086686968803,0.004782571457326412,-0.015349732711911201,0.011017628014087677,-0.0002700460609048605,-0.006235927809029818
0.019967537373304367,0.005169034469872713,-0.015696853399276733,0.011257351376116276,-0.00025727401953190565,-0.005972845945507288
0.01928376406431198,0.005476105492562056,-0.014855035580694675,0.010409614071249962,-0.0002655769349075854,-0.005575497169047594
0.01965225115418434,0.00500784907490015,-0.016107438132166862,0.009778139181435108,-0.0002726748352870345,-0.005434240214526653
0.020000427961349487,0.004877525847405195,-0.015287289395928383,0.010440199635922909,-0.00029025060939602554,-0.006092793773859739
0.02053900994360447,0.004881910979747772,-0.015313541516661644,0.010458464734256268,-0.0002874738711398095,-0.006416252348572016
0.020896516740322113,0.005630082450807095,-0.01579657569527626,0.010803801007568836,-0.00034611011506058276,-0.006282955873757601
0.020028138533234596,0.005422030575573444,-0.01568809151649475,0.010890922509133816,-0.0003241859085392207,-0.006026643794029951
0.02010388672351837,0.004853275138884783,-0.015251195058226585,0.011205645278096199,-0.0003319747047498822,-0.006081779953092337
0.020394636318087578,0.004738135728985071,-0.015698857605457306,0.010622665286064148,-0.00033818199881352484,-0.006435468792915344
0.02063644491136074,0.004954327363520861,-0.015541204251348972,0.01024894043803215,-0.00031990918796509504,-0.006047164089977741
0.020746449008584023,0.004864984657615423,-0.015937533229589462,0.010374827310442924,-0.0003392346843611449,-0.005999672692269087
0.020790772512555122,0.0047518289647996426,-0.015411795116961002,0.010594876483082771,-0.00033293405431322753,-0.006149916909635067
0.020704250782728195,0.005213166121393442,-0.01598421484231949,0.010041718371212482,-0.0003561474150046706,-0.0061993105337023735
0.020760923624038696,0.004259845241904259,-0.015166723169386387,0.010627813637256622,-0.0003452356322668493,-0.006373187061399221
0.02089777961373329,0.0038538784720003605,-0.015732090920209885,0.010048964992165565,-0.00043620873475447297,-0.006685210391879082
0.02086617611348629,0.0039971573278307915,-0.01555507443845272,0.009866596199572086,-0.0004050902498420328,-0.00626620976254344
0.020645448938012123,0.0040987818501889706,-0.015655338764190674,0.010459099896252155,-0.0003721003304235637,-0.006341047119349241
0.020631082355976105,0.004467829596251249,-0.015107116661965847,0.010248505510389805,-0.0003436890838202089,-0.0066332733258605
0.02120070345699787,0.004200233146548271,-0.01548647042363882,0.010440925136208534,-0.00037443378823809326,-0.006474490277469158
0.02113511972129345,0.004285620525479317,-0.015788814052939415,0.010715333744883537,-0.00035717751597985625,-0.007025089114904404
0.02113511972129345,0.004285620525479317,-0.015788814052939415,0.010715333744883537,-0.00035717751597985625,-0.007025089114904404
0.021713048219680786,0.004537468310445547,-0.015615526586771011,0.01070359442383051,-0.0003354690270498395,-0.006743474863469601
0.02111082337796688,0.004243912640959024,-0.015638407319784164,0.011150619946420193,-0.0003158689069095999,-0.006960658356547356
0.02132354862987995,0.004033076111227274,-0.0153212184086442,0.010981527157127857,-0.00034470565151423216,-0.006731713190674782
0.021336477249860764,0.0043134489096701145,-0.015701498836278915,0.010851850733160973,-0.00032968076993711293,-0.007050956599414349
0.021304184570908546,0.004259242210537195,-0.015235327184200287,0.01149322371929884,-0.000355175812728703,-0.007024265825748444
0.021336672827601433,0.0039170789532363415,-0.015799444168806076,0.011386319063603878,-0.0003410794015508145,-0.007341477088630199
0.021855900064110756,0.0037939264439046383,-0.015522838570177555,0.011128205806016922,-0.00032699742587283254,-0.007437762804329395
0.021931922063231468,0.004274436272680759,-0.015757206827402115,0.011326996609568596,-0.0003239676298107952,-0.007013293914496899
0.02155238389968872,0.004094512667506933,-0.014987204223871231,0.010426406748592854,-0.00033294694731011987,-0.00672672875225544
0.022159822285175323,0.004155117552727461,-0.015865936875343323,0.010315475054085255,-0.0003391916980035603,-0.006350213196128607
0.021906904876232147,0.004426777828484774,-0.015699520707130432,0.011037597432732582,-0.00037754091317765415,-0.006980631034821272
0.02202574536204338,0.004205789417028427,-0.01580173149704933,0.011128746904432774,-0.0003807261527981609,-0.007152628153562546
0.022083625197410583,0.004419371020048857,-0.01563653163611889,0.011101307347416878,-0.00036332636955194175,-0.007308130618184805
0.02196350134909153,0.004389085341244936,-0.016075702384114265,0.010537959635257721,-0.0005513711948879063,-0.0070478892885148525
0.022184859961271286,0.004587783012539148,-0.015548326075077057,0.01133748795837164,-0.0005533502553589642,-0.006545219570398331
0.02245388925075531,0.004262531641870737,-0.015717023983597755,0.010582362301647663,-0.0005422417889349163,-0.006987149361521006
0.022373655810952187,0.004254951141774654,-0.015100717544555664,0.010612636804580688,-0.0005665110656991601,-0.007117780856788158
0.022185049951076508,0.004237139131873846,-0.015856431797146797,0.011103613302111626,-0.000528783246409148,-0.007216821890324354
0.022616995498538017,0.004361218772828579,-0.015327099710702896,0.01102248765528202,-0.0005486055742949247,-0.0072014532051980495
0.022734377533197403,0.004426782485097647,-0.015530644915997982,0.011519811116158962,-0.0005174059187993407,-0.007268119603395462
0.022673625499010086,0.004305304493755102,-0.015421956777572632,0.011894010938704014,-0.0005631034728139639,-0.0071740588173270226
0.022853385657072067,0.00403066910803318,-0.015732022002339363,0.010639426298439503,-0.0005618071299977601,-0.0077850488014519215
0.02310037799179554,0.004419525619596243,-0.015596519224345684,0.011591259390115738,-0.0005495632067322731,-0.007823165506124496
0.022873349487781525,0.004390343092381954,-0.015383588150143623,0.01131438184529543,-0.0005790251889266074,-0.0080726882442832
0.022925255820155144,0.004526166245341301,-0.015800509601831436,0.011569724418222904,-0.0006061018793843687,-0.007909548468887806
0.023136716336011887,0.00436720997095108,-0.015476377680897713,0.011887981556355953,-0.000563603884074837,-0.007752882782369852
0.023138418793678284,0.004496121779084206,-0.016100745648145676,0.010681010782718658,-0.0006301391404122114,-0.008097021840512753
0.024037625640630722,0.00462448550388217,-0.015304363332688808,0.010908660478889942,-0.0006422044825740159,-0.007917968556284904
0.024138733744621277,0.004209569655358791,-0.01585814729332924,0.010711221024394035,-0.0006206944235600531,-0.0076392958872020245
0.023047706112265587,0.00425906665623188,-0.014999628067016602,0.010922100394964218,-0.0006278923829086125,-0.007967629469931126
0.022540833801031113,0.0046333749778568745,-0.01580558344721794,0.012184404768049717,-0.0005901986733078957,-0.00817913468927145
0.022540833801031113,0.0046333749778568745,-0.01580558344721794,0.012184404768049717,-0.0005901986733078957,-0.00817913468927145
0.023595526814460754,0.004792542662471533,-0.015682166442275047,0.011425750330090523,-0.0006074790144339204,-0.007869817316532135
0.023674827069044113,0.004729577340185642,-0.015838423743844032,0.011124733835458755,-0.0005686221411451697,-0.008102616295218468
0.02318328060209751,0.004579426255077124,-0.015388271771371365,0.011654622852802277,-0.0005629553343169391,-0.008289405144751072
0.023445436730980873,0.004323749803006649,-0.01569860801100731,0.012384798377752304,-0.0005337093025445938,-0.008007503114640713
0.02408621832728386,0.0043118116445839405,-0.016025207936763763,0.011854694224894047,-0.0005681378534063697,-0.007822600193321705
0.02435748465359211,0.004565693438053131,-0.015520869754254818,0.011338396929204464,-0.0005827813292853534,-0.007813598029315472
0.02395983785390854,0.004709741100668907,-0.015546472743153572,0.011765118688344955,-0.0005758774932473898,-0.008263301104307175
0.023188486695289612,0.005047480575740337,-0.01612374186515808,0.011968185193836689,-0.0007793518016114831,-0.008009972982108593
0.023839710280299187,0.004999842960387468,-0.015452212654054165,0.011956333182752132,-0.0008199925068765879,-0.007871109992265701
0.0247760321944952,0.004370768554508686,-0.016035297885537148,0.011395099572837353,-0.00077812623931095,-0.008117779158055782
0.024316158145666122,0.004404525272548199,-0.015922140330076218,0.012211834080517292,-0.0007685086457058787,-0.00795939564704895
0.024005914106965065,0.005048157647252083,-0.016274433583021164,0.011474145576357841,-0.0007146450225263834,-0.00819878838956356
0.02439202181994915,0.005131754092872143,-0.01640878990292549,0.01171303354203701,-0.0006513920379802585,-0.008744173683226109
0.024295492097735405,0.004727992694824934,-0.01605277508497238,0.011637338437139988,-0.000631621282082051,-0.008607028983533382
0.024409964680671692,0.004939293954521418,-0.016745883971452713,0.011354262009263039,-0.0005840230733156204,-0.00810621865093708
0.024286463856697083,0.004753139801323414,-0.016262052580714226,0.012046435847878456,-0.0006079516606405377,-0.008438202552497387
0.024245871230959892,0.004625684581696987,-0.016680177301168442,0.011912844143807888,-0.0005573400994762778,-0.00851291511207819
0.024215955287218094,0.004686429165303707,-0.016358783468604088,0.012126145884394646,-0.0005841045640408993,-0.008590231649577618
0.024284621700644493,0.005151327233761549,-0.01643296517431736,0.011980172246694565,-0.0005957339890301228,-0.00856777187436819
0.024423571303486824,0.005227451212704182,-0.016459697857499123,0.011474943719804287,-0.0005666494835168123,-0.008585549890995026
0.024792766198515892,0.005525670479983091,-0.016625521704554558,0.011849170550704002,-0.000570912379771471,-0.008592951111495495
0.024425994604825974,0.005095496773719788,-0.017044223845005035,0.011520139873027802,-0.0005458396626636386,-0.008093925192952156
0.024348944425582886,0.004662173334509134,-0.016033492982387543,0.012346277013421059,-0.0005607526982203126,-0.00862069521099329
0.024299798533320427,0.00485167047008872,-0.016721880063414574,0.012119699269533157,-0.0005279886536300182,-0.008616574108600616
0.024299798533320427,0.00485167047008872,-0.016721880063414574,0.012119699269533157,-0.0005279886536300182,-0.008616574108600616
0.023889806121587753,0.005242747720330954,-0.016235196962952614,0.011604387313127518,-0.0005568640190176666,-0.008542340248823166
0.02472139149904251,0.005036007147282362,-0.016501756384968758,0.011786197312176228,-0.0005104048759676516,-0.008557585068047047
0.02472139149904251,0.005036007147282362,-0.016501756384968758,0.011786197312176228,-0.0005104048759676516,-0.008557585068047047
0.024413403123617172,0.004851968958973885,-0.016262557357549667,0.012418433092534542,-0.0005048239254392684,-0.008472677320241928
0.023860743269324303,0.0044005136005580425,-0.017036961391568184,0.012295047752559185,-0.00047358067240566015,-0.00831470638513565
0.02501877024769783,0.004497225861996412,-0.01604371890425682,0.012323211878538132,-0.00044446150423027575,-0.008785843849182129
0.02517760545015335,0.004691502079367638,-0.016766196116805077,0.012887097895145416,-0.00042914182995446026,-0.008755209855735302
0.024956906214356422,0.005072491709142923,-0.01649628020823002,0.013102688826620579,-0.00036994757829234004,-0.008371862582862377
0.024956906214356422,0.005072491709142923,-0.01649628020823002,0.013102688826620579,-0.00036994757829234004,-0.008371862582862377
0.02492620050907135,0.0048953029327094555,-0.016245631501078606,0.0128299780189991,-0.0003789585898630321,-0.009039506316184998
0.025534695014357567,0.004895851016044617,-0.01686251163482666,0.01242070458829403,-0.00035595110966823995,-0.009196927770972252
0.025822799652814865,0.004818734712898731,-0.016498811542987823,0.012623759917914867,-0.00033405114663764834,-0.008951700292527676
0.024969112128019333,0.005285287741571665,-0.01703685335814953,0.012601809576153755,-0.000359936966560781,-0.008948835544288158
0.02506103366613388,0.005230060312896967,-0.016807762905955315,0.012601632624864578,-0.0003463456523604691,-0.008473084308207035
0.02551889978349209,0.005088436882942915,-0.016540376469492912,0.012389276176691055,-0.0003723987902048975,-0.007769423071295023
0.025659281760454178,0.005136316176503897,-0.016688577830791473,0.012491809204220772,-0.00041796473669819534,-0.00795979704707861
0.025761885568499565,0.004951505456119776,-0.016375606879591942,0.012716950848698616,-0.00044093665201216936,-0.00796544086188078
0.02543889917433262,0.0047698491252958775,-0.01714944653213024,0.012361876666545868,-0.0004416073497850448,-0.007788483519107103
0.025188148021697998,0.005214710254222155,-0.016972871497273445,0.01262059435248375,-0.00041043153032660484,-0.00817431602627039
0.026054052636027336,0.0052339984104037285,-0.016878239810466766,0.012793602421879768,-0.00041243218583986163,-0.008719691075384617
0.025964168831706047,0.005271973088383675,-0.016621092334389687,0.013071696273982525,-0.0004136391798965633,-0.009058103896677494
0.02580253966152668,0.0048370761796832085,-0.01626962050795555,0.013059120625257492,-0.0004309043288230896,-0.008938186801970005
0.02577565424144268,0.00465228408575058,-0.01726563461124897,0.012992795556783676,-0.00041877327021211386,-0.008399780839681625
0.025670085102319717,0.004753955639898777,-0.016617678105831146,0.012985958717763424,-0.000460635288618505,-0.008720635436475277
0.025828858837485313,0.005581815727055073,-0.016787288710474968,0.012618092820048332,-0.00047421082854270935,-0.0086860042065382
0.025587670505046844,0.0054282499477267265,-0.016660204157233238,0.012812888249754906,-0.00043265800923109055,-0.008982917293906212
0.025587670505046844,0.0054282499477267265,-0.016660204157233238,0.012812888249754906,-0.00043265800923109055,-0.008982917293906212
0.026223400607705116,0.005326577462255955,-0.01701836846768856,0.012434666976332664,-0.00046824486344121397,-0.009255712851881981
0.026084262877702713,0.005012341775000095,-0.017121754586696625,0.012449923902750015,-0.0004704222083091736,-0.008890152908861637
0.025856943801045418,0.004731073044240475,-0.0165853314101696,0.012330356054008007,-0.0004678148834500462,-0.008972248993813992
0.026358190923929214,0.004420500714331865,-0.016939258202910423,0.012646199204027653,-0.0004914278979413211,-0.009168281219899654
0.026362968608736992,0.00429715309292078,-0.01686015911400318,0.01244494691491127,-0.0004670422349590808,-0.009686161763966084
0.02619568444788456,0.004609482362866402,-0.017300324514508247,0.012014178559184074,-0.000537869636900723,-0.009107003919780254
0.02677149884402752,0.004850505385547876,-0.017076821997761726,0.01274770125746727,-0.000494806095957756,-0.008984250947833061
0.026294877752661705,0.005107115488499403,-0.01654493622481823,0.012748596258461475,-0.0005295543232932687,-0.008615726605057716
0.026972005143761635,0.0048082005232572556,-0.017507165670394897,0.01348293386399746,-0.0005189762450754642,-0.009167250245809555
0.02677156962454319,0.004525705240666866,-0.01741708815097809,0.013597041368484497,-0.0005455901846289635,-0.00946357287466526
0.026469487696886063,0.0045328279957175255,-0.017360810190439224,0.013777414336800575,-0.0006305805291049182,-0.009510548785328865
0.026493582874536514,0.005060866475105286,-0.017250770702958107,0.01297333836555481,-0.0005901205586269498,-0.009736083447933197
0.02698531746864319,0.004501028452068567,-0.017615661025047302,0.012581112794578075,-0.0006211664294824004,-0.00967898964881897
0.026981530711054802,0.004475238732993603,-0.01688499003648758,0.012228247709572315,-0.0006314397905953228,-0.009365856647491455
0.027144651859998703,0.004187511745840311,-0.017399335280060768,0.013148135505616665,-0.0006344101275317371,-0.009501270949840546
0.027152178809046745,0.0043172528967261314,-0.017654795199632645,0.012437746860086918,-0.0006183705991134048,-0.010028359480202198
0.02765457145869732,0.00441771000623703,-0.017487166449427605,0.013216940686106682,-0.0006666149711236358,-0.009498408064246178
0.027348671108484268,0.004600241780281067,-0.017566069960594177,0.01302275899797678,-0.0006112384144216776,-0.00975279975682497
0.027396919205784798,0.0047783637419342995,-0.017038539052009583,0.013417595997452736,-0.0006327616283670068,-0.010138874873518944
0.02724934183061123,0.004317926242947578,-0.017894985154271126,0.013420678675174713,-0.0006240157526917756,-0.009344480000436306
0.027478987351059914,0.004312973935157061,-0.01847938820719719,0.013461929745972157,-0.000606357294600457,-0.009242973290383816
0.0277095977216959,0.004671761766076088,-0.017646968364715576,0.013413339853286743,-0.0006240340881049633,-0.009523896500468254
0.027308357879519463,0.0047380938194692135,-0.017651021480560303,0.01375565305352211,-0.000582957174628973,-0.009468220174312592
0.027459505945444107,0.0047335694544017315,-0.017987333238124847,0.01389358751475811,-0.0006015337421558797,-0.009490218944847584
0.027224445715546608,0.0044652982614934444,-0.01807870902121067,0.01385264378041029,-0.0005407140706665814,-0.009658298455178738
0.027224445715546608,0.0044652982614934444,-0.01807870902121067,0.01385264378041029,-0.0005407140706665814,-0.009658298455178738
0.02798314392566681,0.004435066133737564,-0.01752651110291481,0.014164111576974392,-0.0005538605037145317,-0.009476372972130775
0.02855423465371132,0.004649891518056393,-0.017337439581751823,0.01418323814868927,-0.0005219838349148631,-0.009608128108084202
0.028431467711925507,0.004285553935915232,-0.018059141933918,0.013805512338876724,-0.0005355102475732565,-0.010007407516241074
0.026844680309295654,0.004479971248656511,-0.018706662580370903,0.013370554894208908,-0.0005102289724163711,-0.010404563508927822
0.02769644372165203,0.004591305740177631,-0.01783938705921173,0.013820604421198368,-0.0005314168520271778,-0.009867453016340733
0.028578221797943115,0.004490680526942015,-0.018186863511800766,0.013920694589614868,-0.0005023484700359404,-0.009833374060690403
0.027954764664173126,0.004882357083261013,-0.017967967316508293,0.014235265552997589,-0.00047005951637402177,-0.009817334823310375
0.028755269944667816,0.0044426871463656425,-0.018048368394374847,0.0138182258233428,-0.00046415464021265507,-0.010508229956030846
0.028022747486829758,0.004057000856846571,-0.0178202074021101,0.013319106772542,-0.00046190244029276073,-0.010091734118759632
0.027905553579330444,0.004269166849553585,-0.018001314252614975,0.013843555003404617,-0.0004940102226100862,-0.009920257143676281
0.02781849354505539,0.004317486193031073,-0.01809092052280903,0.013508266769349575,-0.0005107776378281415,-0.01036999560892582
0.028068358078598976,0.0040641832165420055,-0.017451521009206772,0.014031073078513145,-0.0004913007142022252,-0.009928262792527676
0.02883596159517765,0.0042129806242883205,-0.018123555928468704,0.013995838351547718,-0.0006281653186306357,-0.01039140485227108
0.028526311740279198,0.004470334388315678,-0.017881404608488083,0.014092303812503815,-0.0006008414784446359,-0.010286791250109673
0.027804428711533546,0.004199835937470198,-0.01794217899441719,0.013417973183095455,-0.000533251790329814,-0.009925510734319687
0.029277803376317024,0.003942125476896763,-0.01823369972407818,0.013823513872921467,-0.0005588714266195893,-0.010457441210746765
0.028528282418847084,0.004383926745504141,-0.017624840140342712,0.013741136528551579,-0.0005164917092770338,-0.01039908267557621
0.028674645349383354,0.00418838718906045,-0.0177791565656662,0.014049944467842579,-0.00047202405403368175,-0.01060099620372057
0.02876720391213894,0.004398877266794443,-0.018157467246055603,0.014152280986309052,-0.0004340879386290908,-0.01080755703151226
0.028861282393336296,0.004387565888464451,-0.017688535153865814,0.01391870342195034,-0.0004017692990601063,-0.009993479587137699
0.02914034016430378,0.0042997561395168304,-0.018062802031636238,0.01421977486461401,-0.0004277572443243116,-0.00991776678711176
0.028813933953642845,0.004389242734760046,-0.017742067575454712,0.014255457557737827,-0.00040742644341662526,-0.010780003853142262
0.028813933953642845,0.004389242734760046,-0.017742067575454712,0.014255457557737827,-0.00040742644341662526,-0.010780003853142262
0.02928061969578266,0.004504004493355751,-0.0181906558573246,0.014274412766098976,-0.0003831191861536354,-0.011151044629514217
0.029256274923682213,0.004363475367426872,-0.018239976838231087,0.014403586275875568,-0.0004058082413394004,-0.010594923049211502
0.0292214285582304,0.004450342617928982,-0.017260031774640083,0.014489474706351757,-0.00038993070484139025,-0.010658271610736847
0.02917604148387909,0.0042853509075939655,-0.018007641658186913,0.014469745568931103,-0.00034028335358016193,-0.010758239775896072
0.02899440936744213,0.004319579340517521,-0.01818065531551838,0.014506200328469276,-0.0003133014542981982,-0.010427550412714481
0.02926327846944332,0.004144906997680664,-0.017575401812791824,0.014588396064937115,-0.0003471440286375582,-0.010526744648814201
0.03059561736881733,0.003933006431907415,-0.018100418150424957,0.014541552402079105,-0.00036996271228417754,-0.010657050646841526
0.029442541301250458,0.004304014146327972,-0.017769988626241684,0.014341380447149277,-0.00038682977901771665,-0.010565105825662613
0.02831738069653511,0.004517127759754658,-0.017859920859336853,0.01470231730490923,-0.0003900056181009859,-0.010595090687274933
0.029208289459347725,0.00465941708534956,-0.017996590584516525,0.014870528131723404,-0.0006345970323309302,-0.010870548896491528
0.029421888291835785,0.004113040864467621,-0.017999965697526932,0.01454932615160942,-0.0006271168240346014,-0.010771611705422401
0.029654620215296745,0.004264832008630037,-0.017857830971479416,0.01476985588669777,-0.0006442538578994572,-0.010818880051374435
0.030182959511876106,0.0040320358239114285,-0.017643101513385773,0.01483176089823246,-0.0005944675067439675,-0.010567625053226948
0.03028126247227192,0.0037630742881447077,-0.017978716641664505,0.014535271562635899,-0.0006007679621689022,-0.010418042540550232
0.029591655358672142,0.004184734541922808,-0.017796998843550682,0.015002944506704807,-0.0005707790842279792,-0.01069308165460825
0.02883732132613659,0.004064147360622883,-0.017940431833267212,0.014688516966998577,-0.0005593823152594268,-0.011028860695660114
0.030118253082036972,0.00439869100227952,-0.01810067892074585,0.014821826480329037,-0.0005261850892566144,-0.010574211366474628
0.03031545877456665,0.004176640883088112,-0.017936188727617264,0.014387744478881359,-0.0005184158217161894,-0.010612343437969685
0.030053667724132538,0.0039304448291659355,-0.01840854249894619,0.014720753766596317,-0.0005104186711832881,-0.01062703225761652
0.02974068745970726,0.004274108447134495,-0.01834297738969326,0.014239686541259289,-0.0005361249204725027,-0.01035110279917717
0.03082505613565445,0.004126090090721846,-0.01787635311484337,0.014800207689404488,-0.0005374738830141723,-0.010497137904167175
0.030190909281373024,0.0039604357443749905,-0.01836109720170498,0.014690815471112728,-0.0005302209174260497,-0.010287306271493435
0.030871564522385597,0.0038290866650640965,-0.018492644652724266,0.015140102244913578,-0.0006148673710413277,-0.010430608876049519
0.030577825382351875,0.0040043373592197895,-0.018926473334431648,0.014826059341430664,-0.0006620161584578454,-0.010826432146131992
0.03043122962117195,0.00396275008097291,-0.01975664496421814,0.015116744674742222,-0.0006446356419473886,-0.010841130279004574
0.03043122962117195,0.00396275008097291,-0.01975664496421814,0.015116744674742222,-0.0006446356419473886,-0.010841130279004574
0.030834872275590897,0.003980791196227074,-0.019099220633506775,0.014898114837706089,-0.0006240953225642443,-0.011027791537344456
0.030835378915071487,0.004297418054193258,-0.01856791228055954,0.015325997024774551,-0.0006460461299866438,-0.011289036832749844
0.030868973582983017,0.0039873369969427586,-0.01848582923412323,0.015234085731208324,-0.0007735140970908105,-0.011329863220453262
0.031169220805168152,0.004198633134365082,-0.01823599822819233,0.015303320251405239,-0.0008122646831907332,-0.011426360346376896
0.030625252053141594,0.004239500965923071,-0.019048431888222694,0.014426179230213165,-0.000801425485406071,-0.01081395149230957
0.030906060710549355,0.004060966428369284,-0.01943260431289673,0.014678291976451874,-0.0007852831040509045,-0.010875293985009193
0.03129616379737854,0.0038782889023423195,-0.018979676067829132,0.014528604224324226,-0.0008461207034997642,-0.011084702797234058
0.030988208949565887,0.004292449913918972,-0.018725531175732613,0.014891097322106361,-0.0008734922157600522,-0.01122292224317789
0.02993750385940075,0.004165165591984987,-0.019073696807026863,0.014883716590702534,-0.0008140438003465533,-0.011510067619383335
0.03219089284539223,0.0040332721546292305,-0.019526012241840363,0.015401110984385014,-0.000808649871032685,-0.010441262274980545
0.03185643255710602,0.0040140412747859955,-0.019826393574476242,0.015839165076613426,-0.0008117878460325301,-0.012028094381093979
0.03163786232471466,0.0044124918058514595,-0.018672455102205276,0.01600871980190277,-0.0008515323861502111,-0.012492584995925426
0.031736280769109726,0.004223186988383532,-0.018855353817343712,0.015466306358575821,-0.0008602449088357389,-0.012201729230582714
0.03169899061322212,0.004554779268801212,-0.018601108342409134,0.015774240717291832,-0.0008654018747620285,-0.011687712743878365
0.03156045079231262,0.00418089097365737,-0.018403274938464165,0.015398251824080944,-0.0007964838878251612,-0.012256688438355923
0.032143350690603256,0.0038288943469524384,-0.018094975501298904,0.01635173335671425,-0.0008245036588050425,-0.011655892245471478
0.03199414163827896,0.004200625233352184,-0.01905141770839691,0.01607782207429409,-0.000800226756837219,-0.011700907722115517
0.03201723471283913,0.004122646059840918,-0.019206061959266663,0.01622077263891697,-0.0007518579950556159,-0.011917066760361195
0.03212260082364082,0.0041964612901210785,-0.019166242331266403,0.01583397202193737,-0.0006634590681642294,-0.012309371493756771
0.03217298164963722,0.004098627250641584,-0.019341779872775078,0.016372034326195717,-0.0005909817991778255,-0.01261778362095356
0.03259407728910446,0.004425437189638615,-0.01929229497909546,0.01638730615377426,-0.0006089961971156299,-0.012592261657118797
0.03342287614941597,0.004694490693509579,-0.019540708512067795,0.016050424426794052,-0.0005647228681482375,-0.012561527080833912
0.03279652073979378,0.004336285404860973,-0.019332246854901314,0.016179129481315613,-0.0005188498180359602,-0.012555633671581745
0.031380366533994675,0.003940613940358162,-0.01883676089346409,0.016041824594140053,-0.0005384789546951652,-0.012850572355091572
0.0313677079975605,0.004284439608454704,-0.019458049908280373,0.016793400049209595,-0.00050848547834903,-0.01256632898002863
0.0313677079975605,0.004284439608454704,-0.019458049908280373,0.016793400049209595,-0.00050848547834903,-0.01256632898002863
0.03270260617136955,0.004139421507716179,-0.01966857723891735,0.016490017995238304,-0.00044186547165736556,-0.012645119801163673
0.03282048553228378,0.00423912238329649,-0.01940113492310047,0.016309820115566254,-0.00039482323336414993,-0.01292106881737709
0.0337359644472599,0.004596755839884281,-0.02008124068379402,0.016191517934203148,-0.0004297780687920749,-0.013126727193593979
0.0339026041328907,0.00468722777441144,-0.019601285457611084,0.015804748982191086,-0.00040211406303569674,-0.0133559200912714
0.032977450639009476,0.004283273126929998,-0.01892077922821045,0.016040997579693794,-0.0004325340851210058,-0.01281216461211443
0.03175845369696617,0.004469480365514755,-0.019971903413534164,0.015678388997912407,-0.0004587352741509676,-0.01278913114219904
0.03293168544769287,0.004199821036309004,-0.020062077790498734,0.01607450097799301,-0.00044032567529939115,-0.012729826383292675
0.03362620249390602,0.004320222418755293,-0.019425276666879654,0.01602829620242119,-0.000601187814027071,-0.012772289104759693
0.03317819535732269,0.004509462043642998,-0.01973559334874153,0.016240233555436134,-0.0006438212003558874,-0.013090570457279682
0.03339415788650513,0.004751523025333881,-0.01975555159151554,0.01627998799085617,-0.0006527530495077372,-0.013401848264038563
0.03367960453033447,0.004452439956367016,-0.01942809671163559,0.016642212867736816,-0.0006115725263953209,-0.013800056651234627
0.03327324241399765,0.004483626689761877,-0.01983257383108139,0.016376670449972153,-0.0006328484159894288,-0.01347413845360279
0.03339427337050438,0.0042842379771173,-0.02004460245370865,0.01598425582051277,-0.0006649215356446803,-0.013682974502444267
0.03336454927921295,0.004934569820761681,-0.019837016239762306,0.01606457680463791,-0.0006778651149943471,-0.013792253099381924
0.033670395612716675,0.004507437348365784,-0.01993737369775772,0.016666246578097343,-0.0006792829954065382,-0.01352821383625269
0.03347776085138321,0.004524637944996357,-0.01950252801179886,0.016102401539683342,-0.0006337049417197704,-0.013554724864661694
0.03331887349486351,0.004443890415132046,-0.019450083374977112,0.01599780097603798,-0.0006536177243106067,-0.013580157421529293
0.033853139728307724,0.004338653292506933,-0.020105762407183647,0.015992194414138794,-0.0006580576882697642,-0.013792736455798149
0.03449700027704239,0.0048341890797019005,-0.02014346234500408,0.015995392575860023,-0.0006208900013007224,-0.013814383186399937
0.03355439379811287,0.004492286127060652,-0.019795605912804604,0.01599612645804882,-0.0006284831906668842,-0.013965639285743237
0.03293760120868683,0.004569291602820158,-0.020285677164793015,0.01616690680384636,-0.0006319339154288173,-0.014021365903317928
0.034059133380651474,0.004381153732538223,-0.020891444757580757,0.016925524920225143,-0.0006140668992884457,-0.013986120000481606
0.03343875706195831,0.004833655897527933,-0.019758937880396843,0.01663556508719921,-0.0005620999727398157,-0.013809816911816597
0.03376731276512146,0.0048065027222037315,-0.02011249028146267,0.01698380708694458,-0.0005846848944202065,-0.01371784694492817
0.03487330302596092,0.00487759243696928,-0.020064126700162888,0.01661626808345318,-0.0006052098469808698,-0.014115948230028152
0.034425828605890274,0.004429684020578861,-0.0199117511510849,0.016371777281165123,-0.0006289136945270002,-0.014140160754323006
0.03291400894522667,0.004422050900757313,-0.020078357309103012,0.016260597854852676,-0.0006577203166671097,-0.014091732911765575
0.0335223525762558,0.004455778282135725,-0.02070634998381138,0.015973972156643867,-0.000659469049423933,-0.014195241965353489
0.03448449820280075,0.00459836982190609,-0.020751802250742912,0.016978999599814415,-0.000640721817035228,-0.014414602890610695
0.03444436937570572,0.004709036089479923,-0.019591402262449265,0.01721673458814621,-0.0007818369194865227,-0.014474496245384216
0.03444436937570572,0.004709036089479923,-0.019591402262449265,0.01721673458814621,-0.0007818369194865227,-0.014474496245384216
0.03452504798769951,0.004636367782950401,-0.020025312900543213,0.017339607700705528,-0.0008114833035506308,-0.01428986806422472
0.0345332995057106,0.004940132610499859,-0.02102399617433548,0.017059221863746643,-0.000778408779297024,-0.014454592950642109
0.0345647893846035,0.005041220225393772,-0.02072198875248432,0.017051732167601585,-0.0007898726616986096,-0.0147969089448452
0.03446148708462715,0.0047621773555874825,-0.02024339884519577,0.017140422016382217,-0.000756478460971266,-0.014740636572241783
0.03478246182203293,0.004751863423734903,-0.021319644525647163,0.017563529312610626,-0.0007774794357828796,-0.014649776741862297
0.035051826387643814,0.004811860620975494,-0.020570293068885803,0.017754798755049706,-0.0007685596938244998,-0.01429010834544897
0.03479357436299324,0.004360312130302191,-0.01992468349635601,0.017493050545454025,-0.0007547964924015105,-0.014619454741477966
0.034851767122745514,0.003905449528247118,-0.020637081936001778,0.017134161666035652,-0.0007199383690021932,-0.014886819757521152
0.03516561537981033,0.004206241574138403,-0.021475136280059814,0.017029142007231712,-0.0007350561209022999,-0.015476067550480366
0.03554736450314522,0.004201100207865238,-0.020879408344626427,0.01645774580538273,-0.0007188451709225774,-0.014220962300896645
0.03578232601284981,0.004015123937278986,-0.020534520968794823,0.017656585201621056,-0.0006630848511122167,-0.014526068232953548
0.03578633442521095,0.004150589928030968,-0.02079359069466591,0.018178103491663933,-0.0006650852737948298,-0.015127492137253284
0.035737115889787674,0.004100194200873375,-0.02030358836054802,0.017833776772022247,-0.000642493658233434,-0.015326623804867268
0.03616994619369507,0.003845115192234516,-0.020771782845258713,0.01750129833817482,-0.0006633872981183231,-0.0151557307690382
0.036233581602573395,0.0042289867997169495,-0.021346058696508408,0.017844732850790024,-0.000670018489472568,-0.015586897730827332
0.03610016405582428,0.0043090027756989,-0.020863162353634834,0.018436919897794724,-0.0006319306557998061,-0.0157877579331398
0.0361163392663002,0.004481315612792969,-0.0200780238956213,0.01837141625583172,-0.0006105461507104337,-0.015415212139487267
0.03624984622001648,0.00415419228374958,-0.020561594516038895,0.018513847142457962,-0.0005913234199397266,-0.015157978981733322
0.036574024707078934,0.003977208863943815,-0.020934049040079117,0.01807798258960247,-0.0006125879008322954,-0.015177969820797443
0.036732032895088196,0.004099486395716667,-0.02044328674674034,0.0172612015157938,-0.0006071682437323034,-0.015123076736927032
0.03647283837199211,0.004164683632552624,-0.020818032324314117,0.017384959384799004,-0.000593352597206831,-0.015085294842720032
0.0370548777282238,0.0039048593025654554,-0.021392863243818283,0.01679861731827259,-0.0005995487445034087,-0.014861914329230785
0.036858391016721725,0.0037099146284163,-0.021054090932011604,0.017045199871063232,-0.0005980671267025173,-0.015219161286950111
0.036541324108839035,0.004275334533303976,-0.02050047554075718,0.017673783004283905,-0.0005815266631543636,-0.015575182624161243
0.03710081800818443,0.0040769027546048164,-0.020969923585653305,0.017524605616927147,-0.0006094052805565298,-0.015803230926394463
0.03813042491674423,0.004448000341653824,-0.021188359707593918,0.017810529097914696,-0.0006297174841165543,-0.015732550993561745
0.03769122064113617,0.004650140646845102,-0.020643020048737526,0.01772528700530529,-0.0005880017415620387,-0.015697728842496872
0.03608335927128792,0.004252424463629723,-0.02106964960694313,0.017711216583848,-0.0006694140029139817,-0.015974320471286774
0.03744395822286606,0.003981548827141523,-0.02126557007431984,0.01798071712255478,-0.0007121384260244668,-0.015960197895765305
0.037678200751543045,0.003945973701775074,-0.021264925599098206,0.017381370067596436,-0.0006366984453052282,-0.0157590601593256
0.037678200751543045,0.003945973701775074,-0.021264925599098206,0.017381370067596436,-0.0006366984453052282,-0.0157590601593256
0.03764618933200836,0.0040780906565487385,-0.020617347210645676,0.017474090680480003,-0.000658010074403137,-0.01536588929593563
0.03876180574297905,0.004076399840414524,-0.02074354514479637,0.017423482611775398,-0.0006638150080107152,-0.015642300248146057
0.03834657743573189,0.004201141186058521,-0.021085288375616074,0.017312435433268547,-0.0006258345092646778,-0.0160429235547781
0.03629262372851372,0.004184854682534933,-0.020909275859594345,0.017572646960616112,-0.0006389254704117775,-0.01634194515645504
0.038242682814598083,0.004281976260244846,-0.02044672518968582,0.017420392483472824,-0.00068041926715523,-0.016669537872076035
0.03836613893508911,0.00398247130215168,-0.020983459427952766,0.017963072285056114,-0.0007061281357891858,-0.016481800004839897
0.03799627721309662,0.0038810826372355223,-0.021234288811683655,0.017970172688364983,-0.0007261135033331811,-0.016250457614660263
0.03756476938724518,0.003997665364295244,-0.02083004079759121,0.01809607446193695,-0.0009186968090943992,-0.016153493896126747
0.037922367453575134,0.004092628601938486,-0.0211412962526083,0.018636571243405342,-0.0009776067454367876,-0.016196848824620247
0.038063716143369675,0.004061583429574966,-0.02110332064330578,0.01821584440767765,-0.0009695151820778847,-0.015960505232214928
0.03810695931315422,0.004034105688333511,-0.021090030670166016,0.01867377758026123,-0.0009600351331755519,-0.016248561441898346
0.03794087842106819,0.0040190923027694225,-0.0215150099247694,0.018285177648067474,-0.0009437022963538766,-0.01687662862241268
0.039175353944301605,0.003933145198971033,-0.022261954843997955,0.018200276419520378,-0.0009018508717417717,-0.0167335644364357
0.039264410734176636,0.003910262603312731,-0.02183806151151657,0.018751168623566628,-0.0008993397932499647,-0.016154544427990913
